entry/src/main/resources/rawfile/filters/AmberHour.cube
TITLE "Amber Hour"
LUT_3D_SIZE 6
0.000000 0.000000 0.000000
0.290255 0.000000 0.000000
0.523186 0.000000 0.000000
0.738471 0.000000 0.000000
0.943043 0.000000 0.000000
1.000000 0.000000 0.000000
0.000000 0.234307 0.000000
0.290255 0.234307 0.000000
0.523186 0.234307 0.000000
0.738471 0.234307 0.000000
0.943043 0.234307 0.000000
1.000000 0.234307 0.000000
0.000000 0.443335 0.000000
0.290255 0.443335 0.000000
0.523186 0.443335 0.000000
0.738471 0.443335 0.000000
0.943043 0.443335 0.000000
1.000000 0.443335 0.000000
0.000000 0.643778 0.000000
0.290255 0.643778 0.000000
0.523186 0.643778 0.000000
0.738471 0.643778 0.000000
0.943043 0.643778 0.000000
1.000000 0.643778 0.000000
0.000000 0.838842 0.000000
0.290255 0.838842 0.000000
0.523186 0.838842 0.000000
0.738471 0.838842 0.000000
0.943043 0.838842 0.000000
1.000000 0.838842 0.000000
0.000000 1.000000 0.000000
0.290255 1.000000 0.000000
0.523186 1.000000 0.000000
0.738471 1.000000 0.000000
0.943043 1.000000 0.000000
1.000000 1.000000 0.000000
0.000000 0.000000 0.098974
0.290255 0.000000 0.098974
0.523186 0.000000 0.098974
0.738471 0.000000 0.098974
0.943043 0.000000 0.098974
1.000000 0.000000 0.098974
0.000000 0.234307 0.098974
0.290255 0.234307 0.098974
0.523186 0.234307 0.098974
0.738471 0.234307 0.098974
0.943043 0.234307 0.098974
1.000000 0.234307 0.098974
0.000000 0.443335 0.098974
0.290255 0.443335 0.098974
0.523186 0.443335 0.098974
0.738471 0.443335 0.098974
0.943043 0.443335 0.098974
1.000000 0.443335 0.098974
0.000000 0.643778 0.098974
0.290255 0.643778 0.098974
0.523186 0.643778 0.098974
0.738471 0.643778 0.098974
0.943043 0.643778 0.098974
1.000000 0.643778 0.098974
0.000000 0.838842 0.098974
0.290255 0.838842 0.098974
0.523186 0.838842 0.098974
0.738471 0.838842 0.098974
0.943043 0.838842 0.098974
1.000000 0.838842 0.098974
0.000000 1.000000 0.098974
0.290255 1.000000 0.098974
0.523186 1.000000 0.098974
0.738471 1.000000 0.098974
0.943043 1.000000 0.098974
1.000000 1.000000 0.098974
0.000000 0.000000 0.235400
0.290255 0.000000 0.235400
0.523186 0.000000 0.235400
0.738471 0.000000 0.235400
0.943043 0.000000 0.235400
1.000000 0.000000 0.235400
0.000000 0.234307 0.235400
0.290255 0.234307 0.235400
0.523186 0.234307 0.235400
0.738471 0.234307 0.235400
0.943043 0.234307 0.235400
1.000000 0.234307 0.235400
0.000000 0.443335 0.235400
0.290255 0.443335 0.235400
0.523186 0.443335 0.235400
0.738471 0.443335 0.235400
0.943043 0.443335 0.235400
1.000000 0.443335 0.235400
0.000000 0.643778 0.235400
0.290255 0.643778 0.235400
0.523186 0.643778 0.235400
0.738471 0.643778 0.235400
0.943043 0.643778 0.235400
1.000000 0.643778 0.235400
0.000000 0.838842 0.235400
0.290255 0.838842 0.235400
0.523186 0.838842 0.235400
0.738471 0.838842 0.235400
0.943043 0.838842 0.235400
1.000000 0.838842 0.235400
0.000000 1.000000 0.235400
0.290255 1.000000 0.235400
0.523186 1.000000 0.235400
0.738471 1.000000 0.235400
0.943043 1.000000 0.235400
1.000000 1.000000 0.235400
0.000000 0.000000 0.390770
0.290255 0.000000 0.390770
0.523186 0.000000 0.390770
0.738471 0.000000 0.390770
0.943043 0.000000 0.390770
1.000000 0.000000 0.390770
0.000000 0.234307 0.390770
0.290255 0.234307 0.390770
0.523186 0.234307 0.390770
0.738471 0.234307 0.390770
0.943043 0.234307 0.390770
1.000000 0.234307 0.390770
0.000000 0.443335 0.390770
0.290255 0.443335 0.390770
0.523186 0.443335 0.390770
0.738471 0.443335 0.390770
0.943043 0.443335 0.390770
1.000000 0.443335 0.390770
0.000000 0.643778 0.390770
0.290255 0.643778 0.390770
0.523186 0.643778 0.390770
0.738471 0.643778 0.390770
0.943043 0.643778 0.390770
1.000000 0.643778 0.390770
0.000000 0.838842 0.390770
0.290255 0.838842 0.390770
0.523186 0.838842 0.390770
0.738471 0.838842 0.390770
0.943043 0.838842 0.390770
1.000000 0.838842 0.390770
0.000000 1.000000 0.390770
0.290255 1.000000 0.390770
0.523186 1.000000 0.390770
0.738471 1.000000 0.390770
0.943043 1.000000 0.390770
1.000000 1.000000 0.390770
0.000000 0.000000 0.559879
0.290255 0.000000 0.559879
0.523186 0.000000 0.559879
0.738471 0.000000 0.559879
0.943043 0.000000 0.559879
1.000000 0.000000 0.559879
0.000000 0.234307 0.559879
0.290255 0.234307 0.559879
0.523186 0.234307 0.559879
0.738471 0.234307 0.559879
0.943043 0.234307 0.559879
1.000000 0.234307 0.559879
0.000000 0.443335 0.559879
0.290255 0.443335 0.559879
0.523186 0.443335 0.559879
0.738471 0.443335 0.559879
0.943043 0.443335 0.559879
1.000000 0.443335 0.559879
0.000000 0.643778 0.559879
0.290255 0.643778 0.559879
0.523186 0.643778 0.559879
0.738471 0.643778 0.559879
0.943043 0.643778 0.559879
1.000000 0.643778 0.559879
0.000000 0.838842 0.559879
0.290255 0.838842 0.559879
0.523186 0.838842 0.559879
0.738471 0.838842 0.559879
0.943043 0.838842 0.559879
1.000000 0.838842 0.559879
0.000000 1.000000 0.559879
0.290255 1.000000 0.559879
0.523186 1.000000 0.559879
0.738471 1.000000 0.559879
0.943043 1.000000 0.559879
1.000000 1.000000 0.559879
0.000000 0.000000 0.740000
0.290255 0.000000 0.740000
0.523186 0.000000 0.740000
0.738471 0.000000 0.740000
0.943043 0.000000 0.740000
1.000000 0.000000 0.740000
0.000000 0.234307 0.740000
0.290255 0.234307 0.740000
0.523186 0.234307 0.740000
0.738471 0.234307 0.740000
0.943043 0.234307 0.740000
1.000000 0.234307 0.740000
0.000000 0.443335 0.740000
0.290255 0.443335 0.740000
0.523186 0.443335 0.740000
0.738471 0.443335 0.740000
0.943043 0.443335 0.740000
1.000000 0.443335 0.740000
0.000000 0.643778 0.740000
0.290255 0.643778 0.740000
0.523186 0.643778 0.740000
0.738471 0.643778 0.740000
0.943043 0.643778 0.740000
1.000000 0.643778 0.740000
0.000000 0.838842 0.740000
0.290255 0.838842 0.740000
0.523186 0.838842 0.740000
0.738471 0.838842 0.740000
0.943043 0.838842 0.740000
1.000000 0.838842 0.740000
0.000000 1.000000 0.740000
0.290255 1.000000 0.740000
0.523186 1.000000 0.740000
0.738471 1.000000 0.740000
0.943043 1.000000 0.740000
1.000000 1.000000 0.740000
