entry/src/main/resources/rawfile/filters/AmberHour.cube
TITLE "Amber Hour"
LUT_3D_SIZE 16
0.000000 0.000000 0.000000
0.114085 0.000000 0.000000
0.205638 0.000000 0.000000
0.290255 0.000000 0.000000
0.370662 0.000000 0.000000
0.448076 0.000000 0.000000
0.523186 0.000000 0.000000
0.596432 0.000000 0.000000
0.668119 0.000000 0.000000
0.738471 0.000000 0.000000
0.807658 0.000000 0.000000
0.875812 0.000000 0.000000
0.943043 0.000000 0.000000
1.000000 0.000000 0.000000
1.000000 0.000000 0.000000
1.000000 0.000000 0.000000
0.000000 0.085277 0.000000
0.114085 0.085277 0.000000
0.205638 0.085277 0.000000
0.290255 0.085277 0.000000
0.370662 0.085277 0.000000
0.448076 0.085277 0.000000
0.523186 0.085277 0.000000
0.596432 0.085277 0.000000
0.668119 0.085277 0.000000
0.738471 0.085277 0.000000
0.807658 0.085277 0.000000
0.875812 0.085277 0.000000
0.943043 0.085277 0.000000
1.000000 0.085277 0.000000
1.000000 0.085277 0.000000
1.000000 0.085277 0.000000
0.000000 0.161354 0.000000
0.114085 0.161354 0.000000
0.205638 0.161354 0.000000
0.290255 0.161354 0.000000
0.370662 0.161354 0.000000
0.448076 0.161354 0.000000
0.523186 0.161354 0.000000
0.596432 0.161354 0.000000
0.668119 0.161354 0.000000
0.738471 0.161354 0.000000
0.807658 0.161354 0.000000
0.875812 0.161354 0.000000
0.943043 0.161354 0.000000
1.000000 0.161354 0.000000
1.000000 0.161354 0.000000
1.000000 0.161354 0.000000
0.000000 0.234307 0.000000
0.114085 0.234307 0.000000
0.205638 0.234307 0.000000
0.290255 0.234307 0.000000
0.370662 0.234307 0.000000
0.448076 0.234307 0.000000
0.523186 0.234307 0.000000
0.596432 0.234307 0.000000
0.668119 0.234307 0.000000
0.738471 0.234307 0.000000
0.807658 0.234307 0.000000
0.875812 0.234307 0.000000
0.943043 0.234307 0.000000
1.000000 0.234307 0.000000
1.000000 0.234307 0.000000
1.000000 0.234307 0.000000
0.000000 0.305301 0.000000
0.114085 0.305301 0.000000
0.205638 0.305301 0.000000
0.290255 0.305301 0.000000
0.370662 0.305301 0.000000
0.448076 0.305301 0.000000
0.523186 0.305301 0.000000
0.596432 0.305301 0.000000
0.668119 0.305301 0.000000
0.738471 0.305301 0.000000
0.807658 0.305301 0.000000
0.875812 0.305301 0.000000
0.943043 0.305301 0.000000
1.000000 0.305301 0.000000
1.000000 0.305301 0.000000
1.000000 0.305301 0.000000
0.000000 0.374874 0.000000
0.114085 0.374874 0.000000
0.205638 0.374874 0.000000
0.290255 0.374874 0.000000
0.370662 0.374874 0.000000
0.448076 0.374874 0.000000
0.523186 0.374874 0.000000
0.596432 0.374874 0.000000
0.668119 0.374874 0.000000
0.738471 0.374874 0.000000
0.807658 0.374874 0.000000
0.875812 0.374874 0.000000
0.943043 0.374874 0.000000
1.000000 0.374874 0.000000
1.000000 0.374874 0.000000
1.000000 0.374874 0.000000
0.000000 0.443335 0.000000
0.114085 0.443335 0.000000
0.205638 0.443335 0.000000
0.290255 0.443335 0.000000
0.370662 0.443335 0.000000
0.448076 0.443335 0.000000
0.523186 0.443335 0.000000
0.596432 0.443335 0.000000
0.668119 0.443335 0.000000
0.738471 0.443335 0.000000
0.807658 0.443335 0.000000
0.875812 0.443335 0.000000
0.943043 0.443335 0.000000
1.000000 0.443335 0.000000
1.000000 0.443335 0.000000
1.000000 0.443335 0.000000
0.000000 0.510885 0.000000
0.114085 0.510885 0.000000
0.205638 0.510885 0.000000
0.290255 0.510885 0.000000
0.370662 0.510885 0.000000
0.448076 0.510885 0.000000
0.523186 0.510885 0.000000
0.596432 0.510885 0.000000
0.668119 0.510885 0.000000
0.738471 0.510885 0.000000
0.807658 0.510885 0.000000
0.875812 0.510885 0.000000
0.943043 0.510885 0.000000
1.000000 0.510885 0.000000
1.000000 0.510885 0.000000
1.000000 0.510885 0.000000
0.000000 0.577665 0.000000
0.114085 0.577665 0.000000
0.205638 0.577665 0.000000
0.290255 0.577665 0.000000
0.370662 0.577665 0.000000
0.448076 0.577665 0.000000
0.523186 0.577665 0.000000
0.596432 0.577665 0.000000
0.668119 0.577665 0.000000
0.738471 0.577665 0.000000
0.807658 0.577665 0.000000
0.875812 0.577665 0.000000
0.943043 0.577665 0.000000
1.000000 0.577665 0.000000
1.000000 0.577665 0.000000
1.000000 0.577665 0.000000
0.000000 0.643778 0.000000
0.114085 0.643778 0.000000
0.205638 0.643778 0.000000
0.290255 0.643778 0.000000
0.370662 0.643778 0.000000
0.448076 0.643778 0.000000
0.523186 0.643778 0.000000
0.596432 0.643778 0.000000
0.668119 0.643778 0.000000
0.738471 0.643778 0.000000
0.807658 0.643778 0.000000
0.875812 0.643778 0.000000
0.943043 0.643778 0.000000
1.000000 0.643778 0.000000
1.000000 0.643778 0.000000
1.000000 0.643778 0.000000
0.000000 0.709305 0.000000
0.114085 0.709305 0.000000
0.205638 0.709305 0.000000
0.290255 0.709305 0.000000
0.370662 0.709305 0.000000
0.448076 0.709305 0.000000
0.523186 0.709305 0.000000
0.596432 0.709305 0.000000
0.668119 0.709305 0.000000
0.738471 0.709305 0.000000
0.807658 0.709305 0.000000
0.875812 0.709305 0.000000
0.943043 0.709305 0.000000
1.000000 0.709305 0.000000
1.000000 0.709305 0.000000
1.000000 0.709305 0.000000
0.000000 0.774309 0.000000
0.114085 0.774309 0.000000
0.205638 0.774309 0.000000
0.290255 0.774309 0.000000
0.370662 0.774309 0.000000
0.448076 0.774309 0.000000
0.523186 0.774309 0.000000
0.596432 0.774309 0.000000
0.668119 0.774309 0.000000
0.738471 0.774309 0.000000
0.807658 0.774309 0.000000
0.875812 0.774309 0.000000
0.943043 0.774309 0.000000
1.000000 0.774309 0.000000
1.000000 0.774309 0.000000
1.000000 0.774309 0.000000
0.000000 0.838842 0.000000
0.114085 0.838842 0.000000
0.205638 0.838842 0.000000
0.290255 0.838842 0.000000
0.370662 0.838842 0.000000
0.448076 0.838842 0.000000
0.523186 0.838842 0.000000
0.596432 0.838842 0.000000
0.668119 0.838842 0.000000
0.738471 0.838842 0.000000
0.807658 0.838842 0.000000
0.875812 0.838842 0.000000
0.943043 0.838842 0.000000
1.000000 0.838842 0.000000
1.000000 0.838842 0.000000
1.000000 0.838842 0.000000
0.000000 0.902945 0.000000
0.114085 0.902945 0.000000
0.205638 0.902945 0.000000
0.290255 0.902945 0.000000
0.370662 0.902945 0.000000
0.448076 0.902945 0.000000
0.523186 0.902945 0.000000
0.596432 0.902945 0.000000
0.668119 0.902945 0.000000
0.738471 0.902945 0.000000
0.807658 0.902945 0.000000
0.875812 0.902945 0.000000
0.943043 0.902945 0.000000
1.000000 0.902945 0.000000
1.000000 0.902945 0.000000
1.000000 0.902945 0.000000
0.000000 0.966654 0.000000
0.114085 0.966654 0.000000
0.205638 0.966654 0.000000
0.290255 0.966654 0.000000
0.370662 0.966654 0.000000
0.448076 0.966654 0.000000
0.523186 0.966654 0.000000
0.596432 0.966654 0.000000
0.668119 0.966654 0.000000
0.738471 0.966654 0.000000
0.807658 0.966654 0.000000
0.875812 0.966654 0.000000
0.943043 0.966654 0.000000
1.000000 0.966654 0.000000
1.000000 0.966654 0.000000
1.000000 0.966654 0.000000
0.000000 1.000000 0.000000
0.114085 1.000000 0.000000
0.205638 1.000000 0.000000
0.290255 1.000000 0.000000
0.370662 1.000000 0.000000
0.448076 1.000000 0.000000
0.523186 1.000000 0.000000
0.596432 1.000000 0.000000
0.668119 1.000000 0.000000
0.738471 1.000000 0.000000
0.807658 1.000000 0.000000
0.875812 1.000000 0.000000
0.943043 1.000000 0.000000
1.000000 1.000000 0.000000
1.000000 1.000000 0.000000
1.000000 1.000000 0.000000
0.000000 0.000000 0.025068
0.114085 0.000000 0.025068
0.205638 0.000000 0.025068
0.290255 0.000000 0.025068
0.370662 0.000000 0.025068
0.448076 0.000000 0.025068
0.523186 0.000000 0.025068
0.596432 0.000000 0.025068
0.668119 0.000000 0.025068
0.738471 0.000000 0.025068
0.807658 0.000000 0.025068
0.875812 0.000000 0.025068
0.943043 0.000000 0.025068
1.000000 0.000000 0.025068
1.000000 0.000000 0.025068
1.000000 0.000000 0.025068
0.000000 0.085277 0.025068
0.114085 0.085277 0.025068
0.205638 0.085277 0.025068
0.290255 0.085277 0.025068
0.370662 0.085277 0.025068
0.448076 0.085277 0.025068
0.523186 0.085277 0.025068
0.596432 0.085277 0.025068
0.668119 0.085277 0.025068
0.738471 0.085277 0.025068
0.807658 0.085277 0.025068
0.875812 0.085277 0.025068
0.943043 0.085277 0.025068
1.000000 0.085277 0.025068
1.000000 0.085277 0.025068
1.000000 0.085277 0.025068
0.000000 0.161354 0.025068
0.114085 0.161354 0.025068
0.205638 0.161354 0.025068
0.290255 0.161354 0.025068
0.370662 0.161354 0.025068
0.448076 0.161354 0.025068
0.523186 0.161354 0.025068
0.596432 0.161354 0.025068
0.668119 0.161354 0.025068
0.738471 0.161354 0.025068
0.807658 0.161354 0.025068
0.875812 0.161354 0.025068
0.943043 0.161354 0.025068
1.000000 0.161354 0.025068
1.000000 0.161354 0.025068
1.000000 0.161354 0.025068
0.000000 0.234307 0.025068
0.114085 0.234307 0.025068
0.205638 0.234307 0.025068
0.290255 0.234307 0.025068
0.370662 0.234307 0.025068
0.448076 0.234307 0.025068
0.523186 0.234307 0.025068
0.596432 0.234307 0.025068
0.668119 0.234307 0.025068
0.738471 0.234307 0.025068
0.807658 0.234307 0.025068
0.875812 0.234307 0.025068
0.943043 0.234307 0.025068
1.000000 0.234307 0.025068
1.000000 0.234307 0.025068
1.000000 0.234307 0.025068
0.000000 0.305301 0.025068
0.114085 0.305301 0.025068
0.205638 0.305301 0.025068
0.290255 0.305301 0.025068
0.370662 0.305301 0.025068
0.448076 0.305301 0.025068
0.523186 0.305301 0.025068
0.596432 0.305301 0.025068
0.668119 0.305301 0.025068
0.738471 0.305301 0.025068
0.807658 0.305301 0.025068
0.875812 0.305301 0.025068
0.943043 0.305301 0.025068
1.000000 0.305301 0.025068
1.000000 0.305301 0.025068
1.000000 0.305301 0.025068
0.000000 0.374874 0.025068
0.114085 0.374874 0.025068
0.205638 0.374874 0.025068
0.290255 0.374874 0.025068
0.370662 0.374874 0.025068
0.448076 0.374874 0.025068
0.523186 0.374874 0.025068
0.596432 0.374874 0.025068
0.668119 0.374874 0.025068
0.738471 0.374874 0.025068
0.807658 0.374874 0.025068
0.875812 0.374874 0.025068
0.943043 0.374874 0.025068
1.000000 0.374874 0.025068
1.000000 0.374874 0.025068
1.000000 0.374874 0.025068
0.000000 0.443335 0.025068
0.114085 0.443335 0.025068
0.205638 0.443335 0.025068
0.290255 0.443335 0.025068
0.370662 0.443335 0.025068
0.448076 0.443335 0.025068
0.523186 0.443335 0.025068
0.596432 0.443335 0.025068
0.668119 0.443335 0.025068
0.738471 0.443335 0.025068
0.807658 0.443335 0.025068
0.875812 0.443335 0.025068
0.943043 0.443335 0.025068
1.000000 0.443335 0.025068
1.000000 0.443335 0.025068
1.000000 0.443335 0.025068
0.000000 0.510885 0.025068
0.114085 0.510885 0.025068
0.205638 0.510885 0.025068
0.290255 0.510885 0.025068
0.370662 0.510885 0.025068
0.448076 0.510885 0.025068
0.523186 0.510885 0.025068
0.596432 0.510885 0.025068
0.668119 0.510885 0.025068
0.738471 0.510885 0.025068
0.807658 0.510885 0.025068
0.875812 0.510885 0.025068
0.943043 0.510885 0.025068
1.000000 0.510885 0.025068
1.000000 0.510885 0.025068
1.000000 0.510885 0.025068
0.000000 0.577665 0.025068
0.114085 0.577665 0.025068
0.205638 0.577665 0.025068
0.290255 0.577665 0.025068
0.370662 0.577665 0.025068
0.448076 0.577665 0.025068
0.523186 0.577665 0.025068
0.596432 0.577665 0.025068
0.668119 0.577665 0.025068
0.738471 0.577665 0.025068
0.807658 0.577665 0.025068
0.875812 0.577665 0.025068
0.943043 0.577665 0.025068
1.000000 0.577665 0.025068
1.000000 0.577665 0.025068
1.000000 0.577665 0.025068
0.000000 0.643778 0.025068
0.114085 0.643778 0.025068
0.205638 0.643778 0.025068
0.290255 0.643778 0.025068
0.370662 0.643778 0.025068
0.448076 0.643778 0.025068
0.523186 0.643778 0.025068
0.596432 0.643778 0.025068
0.668119 0.643778 0.025068
0.738471 0.643778 0.025068
0.807658 0.643778 0.025068
0.875812 0.643778 0.025068
0.943043 0.643778 0.025068
1.000000 0.643778 0.025068
1.000000 0.643778 0.025068
1.000000 0.643778 0.025068
0.000000 0.709305 0.025068
0.114085 0.709305 0.025068
0.205638 0.709305 0.025068
0.290255 0.709305 0.025068
0.370662 0.709305 0.025068
0.448076 0.709305 0.025068
0.523186 0.709305 0.025068
0.596432 0.709305 0.025068
0.668119 0.709305 0.025068
0.738471 0.709305 0.025068
0.807658 0.709305 0.025068
0.875812 0.709305 0.025068
0.943043 0.709305 0.025068
1.000000 0.709305 0.025068
1.000000 0.709305 0.025068
1.000000 0.709305 0.025068
0.000000 0.774309 0.025068
0.114085 0.774309 0.025068
0.205638 0.774309 0.025068
0.290255 0.774309 0.025068
0.370662 0.774309 0.025068
0.448076 0.774309 0.025068
0.523186 0.774309 0.025068
0.596432 0.774309 0.025068
0.668119 0.774309 0.025068
0.738471 0.774309 0.025068
0.807658 0.774309 0.025068
0.875812 0.774309 0.025068
0.943043 0.774309 0.025068
1.000000 0.774309 0.025068
1.000000 0.774309 0.025068
1.000000 0.774309 0.025068
0.000000 0.838842 0.025068
0.114085 0.838842 0.025068
0.205638 0.838842 0.025068
0.290255 0.838842 0.025068
0.370662 0.838842 0.025068
0.448076 0.838842 0.025068
0.523186 0.838842 0.025068
0.596432 0.838842 0.025068
0.668119 0.838842 0.025068
0.738471 0.838842 0.025068
0.807658 0.838842 0.025068
0.875812 0.838842 0.025068
0.943043 0.838842 0.025068
1.000000 0.838842 0.025068
1.000000 0.838842 0.025068
1.000000 0.838842 0.025068
0.000000 0.902945 0.025068
0.114085 0.902945 0.025068
0.205638 0.902945 0.025068
0.290255 0.902945 0.025068
0.370662 0.902945 0.025068
0.448076 0.902945 0.025068
0.523186 0.902945 0.025068
0.596432 0.902945 0.025068
0.668119 0.902945 0.025068
0.738471 0.902945 0.025068
0.807658 0.902945 0.025068
0.875812 0.902945 0.025068
0.943043 0.902945 0.025068
1.000000 0.902945 0.025068
1.000000 0.902945 0.025068
1.000000 0.902945 0.025068
0.000000 0.966654 0.025068
0.114085 0.966654 0.025068
0.205638 0.966654 0.025068
0.290255 0.966654 0.025068
0.370662 0.966654 0.025068
0.448076 0.966654 0.025068
0.523186 0.966654 0.025068
0.596432 0.966654 0.025068
0.668119 0.966654 0.025068
0.738471 0.966654 0.025068
0.807658 0.966654 0.025068
0.875812 0.966654 0.025068
0.943043 0.966654 0.025068
1.000000 0.966654 0.025068
1.000000 0.966654 0.025068
1.000000 0.966654 0.025068
0.000000 1.000000 0.025068
0.114085 1.000000 0.025068
0.205638 1.000000 0.025068
0.290255 1.000000 0.025068
0.370662 1.000000 0.025068
0.448076 1.000000 0.025068
0.523186 1.000000 0.025068
0.596432 1.000000 0.025068
0.668119 1.000000 0.025068
0.738471 1.000000 0.025068
0.807658 1.000000 0.025068
0.875812 1.000000 0.025068
0.943043 1.000000 0.025068
1.000000 1.000000 0.025068
1.000000 1.000000 0.025068
1.000000 1.000000 0.025068
0.000000 0.000000 0.059622
0.114085 0.000000 0.059622
0.205638 0.000000 0.059622
0.290255 0.000000 0.059622
0.370662 0.000000 0.059622
0.448076 0.000000 0.059622
0.523186 0.000000 0.059622
0.596432 0.000000 0.059622
0.668119 0.000000 0.059622
0.738471 0.000000 0.059622
0.807658 0.000000 0.059622
0.875812 0.000000 0.059622
0.943043 0.000000 0.059622
1.000000 0.000000 0.059622
1.000000 0.000000 0.059622
1.000000 0.000000 0.059622
0.000000 0.085277 0.059622
0.114085 0.085277 0.059622
0.205638 0.085277 0.059622
0.290255 0.085277 0.059622
0.370662 0.085277 0.059622
0.448076 0.085277 0.059622
0.523186 0.085277 0.059622
0.596432 0.085277 0.059622
0.668119 0.085277 0.059622
0.738471 0.085277 0.059622
0.807658 0.085277 0.059622
0.875812 0.085277 0.059622
0.943043 0.085277 0.059622
1.000000 0.085277 0.059622
1.000000 0.085277 0.059622
1.000000 0.085277 0.059622
0.000000 0.161354 0.059622
0.114085 0.161354 0.059622
0.205638 0.161354 0.059622
0.290255 0.161354 0.059622
0.370662 0.161354 0.059622
0.448076 0.161354 0.059622
0.523186 0.161354 0.059622
0.596432 0.161354 0.059622
0.668119 0.161354 0.059622
0.738471 0.161354 0.059622
0.807658 0.161354 0.059622
0.875812 0.161354 0.059622
0.943043 0.161354 0.059622
1.000000 0.161354 0.059622
1.000000 0.161354 0.059622
1.000000 0.161354 0.059622
0.000000 0.234307 0.059622
0.114085 0.234307 0.059622
0.205638 0.234307 0.059622
0.290255 0.234307 0.059622
0.370662 0.234307 0.059622
0.448076 0.234307 0.059622
0.523186 0.234307 0.059622
0.596432 0.234307 0.059622
0.668119 0.234307 0.059622
0.738471 0.234307 0.059622
0.807658 0.234307 0.059622
0.875812 0.234307 0.059622
0.943043 0.234307 0.059622
1.000000 0.234307 0.059622
1.000000 0.234307 0.059622
1.000000 0.234307 0.059622
0.000000 0.305301 0.059622
0.114085 0.305301 0.059622
0.205638 0.305301 0.059622
0.290255 0.305301 0.059622
0.370662 0.305301 0.059622
0.448076 0.305301 0.059622
0.523186 0.305301 0.059622
0.596432 0.305301 0.059622
0.668119 0.305301 0.059622
0.738471 0.305301 0.059622
0.807658 0.305301 0.059622
0.875812 0.305301 0.059622
0.943043 0.305301 0.059622
1.000000 0.305301 0.059622
1.000000 0.305301 0.059622
1.000000 0.305301 0.059622
0.000000 0.374874 0.059622
0.114085 0.374874 0.059622
0.205638 0.374874 0.059622
0.290255 0.374874 0.059622
0.370662 0.374874 0.059622
0.448076 0.374874 0.059622
0.523186 0.374874 0.059622
0.596432 0.374874 0.059622
0.668119 0.374874 0.059622
0.738471 0.374874 0.059622
0.807658 0.374874 0.059622
0.875812 0.374874 0.059622
0.943043 0.374874 0.059622
1.000000 0.374874 0.059622
1.000000 0.374874 0.059622
1.000000 0.374874 0.059622
0.000000 0.443335 0.059622
0.114085 0.443335 0.059622
0.205638 0.443335 0.059622
0.290255 0.443335 0.059622
0.370662 0.443335 0.059622
0.448076 0.443335 0.059622
0.523186 0.443335 0.059622
0.596432 0.443335 0.059622
0.668119 0.443335 0.059622
0.738471 0.443335 0.059622
0.807658 0.443335 0.059622
0.875812 0.443335 0.059622
0.943043 0.443335 0.059622
1.000000 0.443335 0.059622
1.000000 0.443335 0.059622
1.000000 0.443335 0.059622
0.000000 0.510885 0.059622
0.114085 0.510885 0.059622
0.205638 0.510885 0.059622
0.290255 0.510885 0.059622
0.370662 0.510885 0.059622
0.448076 0.510885 0.059622
0.523186 0.510885 0.059622
0.596432 0.510885 0.059622
0.668119 0.510885 0.059622
0.738471 0.510885 0.059622
0.807658 0.510885 0.059622
0.875812 0.510885 0.059622
0.943043 0.510885 0.059622
1.000000 0.510885 0.059622
1.000000 0.510885 0.059622
1.000000 0.510885 0.059622
0.000000 0.577665 0.059622
0.114085 0.577665 0.059622
0.205638 0.577665 0.059622
0.290255 0.577665 0.059622
0.370662 0.577665 0.059622
0.448076 0.577665 0.059622
0.523186 0.577665 0.059622
0.596432 0.577665 0.059622
0.668119 0.577665 0.059622
0.738471 0.577665 0.059622
0.807658 0.577665 0.059622
0.875812 0.577665 0.059622
0.943043 0.577665 0.059622
1.000000 0.577665 0.059622
1.000000 0.577665 0.059622
1.000000 0.577665 0.059622
0.000000 0.643778 0.059622
0.114085 0.643778 0.059622
0.205638 0.643778 0.059622
0.290255 0.643778 0.059622
0.370662 0.643778 0.059622
0.448076 0.643778 0.059622
0.523186 0.643778 0.059622
0.596432 0.643778 0.059622
0.668119 0.643778 0.059622
0.738471 0.643778 0.059622
0.807658 0.643778 0.059622
0.875812 0.643778 0.059622
0.943043 0.643778 0.059622
1.000000 0.643778 0.059622
1.000000 0.643778 0.059622
1.000000 0.643778 0.059622
0.000000 0.709305 0.059622
0.114085 0.709305 0.059622
0.205638 0.709305 0.059622
0.290255 0.709305 0.059622
0.370662 0.709305 0.059622
0.448076 0.709305 0.059622
0.523186 0.709305 0.059622
0.596432 0.709305 0.059622
0.668119 0.709305 0.059622
0.738471 0.709305 0.059622
0.807658 0.709305 0.059622
0.875812 0.709305 0.059622
0.943043 0.709305 0.059622
1.000000 0.709305 0.059622
1.000000 0.709305 0.059622
1.000000 0.709305 0.059622
0.000000 0.774309 0.059622
0.114085 0.774309 0.059622
0.205638 0.774309 0.059622
0.290255 0.774309 0.059622
0.370662 0.774309 0.059622
0.448076 0.774309 0.059622
0.523186 0.774309 0.059622
0.596432 0.774309 0.059622
0.668119 0.774309 0.059622
0.738471 0.774309 0.059622
0.807658 0.774309 0.059622
0.875812 0.774309 0.059622
0.943043 0.774309 0.059622
1.000000 0.774309 0.059622
1.000000 0.774309 0.059622
1.000000 0.774309 0.059622
0.000000 0.838842 0.059622
0.114085 0.838842 0.059622
0.205638 0.838842 0.059622
0.290255 0.838842 0.059622
0.370662 0.838842 0.059622
0.448076 0.838842 0.059622
0.523186 0.838842 0.059622
0.596432 0.838842 0.059622
0.668119 0.838842 0.059622
0.738471 0.838842 0.059622
0.807658 0.838842 0.059622
0.875812 0.838842 0.059622
0.943043 0.838842 0.059622
1.000000 0.838842 0.059622
1.000000 0.838842 0.059622
1.000000 0.838842 0.059622
0.000000 0.902945 0.059622
0.114085 0.902945 0.059622
0.205638 0.902945 0.059622
0.290255 0.902945 0.059622
0.370662 0.902945 0.059622
0.448076 0.902945 0.059622
0.523186 0.902945 0.059622
0.596432 0.902945 0.059622
0.668119 0.902945 0.059622
0.738471 0.902945 0.059622
0.807658 0.902945 0.059622
0.875812 0.902945 0.059622
0.943043 0.902945 0.059622
1.000000 0.902945 0.059622
1.000000 0.902945 0.059622
1.000000 0.902945 0.059622
0.000000 0.966654 0.059622
0.114085 0.966654 0.059622
0.205638 0.966654 0.059622
0.290255 0.966654 0.059622
0.370662 0.966654 0.059622
0.448076 0.966654 0.059622
0.523186 0.966654 0.059622
0.596432 0.966654 0.059622
0.668119 0.966654 0.059622
0.738471 0.966654 0.059622
0.807658 0.966654 0.059622
0.875812 0.966654 0.059622
0.943043 0.966654 0.059622
1.000000 0.966654 0.059622
1.000000 0.966654 0.059622
1.000000 0.966654 0.059622
0.000000 1.000000 0.059622
0.114085 1.000000 0.059622
0.205638 1.000000 0.059622
0.290255 1.000000 0.059622
0.370662 1.000000 0.059622
0.448076 1.000000 0.059622
0.523186 1.000000 0.059622
0.596432 1.000000 0.059622
0.668119 1.000000 0.059622
0.738471 1.000000 0.059622
0.807658 1.000000 0.059622
0.875812 1.000000 0.059622
0.943043 1.000000 0.059622
1.000000 1.000000 0.059622
1.000000 1.000000 0.059622
1.000000 1.000000 0.059622
0.000000 0.000000 0.098974
0.114085 0.000000 0.098974
0.205638 0.000000 0.098974
0.290255 0.000000 0.098974
0.370662 0.000000 0.098974
0.448076 0.000000 0.098974
0.523186 0.000000 0.098974
0.596432 0.000000 0.098974
0.668119 0.000000 0.098974
0.738471 0.000000 0.098974
0.807658 0.000000 0.098974
0.875812 0.000000 0.098974
0.943043 0.000000 0.098974
1.000000 0.000000 0.098974
1.000000 0.000000 0.098974
1.000000 0.000000 0.098974
0.000000 0.085277 0.098974
0.114085 0.085277 0.098974
0.205638 0.085277 0.098974
0.290255 0.085277 0.098974
0.370662 0.085277 0.098974
0.448076 0.085277 0.098974
0.523186 0.085277 0.098974
0.596432 0.085277 0.098974
0.668119 0.085277 0.098974
0.738471 0.085277 0.098974
0.807658 0.085277 0.098974
0.875812 0.085277 0.098974
0.943043 0.085277 0.098974
1.000000 0.085277 0.098974
1.000000 0.085277 0.098974
1.000000 0.085277 0.098974
0.000000 0.161354 0.098974
0.114085 0.161354 0.098974
0.205638 0.161354 0.098974
0.290255 0.161354 0.098974
0.370662 0.161354 0.098974
0.448076 0.161354 0.098974
0.523186 0.161354 0.098974
0.596432 0.161354 0.098974
0.668119 0.161354 0.098974
0.738471 0.161354 0.098974
0.807658 0.161354 0.098974
0.875812 0.161354 0.098974
0.943043 0.161354 0.098974
1.000000 0.161354 0.098974
1.000000 0.161354 0.098974
1.000000 0.161354 0.098974
0.000000 0.234307 0.098974
0.114085 0.234307 0.098974
0.205638 0.234307 0.098974
0.290255 0.234307 0.098974
0.370662 0.234307 0.098974
0.448076 0.234307 0.098974
0.523186 0.234307 0.098974
0.596432 0.234307 0.098974
0.668119 0.234307 0.098974
0.738471 0.234307 0.098974
0.807658 0.234307 0.098974
0.875812 0.234307 0.098974
0.943043 0.234307 0.098974
1.000000 0.234307 0.098974
1.000000 0.234307 0.098974
1.000000 0.234307 0.098974
0.000000 0.305301 0.098974
0.114085 0.305301 0.098974
0.205638 0.305301 0.098974
0.290255 0.305301 0.098974
0.370662 0.305301 0.098974
0.448076 0.305301 0.098974
0.523186 0.305301 0.098974
0.596432 0.305301 0.098974
0.668119 0.305301 0.098974
0.738471 0.305301 0.098974
0.807658 0.305301 0.098974
0.875812 0.305301 0.098974
0.943043 0.305301 0.098974
1.000000 0.305301 0.098974
1.000000 0.305301 0.098974
1.000000 0.305301 0.098974
0.000000 0.374874 0.098974
0.114085 0.374874 0.098974
0.205638 0.374874 0.098974
0.290255 0.374874 0.098974
0.370662 0.374874 0.098974
0.448076 0.374874 0.098974
0.523186 0.374874 0.098974
0.596432 0.374874 0.098974
0.668119 0.374874 0.098974
0.738471 0.374874 0.098974
0.807658 0.374874 0.098974
0.875812 0.374874 0.098974
0.943043 0.374874 0.098974
1.000000 0.374874 0.098974
1.000000 0.374874 0.098974
1.000000 0.374874 0.098974
0.000000 0.443335 0.098974
0.114085 0.443335 0.098974
0.205638 0.443335 0.098974
0.290255 0.443335 0.098974
0.370662 0.443335 0.098974
0.448076 0.443335 0.098974
0.523186 0.443335 0.098974
0.596432 0.443335 0.098974
0.668119 0.443335 0.098974
0.738471 0.443335 0.098974
0.807658 0.443335 0.098974
0.875812 0.443335 0.098974
0.943043 0.443335 0.098974
1.000000 0.443335 0.098974
1.000000 0.443335 0.098974
1.000000 0.443335 0.098974
0.000000 0.510885 0.098974
0.114085 0.510885 0.098974
0.205638 0.510885 0.098974
0.290255 0.510885 0.098974
0.370662 0.510885 0.098974
0.448076 0.510885 0.098974
0.523186 0.510885 0.098974
