entry/src/main/resources/rawfile/filters/Canopy.cube
TITLE "Canopy - Original look 1.0 (Standard/sRGB base)"
LUT_3D_SIZE 6
0.001733 0.031736 0.018634
0.191197 0.056352 0.003475
0.375286 0.100286 0.011883
0.571362 0.134219 0.027303
0.768672 0.195774 0.065368
0.973504 0.278588 0.109580
0.010598 0.201132 0.058694
0.173393 0.206338 0.045644
0.398805 0.212331 0.035311
0.596185 0.221812 0.061031
0.796483 0.255757 0.098436
0.981249 0.342143 0.167531
0.044330 0.328552 0.065746
0.161947 0.324147 0.061294
0.377776 0.381336 0.159360
0.607862 0.418510 0.099197
0.819047 0.435533 0.126388
0.988863 0.491286 0.258665
0.137991 0.506221 0.123725
0.216866 0.501253 0.128275
0.356869 0.508804 0.139178
0.592578 0.592343 0.261787
0.840657 0.640920 0.118786
0.994828 0.673002 0.301794
0.291404 0.713422 0.206995
0.347349 0.721142 0.203942
0.490843 0.754737 0.198402
0.694505 0.813861 0.190374
0.862342 0.829823 0.292989
0.997925 0.852757 0.450337
0.573333 0.993104 0.389967
0.599074 0.994041 0.397803
0.671129 0.995789 0.426289
0.783231 0.997246 0.485886
0.897101 0.998803 0.629390
0.990446 0.999809 0.802123
0.000385 0.062718 0.132583
0.194388 0.052149 0.209472
0.392530 0.069005 0.201768
0.598084 0.083146 0.146391
0.787652 0.169494 0.132764
0.977359 0.280425 0.171706
0.007658 0.211113 0.210775
0.184608 0.214643 0.207277
0.402411 0.213172 0.182718
0.597655 0.226550 0.169855
0.800578 0.258465 0.166770
0.981951 0.347918 0.212591
0.057681 0.355258 0.190885
0.070304 0.341454 0.240632
0.349537 0.394850 0.254865
0.610817 0.417869 0.229093
0.821321 0.434634 0.246631
0.989939 0.492196 0.317111
0.141277 0.519370 0.215745
0.221770 0.509927 0.214380
0.359808 0.503867 0.215245
0.597020 0.594055 0.321891
0.852344 0.637282 0.178274
0.994400 0.672449 0.377662
0.291035 0.724445 0.260112
0.347846 0.731022 0.258523
0.496958 0.759780 0.266573
0.696964 0.815270 0.269739
0.862901 0.829994 0.348237
0.998026 0.853070 0.486926
0.570320 0.994206 0.427857
0.597224 0.994876 0.435970
0.671336 0.996102 0.462693
0.784253 0.997223 0.516806
0.897510 0.998781 0.650437
0.991251 0.999812 0.810737
0.001474 0.118318 0.290385
0.186862 0.068365 0.400208
0.392965 0.069668 0.399326
0.593363 0.086213 0.402577
0.790615 0.160371 0.403933
0.981817 0.282428 0.375518
0.012234 0.219410 0.374095
0.189997 0.215813 0.402341
0.397858 0.214865 0.400904
0.600065 0.221337 0.406595
0.809373 0.250665 0.391154
0.985313 0.354711 0.368757
0.073490 0.401361 0.425395
0.200708 0.406416 0.423427
0.408525 0.409330 0.411333
0.622597 0.417174 0.392212
0.823584 0.442476 0.378536
0.991491 0.503083 0.384043
0.147078 0.586284 0.405803
0.243053 0.572584 0.397416
0.401328 0.513577 0.335763
0.632009 0.591074 0.424336
0.850631 0.639100 0.403368
0.994402 0.672523 0.510833
0.300226 0.763067 0.386382
0.366213 0.764238 0.389026
0.604129 0.760524 0.312315
0.791988 0.791506 0.347959
0.901700 0.816205 0.450498
0.998218 0.854340 0.576611
0.567674 0.995970 0.526833
0.596446 0.996232 0.533574
0.673019 0.996811 0.554078
0.787482 0.997089 0.597351
0.898736 0.998728 0.707771
0.993361 0.999826 0.835872
0.003747 0.170852 0.453080
0.183549 0.096757 0.579412
0.391857 0.096221 0.581704
0.589096 0.124554 0.586450
0.786754 0.188881 0.602272
0.981045 0.287387 0.612845
0.016072 0.230754 0.557729
0.196157 0.218630 0.591530
0.400997 0.217850 0.594321
0.602367 0.227697 0.601169
0.801442 0.270029 0.611362
0.985310 0.356503 0.611320
0.083086 0.408004 0.596152
0.220576 0.409318 0.600430
0.411886 0.412461 0.612087
0.616543 0.423812 0.615485
0.828248 0.439693 0.617086
0.992625 0.506553 0.594609
0.190062 0.617150 0.647056
0.279873 0.620040 0.643693
0.433117 0.630224 0.636376
0.648313 0.633073 0.604620
0.870381 0.637121 0.555309
0.995893 0.684397 0.583310
0.315909 0.829210 0.571396
0.381534 0.827652 0.569416
0.546991 0.821878 0.545601
0.749401 0.816735 0.543090
0.894182 0.824600 0.588483
0.998344 0.857146 0.703986
0.572250 0.997384 0.665658
0.601439 0.997487 0.670011
0.680045 0.997466 0.681595
0.791332 0.997408 0.716643
0.901131 0.998712 0.796601
0.996286 0.999862 0.879538
0.008506 0.207443 0.650335
0.189174 0.148736 0.740569
0.392018 0.148694 0.750766
0.587483 0.176071 0.762261
0.787893 0.229863 0.781108
0.982829 0.318277 0.777704
0.034181 0.244474 0.748529
0.206510 0.240652 0.758909
0.400737 0.242804 0.769204
0.597963 0.261458 0.778916
0.800060 0.301066 0.790697
0.986530 0.382079 0.773146
0.087969 0.415650 0.791569
0.224411 0.416473 0.797392
0.417103 0.421680 0.802916
0.621753 0.432419 0.810684
0.833948 0.447520 0.807345
0.992677 0.521401 0.765191
0.176553 0.630277 0.810623
0.278393 0.631621 0.810193
0.453447 0.635489 0.808224
0.654024 0.639655 0.804103
0.862086 0.644839 0.777762
0.996363 0.688196 0.771465
0.342175 0.832672 0.809001
0.399432 0.833231 0.804737
0.526138 0.834866 0.793956
0.672620 0.840992 0.784274
0.867503 0.838833 0.781959
0.998906 0.865982 0.819094
0.590142 0.998203 0.815567
0.618631 0.998240 0.817436
0.692566 0.998343 0.825275
0.794945 0.998556 0.855517
0.905035 0.999177 0.900106
0.998901 0.999937 0.937572
0.016484 0.227537 0.873729
0.198308 0.208790 0.903645
0.393445 0.213149 0.917597
0.590392 0.236126 0.935493
0.792526 0.281424 0.951488
0.985211 0.363764 0.931327
0.067955 0.283070 0.913084
0.214487 0.283157 0.919657
0.402669 0.287930 0.933660
0.599881 0.306590 0.950896
0.802524 0.342431 0.959408
0.988016 0.419688 0.926660
0.140468 0.438378 0.956095
0.249622 0.440186 0.960827
0.427224 0.446928 0.969016
0.623945 0.460527 0.974459
0.830960 0.477788 0.969382
0.993055 0.546546 0.916169
0.233995 0.640764 0.981196
0.313345 0.642263 0.981617
0.471167 0.646192 0.980629
0.661508 0.650561 0.977596
0.862551 0.653325 0.966789
0.996863 0.701268 0.924347
0.317022 0.845737 0.963072
0.378999 0.845463 0.962644
0.513991 0.844450 0.962030
0.681769 0.843459 0.966782
0.866918 0.842045 0.984631
0.998958 0.876948 0.952888
0.603911 0.998054 0.995432
0.630779 0.998110 0.995946
0.708470 0.996366 0.998383
0.831669 0.990408 0.999337
0.932857 0.993015 0.999857
1.000000 1.000000 1.000000
