entry/src/main/resources/rawfile/filters/Canopy.cube
TITLE "Canopy - Original look 1.0 (Standard/sRGB base)"
LUT_3D_SIZE 16
0.001733 0.031736 0.018634
0.071554 0.029765 0.000952
0.127567 0.042610 0.001579
0.191197 0.056352 0.003475
0.251296 0.072638 0.005981
0.312313 0.087671 0.008571
0.375286 0.100286 0.011883
0.439779 0.111307 0.016062
0.505295 0.122049 0.021231
0.571362 0.134219 0.027303
0.636815 0.150971 0.037004
0.701926 0.172603 0.050598
0.768672 0.195774 0.065368
0.837246 0.220581 0.082020
0.906242 0.248092 0.098308
0.973504 0.278588 0.109580
0.000998 0.087543 0.025667
0.041945 0.097334 0.011672
0.131493 0.094662 0.004474
0.213620 0.084406 0.007712
0.271396 0.092340 0.012514
0.326933 0.105786 0.016787
0.387051 0.116563 0.019411
0.449750 0.126042 0.023055
0.513948 0.135649 0.027919
0.578955 0.146981 0.033721
0.643723 0.162595 0.042331
0.708095 0.183401 0.055761
0.774189 0.205962 0.070842
0.842202 0.230284 0.087769
0.910402 0.257421 0.103406
0.976888 0.287485 0.114527
0.004497 0.148664 0.042824
0.042079 0.154620 0.023614
0.116137 0.156249 0.026971
0.190679 0.156622 0.010678
0.269628 0.149466 0.012766
0.336524 0.148340 0.022061
0.398852 0.151837 0.029190
0.461451 0.157213 0.035745
0.525359 0.163517 0.042499
0.589971 0.172085 0.048772
0.654715 0.184504 0.054695
0.718913 0.202424 0.066038
0.783861 0.224122 0.082100
0.850719 0.247884 0.099427
0.917620 0.274203 0.113471
0.978691 0.309416 0.135707
0.010598 0.201132 0.058694
0.039025 0.201191 0.041218
0.099930 0.198315 0.028306
0.173393 0.206338 0.045644
0.257070 0.215978 0.026355
0.328827 0.214664 0.022846
0.398805 0.212331 0.035311
0.464469 0.213865 0.043314
0.529915 0.217138 0.051533
0.596185 0.221812 0.061031
0.663233 0.228581 0.070560
0.730773 0.238601 0.080385
0.796483 0.255757 0.098436
0.861981 0.277793 0.118591
0.927789 0.301496 0.131175
0.981249 0.342143 0.167531
0.010809 0.224104 0.057765
0.020226 0.224061 0.035708
0.075382 0.222600 0.026338
0.146617 0.232067 0.027462
0.238111 0.259088 0.080077
0.326712 0.276275 0.059079
0.397736 0.277014 0.042716
0.465064 0.277744 0.054141
0.531903 0.280158 0.060800
0.598886 0.284211 0.069531
0.667080 0.289492 0.079571
0.736900 0.295977 0.090477
0.807095 0.305440 0.105924
0.873226 0.322115 0.131230
0.938270 0.341718 0.150117
0.984113 0.384515 0.202850
0.020880 0.273518 0.062125
0.035256 0.273886 0.044107
0.088146 0.272126 0.040015
0.147352 0.274006 0.042815
0.219303 0.288888 0.052937
0.308970 0.317813 0.121635
0.395505 0.340548 0.108754
0.468196 0.343036 0.067926
0.534698 0.346126 0.075226
0.602567 0.350020 0.082200
0.671671 0.354985 0.090979
0.741993 0.361301 0.102235
0.813597 0.368296 0.113181
0.883379 0.377794 0.130137
0.948181 0.392957 0.157416
0.986691 0.435102 0.232743
0.044330 0.328552 0.065746
0.067915 0.327796 0.057323
0.112367 0.325295 0.058694
0.161947 0.324147 0.061294
0.218710 0.329782 0.064963
0.291427 0.349068 0.080516
0.377776 0.381336 0.159360
0.462444 0.410197 0.158555
0.539787 0.414191 0.090434
0.607862 0.418510 0.099197
0.677383 0.423742 0.108326
0.748205 0.429370 0.116120
0.819047 0.435533 0.126388
0.890185 0.441779 0.135513
0.957998 0.450813 0.154284
0.988863 0.491286 0.258665
0.079590 0.384911 0.077560
0.104184 0.383427 0.078028
0.138907 0.381160 0.079496
0.181450 0.379141 0.081862
0.229806 0.380462 0.085206
0.287098 0.390598 0.089460
0.360093 0.414729 0.110862
0.446096 0.449999 0.198689
0.532004 0.483013 0.210895
0.614802 0.489475 0.122810
0.685205 0.493916 0.120795
0.755148 0.498980 0.123702
0.825088 0.504254 0.131610
0.895028 0.509372 0.146303
0.964713 0.514577 0.154696
0.991043 0.550593 0.279948
0.112276 0.443859 0.099833
0.131839 0.442632 0.100579
0.161298 0.440714 0.101937
0.199417 0.438618 0.104127
0.243209 0.438185 0.107229
0.293022 0.442897 0.111332
0.352999 0.457649 0.116434
0.429863 0.485086 0.147134
0.517561 0.521826 0.238242
0.606182 0.555846 0.249774
0.692357 0.564867 0.148365
0.763913 0.568455 0.125656
0.832199 0.573263 0.121661
0.899348 0.578655 0.122473
0.968052 0.582032 0.144977
0.992779 0.611312 0.303403
0.137991 0.506221 0.123725
0.155043 0.505138 0.124713
0.181530 0.503402 0.126195
0.216866 0.501253 0.128275
0.258075 0.499791 0.131023
0.304194 0.501162 0.134627
0.356869 0.508804 0.139178
0.420408 0.526831 0.144652
0.501347 0.555972 0.182511
0.592578 0.592343 0.261787
0.684310 0.625920 0.264985
0.771619 0.637355 0.151643
0.840657 0.640920 0.118786
0.905456 0.645429 0.117299
0.968934 0.650376 0.117934
0.994828 0.673002 0.301794
0.164849 0.568648 0.148666
0.178747 0.567764 0.148663
0.201813 0.566222 0.149142
0.234489 0.564017 0.150855
0.273777 0.561842 0.153871
0.317405 0.561205 0.157140
0.365739 0.564413 0.160450
0.421682 0.574579 0.162658
0.490343 0.594926 0.160815
0.576397 0.624630 0.197268
0.673323 0.661532 0.261438
0.767210 0.694811 0.254549
0.847743 0.706747 0.154349
0.912595 0.709905 0.121585
0.974187 0.713150 0.122902
0.996147 0.732382 0.325390
0.204173 0.628475 0.176087
0.214357 0.627801 0.174873
0.231941 0.626616 0.172867
0.258337 0.624840 0.170384
0.292554 0.622727 0.168641
0.333929 0.621675 0.169397
0.382923 0.624909 0.173295
0.440540 0.635603 0.177559
0.513238 0.658899 0.176805
0.604443 0.694276 0.165649
0.703121 0.730091 0.191972
0.786102 0.756068 0.259236
0.851279 0.769009 0.261734
0.916057 0.772633 0.175131
0.978243 0.774506 0.137004
0.997063 0.791558 0.376809
0.291404 0.713422 0.206995
0.301511 0.714553 0.206512
0.319452 0.716845 0.205531
0.347349 0.721142 0.203942
0.384917 0.728383 0.202308
0.432669 0.739420 0.200620
0.490843 0.754737 0.198402
0.557492 0.773992 0.196094
0.627341 0.795300 0.194821
0.694505 0.813861 0.190374
0.754722 0.824513 0.185529
0.811125 0.828047 0.219669
0.862342 0.829823 0.292989
0.914645 0.834486 0.307493
0.978868 0.838574 0.224902
0.997925 0.852757 0.450337
0.464348 0.860061 0.243243
0.471127 0.861279 0.242997
0.483316 0.863400 0.242694
0.502506 0.866512 0.242597
0.528342 0.870135 0.242933
0.559487 0.873590 0.242956
0.594907 0.877299 0.241619
0.633767 0.880812 0.239006
0.675395 0.883364 0.235292
0.720116 0.886025 0.229914
0.767823 0.889296 0.221197
0.819169 0.892574 0.220127
0.873230 0.894498 0.273783
0.924058 0.897099 0.356223
0.973327 0.902172 0.398640
0.998169 0.911231 0.549465
0.523980 0.933722 0.301523
0.528420 0.934055 0.301063
0.536525 0.934662 0.300273
0.549622 0.935633 0.299152
0.568103 0.936975 0.297969
0.592157 0.938656 0.297292
0.621749 0.940613 0.297964
0.656300 0.942878 0.300028
0.694437 0.945776 0.300446
0.735831 0.949281 0.298009
0.781236 0.952762 0.297655
0.830652 0.955590 0.307291
0.883069 0.956773 0.349162
0.932039 0.956796 0.440113
0.969625 0.959175 0.542802
0.997554 0.964357 0.636296
0.573333 0.993104 0.389967
0.577772 0.993282 0.391206
0.585899 0.993589 0.393602
0.599074 0.994041 0.397803
0.617673 0.994599 0.404332
0.641766 0.995205 0.413697
0.671129 0.995789 0.426289
0.705325 0.996275 0.442298
0.743107 0.996758 0.461762
0.783231 0.997246 0.485886
0.823001 0.997679 0.523729
0.860945 0.998210 0.573648
0.897101 0.998803 0.629390
0.931676 0.999259 0.686435
0.963574 0.999572 0.743336
0.990446 0.999809 0.802123
0.000174 0.034294 0.067037
0.065817 0.027907 0.088663
0.134596 0.035053 0.079785
0.201708 0.044573 0.064525
0.262820 0.060343 0.042957
0.325658 0.071900 0.026803
0.387375 0.084725 0.022184
0.450135 0.096831 0.023175
0.514070 0.108987 0.027369
0.578963 0.122402 0.032919
0.643335 0.140910 0.042669
0.707384 0.164624 0.056375
0.773263 0.189450 0.071260
0.841057 0.215705 0.088156
0.909389 0.244378 0.104372
0.976029 0.275925 0.115806
0.000965 0.088942 0.080214
0.041800 0.097377 0.080240
0.129578 0.096693 0.068845
0.201973 0.096681 0.056653
0.263137 0.103714 0.049135
0.324229 0.111798 0.045972
0.390338 0.115151 0.038447
0.455805 0.119867 0.035477
0.520553 0.127507 0.037293
0.585310 0.138371 0.041594
0.649583 0.154412 0.048963
0.713123 0.176627 0.062149
0.778393 0.200608 0.077411
0.845641 0.226232 0.094586
0.913254 0.254318 0.109987
0.977062 0.288600 0.127147
0.003524 0.149333 0.088668
0.011683 0.156558 0.108356
0.096989 0.159497 0.094586
0.198009 0.153072 0.068835
0.276133 0.145264 0.070318
0.335604 0.150003 0.073907
0.395076 0.156820 0.076719
0.460553 0.159687 0.072473
0.527545 0.162234 0.067082
0.593729 0.168360 0.064441
0.658947 0.179786 0.064999
0.722841 0.198039 0.073992
0.786973 0.220962 0.090004
0.853132 0.245751 0.107463
0.919714 0.272475 0.120806
0.978818 0.310524 0.146273
0.008984 0.202455 0.095425
0.011546 0.202656 0.107681
0.049902 0.201709 0.099451
0.163938 0.208489 0.088682
0.262366 0.214821 0.063737
0.338436 0.209135 0.065212
0.402971 0.209501 0.081902
0.466679 0.212077 0.088785
0.532275 0.214994 0.092592
0.598722 0.219332 0.096092
0.665935 0.225887 0.097663
0.733900 0.235393 0.099034
0.798499 0.254183 0.113256
0.862752 0.277997 0.131622
0.928605 0.301652 0.140963
0.981341 0.343210 0.175554
0.011647 0.228990 0.089078
0.020032 0.227405 0.074644
0.064108 0.223575 0.070733
0.137341 0.231108 0.065367
0.238728 0.260080 0.104886
0.331510 0.275431 0.082026
0.402616 0.274821 0.076062
0.467860 0.276140 0.092815
0.534552 0.278365 0.097410
0.601823 0.281902 0.103037
0.670027 0.286887 0.110564
0.739588 0.293391 0.119230
0.809257 0.303358 0.131163
0.873900 0.321871 0.152388
0.938666 0.341989 0.165551
0.984250 0.385211 0.211779
0.022313 0.277565 0.091294
0.037460 0.276972 0.078832
0.088169 0.273554 0.076549
0.146174 0.273074 0.077453
0.217443 0.287286 0.084206
0.310403 0.318380 0.140892
0.398635 0.340315 0.125268
0.470371 0.342257 0.099511
0.536439 0.345320 0.108329
0.604935 0.348680 0.112071
0.674128 0.353374 0.119194
0.744331 0.359580 0.128963
0.815868 0.366412 0.138294
0.885340 0.376072 0.152812
0.949162 0.392227 0.176928
0.986907 0.435326 0.244305
0.046186 0.331598 0.094388
0.070149 0.330298 0.088390
0.113967 0.326871 0.088805
0.162484 0.324271 0.090213
0.217910 0.328455 0.093589
0.290367 0.347787 0.107102
0.378672 0.381839 0.177770
0.464493 0.410616 0.173838
0.540856 0.413917 0.120513
0.609073 0.418078 0.127914
0.678910 0.423037 0.134821
0.749982 0.428373 0.140969
0.820751 0.434438 0.150007
0.892156 0.440318 0.157106
0.959647 0.449500 0.174231
0.989014 0.491312 0.271967
0.080942 0.387370 0.103987
0.105515 0.385596 0.104139
0.140083 0.382784 0.104911
0.182212 0.379866 0.106381
0.229808 0.380043 0.109028
0.286319 0.389299 0.113528
0.359362 0.413801 0.132334
0.446866 0.450477 0.214295
0.533872 0.483744 0.222899
0.615897 0.489253 0.145767
0.686483 0.493504 0.144214
0.757178 0.498087 0.143899
0.827173 0.503109 0.152744
0.896593 0.508412 0.167334
0.966820 0.513126 0.172208
0.991163 0.550574 0.292824
0.112741 0.445997 0.122233
0.132417 0.444585 0.122707
0.161960 0.442315 0.123606
0.200029 0.439631 0.125159
0.243522 0.438385 0.127617
0.292796 0.442226 0.131393
0.352290 0.456483 0.136962
0.429342 0.484418 0.164391
0.518255 0.522239 0.251436
0.607803 0.556546 0.260037
0.693834 0.564566 0.163759
0.766215 0.567689 0.139446
0.835250 0.571987 0.132069
0.902935 0.576789 0.134146
0.970920 0.580223 0.162684
0.992837 0.611303 0.315354
0.138882 0.508015 0.143350
0.155797 0.506827 0.143963
0.182198 0.504873 0.144961
0.217461 0.502338 0.146486
0.258512 0.500311 0.148699
0.304290 0.500996 0.151868
0.356509 0.508012 0.156323
0.419752 0.525804 0.162367
0.500984 0.555475 0.197005
0.593216 0.592686 0.273440
0.685706 0.626509 0.274349
0.773531 0.637002 0.159877
0.843222 0.640113 0.125682
0.908370 0.644293 0.123159
0.972169 0.648868 0.123834
0.994765 0.672922 0.315942
0.164554 0.570334 0.164690
0.178807 0.569330 0.164843
0.202308 0.567571 0.165513
0.235258 0.565045 0.167225
0.274373 0.562485 0.169660
0.317687 0.561361 0.172322
0.365668 0.564023 0.175385
0.421233 0.573760 0.177909
0.489702 0.594064 0.177078
0.576171 0.624288 0.210803
0.674001 0.661891 0.272512
0.768313 0.695316 0.264250
0.849469 0.706442 0.159819
0.914843 0.709228 0.125993
0.976659 0.712225 0.127354
0.996156 0.732426 0.334966
0.202701 0.630142 0.187937
0.213109 0.629391 0.186844
0.231082 0.628056 0.185119
0.258022 0.626017 0.183176
0.292769 0.623523 0.182187
0.334480 0.622091 0.183627
0.383359 0.624983 0.187560
0.440708 0.635400 0.191864
0.513413 0.658721 0.192096
0.604635 0.694428 0.180001
0.703617 0.730439 0.204566
0.786546 0.756336 0.270891
0.851673 0.769084 0.271443
0.917394 0.772368 0.180113
0.980134 0.773957 0.140898
0.997073 0.791612 0.384952
0.291424 0.715182 0.217082
0.301529 0.716289 0.216570
0.319482 0.718530 0.215596
0.347342 0.722751 0.214061
0.385027 0.729840 0.212763
0.433129 0.740620 0.211900
0.491661 0.755614 0.211176
0.558345 0.774605 0.210312
0.627983 0.795751 0.209393
0.694803 0.814243 0.202749
0.754890 0.824802 0.195409
0.811255 0.828137 0.231420
0.862438 0.829847 0.303387
0.914879 0.834514 0.315972
0.979746 0.838442 0.231424
0.997946 0.852805 0.456887
0.463108 0.861027 0.252044
0.469953 0.862204 0.251915
0.482265 0.864249 0.251839
0.501626 0.867238 0.252081
0.527620 0.870700 0.252752
0.558780 0.874060 0.252758
0.594244 0.877712 0.251473
0.633355 0.881084 0.249698
0.675274 0.883488 0.247286
0.720158 0.886090 0.242810
0.767856 0.889410 0.233189
0.819221 0.892721 0.230820
0.873310 0.894537 0.285197
0.924141 0.897117 0.364927
0.973472 0.902189 0.405518
0.998194 0.911269 0.554270
0.522009 0.934275 0.307844
0.526507 0.934601 0.307434
0.534717 0.935192 0.306741
0.547984 0.936136 0.305795
0.566709 0.937434 0.304898
0.591088 0.939047 0.304673
0.621050 0.940914 0.305941
0.655782 0.943139 0.308174
0.693948 0.946047 0.308368
0.735530 0.949493 0.306450
0.781186 0.952861 0.307276
0.830785 0.955573 0.318040
0.883200 0.956732 0.358766
0.932074 0.956785 0.447119
0.969607 0.959159 0.548245
0.997573 0.964347 0.640140
0.572695 0.993325 0.396562
0.577180 0.993491 0.397832
0.585387 0.993780 0.400273
0.598671 0.994206 0.404516
0.617398 0.994734 0.411050
0.641622 0.995305 0.420346
0.671117 0.995854 0.432767
0.705424 0.996308 0.448483
0.743194 0.996790 0.467570
0.783380 0.997249 0.491346
0.823146 0.997663 0.528792
0.861030 0.998202 0.578074
0.897171 0.998799 0.633056
0.931756 0.999259 0.689321
0.963689 0.999573 0.745469
0.990587 0.999809 0.803598
0.000232 0.045421 0.094068
0.052795 0.034020 0.152872
0.129484 0.040073 0.148074
0.197050 0.047864 0.145039
0.260774 0.058607 0.140875
0.327616 0.065911 0.124695
0.394532 0.072133 0.102371
0.461073 0.077567 0.082321
0.527852 0.082746 0.066033
0.592904 0.095126 0.058157
0.655708 0.117925 0.060679
0.717273 0.148359 0.071970
0.781149 0.177896 0.085888
0.847218 0.207786 0.102606
0.914321 0.238782 0.118001
0.976470 0.277863 0.137975
0.001095 0.093469 0.126402
0.039501 0.096717 0.151796
0.128084 0.095209 0.149004
0.199555 0.095692 0.144187
0.263983 0.101385 0.132472
0.327284 0.109009 0.116229
0.393551 0.113104 0.099896
0.460310 0.116151 0.086689
0.527510 0.119182 0.076190
0.594541 0.124892 0.068279
0.659292 0.139549 0.067618
0.721319 0.165036 0.078304
0.784891 0.192409 0.093044
0.850609 0.220860 0.110200
0.917330 0.250425 0.124461
0.977444 0.290545 0.147515
0.003343 0.149728 0.145654
0.025129 0.156244 0.148653
0.115391 0.156410 0.144960
0.193676 0.155662 0.134080
0.266630 0.153866 0.123545
0.330530 0.157006 0.115798
0.392646 0.162247 0.112982
0.459781 0.163865 0.106926
0.527526 0.165751 0.101094
0.595196 0.169705 0.095608
0.662996 0.176742 0.089529
0.727940 0.193066 0.093340
0.790863 0.217883 0.108789
0.855843 0.244441 0.125970
0.922208 0.271316 0.137342
0.979112 0.312436 0.164346
0.007198 0.207990 0.145505
0.015125 0.210119 0.143602
0.059935 0.201811 0.150994
0.156255 0.208387 0.145687
0.265575 0.213153 0.133720
0.340584 0.207733 0.134093
0.403209 0.209963 0.137009
0.463986 0.215334 0.141407
0.530334 0.218297 0.139014
0.597281 0.222861 0.135566
0.664667 0.229836 0.131668
0.733605 0.238404 0.127906
0.799053 0.256131 0.136360
0.863128 0.280087 0.151543
0.929180 0.303305 0.158407
0.981534 0.345099 0.189897
0.013223 0.243998 0.136283
0.019838 0.240819 0.126407
0.014482 0.232024 0.160595
0.059870 0.235657 0.153086
0.212877 0.267088 0.159216
0.334281 0.275399 0.132700
0.407277 0.272389 0.132504
0.470223 0.274824 0.145788
0.534643 0.278421 0.152886
0.601696 0.282243 0.156892
0.669545 0.287791 0.161388
0.738642 0.295184 0.165355
0.808875 0.304987 0.168814
0.874373 0.322877 0.178843
0.939159 0.343206 0.184981
0.984449 0.386800 0.224002
0.025845 0.288117 0.134056
0.042988 0.285951 0.125120
0.035532 0.282311 0.156217
0.069994 0.280782 0.163727
0.165800 0.293122 0.154536
0.295729 0.324628 0.177837
0.402761 0.340174 0.152671
0.473355 0.341183 0.145305
0.537396 0.344992 0.158354
0.605367 0.348617 0.162794
0.674365 0.353456 0.168818
0.744526 0.359728 0.176517
0.815767 0.366828 0.184157
0.886293 0.375578 0.191176
0.950819 0.391257 0.204846
0.987255 0.436057 0.260729
0.050125 0.338907 0.135259
0.074969 0.336646 0.130868
0.105907 0.332522 0.136814
0.130390 0.329387 0.151136
0.196138 0.329902 0.146955
0.276731 0.347970 0.150692
0.376924 0.384009 0.205806
0.468173 0.410958 0.194961
0.541627 0.413817 0.167310
0.609433 0.418120 0.174771
0.679565 0.422924 0.179570
0.750304 0.428402 0.185630
0.820965 0.434504 0.193036
0.892279 0.440412 0.198959
0.961040 0.448498 0.209045
0.989342 0.491486 0.292432
0.083469 0.392929 0.142271
0.108127 0.390636 0.141926
0.141990 0.386866 0.142092
0.177258 0.382918 0.146615
0.226155 0.380528 0.146401
0.282867 0.387455 0.149262
0.357060 0.412094 0.164572
0.448148 0.451390 0.239762
0.537103 0.484840 0.242728
0.616748 0.489191 0.186012
0.686793 0.493574 0.187632
0.757539 0.498081 0.187855
0.827105 0.503212 0.198212
0.896708 0.508458 0.207462
0.967241 0.512927 0.210204
0.991360 0.550566 0.314826
0.113499 0.450604 0.156253
0.133471 0.448854 0.156341
0.163277 0.445932 0.156566
0.201216 0.442138 0.157238
0.244294 0.439259 0.158542
0.292521 0.441257 0.161604
0.350953 0.454316 0.167669
0.428231 0.483058 0.191468
0.519509 0.522999 0.273583
0.610734 0.557744 0.277360
0.695546 0.564299 0.194594
0.768119 0.567142 0.174677
0.839327 0.570304 0.157957
0.907128 0.574521 0.167072
0.971444 0.579743 0.207372
0.992921 0.611314 0.335849
0.139954 0.511827 0.173868
0.156913 0.510423 0.174112
0.183387 0.508043 0.174538
0.218655 0.504768 0.175301
0.259459 0.501647 0.176657
0.304598 0.500964 0.179055
0.355906 0.506664 0.183233
0.418498 0.523866 0.190066
0.500209 0.554481 0.220647
0.594373 0.593315 0.293283
0.688269 0.627563 0.290327
0.776508 0.636462 0.178418
0.847561 0.638737 0.140990
0.913473 0.642279 0.135703
0.978007 0.646048 0.137735
0.994629 0.672750 0.340765
0.164941 0.573636 0.191552
0.179690 0.572424 0.191829
0.203702 0.570301 0.192532
0.236710 0.567250 0.193731
0.275454 0.563975 0.195160
0.318278 0.561888 0.196966
0.365617 0.563452 0.199609
0.420427 0.572293 0.202500
0.488485 0.592422 0.203255
0.575694 0.623619 0.233202
0.675237 0.662554 0.291455
0.770307 0.696208 0.280835
0.852516 0.705883 0.170821
0.918867 0.708002 0.135293
0.981130 0.710528 0.136307
0.996169 0.732513 0.351683
0.200532 0.633357 0.208535
0.211419 0.632456 0.207684
0.230176 0.630829 0.206454
0.258111 0.628293 0.205347
0.293697 0.625114 0.205335
0.335709 0.623026 0.207278
0.384201 0.625285 0.210884
0.441047 0.635150 0.215203
0.513772 0.658427 0.217083
0.605127 0.694545 0.207283
0.704479 0.731019 0.228028
0.787348 0.756825 0.290789
0.852402 0.769218 0.288085
0.919776 0.771889 0.189890
0.983564 0.772950 0.148673
0.997088 0.791719 0.399334
0.291361 0.718558 0.234381
0.301490 0.719613 0.233853
0.319437 0.721766 0.232858
0.347348 0.725815 0.231609
0.385482 0.732562 0.231103
0.434322 0.742817 0.231782
0.493466 0.757194 0.233447
0.560209 0.775643 0.235478
0.629451 0.796418 0.236481
0.695598 0.814686 0.229500
0.755199 0.825198 0.217152
0.811433 0.828255 0.253724
0.862615 0.829897 0.321376
0.915319 0.834569 0.330739
0.981317 0.838206 0.243395
0.997980 0.852901 0.468607
0.460949 0.862749 0.267764
0.467923 0.863849 0.267838
0.480452 0.865753 0.268117
0.500088 0.868524 0.268830
0.526211 0.871734 0.269709
0.557338 0.874959 0.269508
0.593069 0.878448 0.268762
0.632769 0.881512 0.268790
0.675270 0.883619 0.268905
0.720467 0.886073 0.266911
0.768146 0.889403 0.258372
0.819363 0.892831 0.254161
0.873452 0.894616 0.304766
0.924293 0.897155 0.380248
0.973745 0.902225 0.417700
0.998239 0.911343 0.562927
0.518429 0.935273 0.319304
0.523037 0.935583 0.318986
0.531448 0.936145 0.318471
0.545044 0.937035 0.317846
0.564245 0.938246 0.317480
0.589241 0.939728 0.318060
0.619815 0.941450 0.320179
0.654697 0.943665 0.322206
0.693059 0.946539 0.322457
0.735079 0.949833 0.321839
0.781227 0.952973 0.324950
0.831117 0.955482 0.337655
0.883439 0.956665 0.375499
0.932133 0.956769 0.459613
0.969572 0.959133 0.558030
0.997609 0.964331 0.647089
0.571665 0.993692 0.408585
0.576228 0.993841 0.409895
0.584564 0.994100 0.412387
0.598031 0.994484 0.416667
0.616972 0.994959 0.423170
0.641419 0.995474 0.432310
0.671147 0.995961 0.444400
0.705607 0.996370 0.459583
0.743376 0.996843 0.478016
0.783684 0.997246 0.501195
0.823413 0.997634 0.537951
0.861187 0.998186 0.586102
0.897299 0.998792 0.639724
0.931904 0.999260 0.694589
0.963900 0.999574 0.749371
0.990843 0.999810 0.806310
0.000385 0.062718 0.132583
0.041712 0.044831 0.212559
0.125151 0.046838 0.211140
0.194388 0.052149 0.209472
0.259446 0.060221 0.207659
0.325008 0.066250 0.206567
0.392530 0.069005 0.201768
0.462185 0.069494 0.185953
0.530689 0.073870 0.165460
0.598084 0.083146 0.146391
0.663226 0.102846 0.132511
0.724984 0.135702 0.128825
0.787652 0.169494 0.132764
0.852158 0.203277 0.142799
0.918386 0.236051 0.152342
0.977359 0.280425 0.171706
0.001389 0.100689 0.175577
0.036781 0.096629 0.219516
0.124398 0.096098 0.217034
0.194675 0.098721 0.211789
0.259497 0.103920 0.207578
0.324938 0.107697 0.205764
0.393584 0.108637 0.197371
0.463084 0.109410 0.180037
0.531494 0.112317 0.161172
0.599205 0.118101 0.144435
0.665525 0.130595 0.131694
0.727295 0.157923 0.130641
0.789661 0.188389 0.137229
0.854180 0.219324 0.148502
0.920398 0.249671 0.157560
0.978228 0.293224 0.178479
0.003501 0.152660 0.195162
0.019821 0.156430 0.214966
0.114395 0.155770 0.214000
0.192507 0.154245 0.211243
0.264670 0.152565 0.207424
0.330947 0.154555 0.199389
0.395762 0.158743 0.187349
0.463638 0.160691 0.172649
0.531167 0.163654 0.159641
0.598234 0.169016 0.149227
0.665630 0.177009 0.140152
0.731145 0.192539 0.137818
0.793553 0.218295 0.147258
0.857998 0.245621 0.159757
0.924163 0.272530 0.167555
0.979731 0.315239 0.191289
0.007658 0.211113 0.210775
0.020366 0.216283 0.213718
0.106050 0.216672 0.210777
0.184608 0.214643 0.207277
0.263643 0.214305 0.199577
0.336844 0.211579 0.190585
0.402411 0.213172 0.182718
0.463901 0.218700 0.180456
0.530522 0.221856 0.175064
0.597655 0.226550 0.169855
0.665077 0.233660 0.165514
0.734208 0.242048 0.161726
0.800578 0.258465 0.166770
0.864574 0.282278 0.178998
0.930504 0.305357 0.184279
0.981951 0.347918 0.212591
0.015321 0.269113 0.206221
0.025430 0.270354 0.201122
0.068766 0.263577 0.203233
0.120324 0.241501 0.192671
0.226770 0.262964 0.205304
0.337535 0.274146 0.199998
0.408497 0.271746 0.200173
0.473150 0.273591 0.202514
0.533852 0.280039 0.208462
0.600267 0.285117 0.207035
0.667964 0.291647 0.204873
0.737100 0.299751 0.202964
0.808046 0.309251 0.201197
0.875086 0.325507 0.204150
0.939950 0.345676 0.206966
0.984728 0.389557 0.241298
0.032717 0.311577 0.196101
0.051675 0.309035 0.188908
0.066443 0.301705 0.199426
0.079757 0.289343 0.212360
0.144888 0.288941 0.207981
0.286071 0.327839 0.225048
0.407519 0.339809 0.200271
0.477590 0.339589 0.201078
0.540550 0.343653 0.213363
0.605666 0.348795 0.222012
0.674461 0.353889 0.226891
0.744240 0.360670 0.232498
0.815018 0.368524 0.235799
0.886758 0.376649 0.232757
0.952791 0.391335 0.233149
0.987668 0.438091 0.277443
0.057681 0.355258 0.190885
0.084471 0.351889 0.187116
0.114449 0.345397 0.190776
0.070304 0.341454 0.240632
0.124697 0.337585 0.240310
0.208053 0.355507 0.236419
0.349537 0.394850 0.254865
0.473326 0.411029 0.221596
0.545257 0.412840 0.216266
0.610817 0.417869 0.229093
0.680381 0.422899 0.234681
0.750702 0.428553 0.240627
0.821321 0.434634 0.246631
0.892438 0.440696 0.250937
0.963395 0.447115 0.250578
0.989939 0.492196 0.317111
0.087442 0.404887 0.193056
0.112624 0.401879 0.191940
0.146099 0.396644 0.191145
0.120012 0.395273 0.231038
0.155951 0.391247 0.241938
0.230046 0.393443 0.231444
