entry/src/main/resources/rawfile/filters/CeladonCool.cube
TITLE "Celadon Cool"
LUT_3D_SIZE 6
0.000000 0.020000 0.030000
0.158254 0.020000 0.030000
0.334555 0.020000 0.030000
0.518377 0.020000 0.030000
0.707261 0.020000 0.030000
0.900000 0.020000 0.030000
0.000000 0.241831 0.030000
0.158254 0.241831 0.030000
0.334555 0.241831 0.030000
0.518377 0.241831 0.030000
0.707261 0.241831 0.030000
0.900000 0.241831 0.030000
0.000000 0.451530 0.030000
0.158254 0.451530 0.030000
0.334555 0.451530 0.030000
0.518377 0.451530 0.030000
0.707261 0.451530 0.030000
0.900000 0.451530 0.030000
0.000000 0.656881 0.030000
0.158254 0.656881 0.030000
0.334555 0.656881 0.030000
0.518377 0.656881 0.030000
0.707261 0.656881 0.030000
0.900000 0.656881 0.030000
0.000000 0.859459 0.030000
0.158254 0.859459 0.030000
0.334555 0.859459 0.030000
0.518377 0.859459 0.030000
0.707261 0.859459 0.030000
0.900000 0.859459 0.030000
0.000000 1.000000 0.030000
0.158254 1.000000 0.030000
0.334555 1.000000 0.030000
0.518377 1.000000 0.030000
0.707261 1.000000 0.030000
0.900000 1.000000 0.030000
0.000000 0.020000 0.263493
0.158254 0.020000 0.263493
0.334555 0.020000 0.263493
0.518377 0.020000 0.263493
0.707261 0.020000 0.263493
0.900000 0.020000 0.263493
0.000000 0.241831 0.263493
0.158254 0.241831 0.263493
0.334555 0.241831 0.263493
0.518377 0.241831 0.263493
0.707261 0.241831 0.263493
0.900000 0.241831 0.263493
0.000000 0.451530 0.263493
0.158254 0.451530 0.263493
0.334555 0.451530 0.263493
0.518377 0.451530 0.263493
0.707261 0.451530 0.263493
0.900000 0.451530 0.263493
0.000000 0.656881 0.263493
0.158254 0.656881 0.263493
0.334555 0.656881 0.263493
0.518377 0.656881 0.263493
0.707261 0.656881 0.263493
0.900000 0.656881 0.263493
0.000000 0.859459 0.263493
0.158254 0.859459 0.263493
0.334555 0.859459 0.263493
0.518377 0.859459 0.263493
0.707261 0.859459 0.263493
0.900000 0.859459 0.263493
0.000000 1.000000 0.263493
0.158254 1.000000 0.263493
0.334555 1.000000 0.263493
0.518377 1.000000 0.263493
0.707261 1.000000 0.263493
0.900000 1.000000 0.263493
0.000000 0.020000 0.477963
0.158254 0.020000 0.477963
0.334555 0.020000 0.477963
0.518377 0.020000 0.477963
0.707261 0.020000 0.477963
0.900000 0.020000 0.477963
0.000000 0.241831 0.477963
0.158254 0.241831 0.477963
0.334555 0.241831 0.477963
0.518377 0.241831 0.477963
0.707261 0.241831 0.477963
0.900000 0.241831 0.477963
0.000000 0.451530 0.477963
0.158254 0.451530 0.477963
0.334555 0.451530 0.477963
0.518377 0.451530 0.477963
0.707261 0.451530 0.477963
0.900000 0.451530 0.477963
0.000000 0.656881 0.477963
0.158254 0.656881 0.477963
0.334555 0.656881 0.477963
0.518377 0.656881 0.477963
0.707261 0.656881 0.477963
0.900000 0.656881 0.477963
0.000000 0.859459 0.477963
0.158254 0.859459 0.477963
0.334555 0.859459 0.477963
0.518377 0.859459 0.477963
0.707261 0.859459 0.477963
0.900000 0.859459 0.477963
0.000000 1.000000 0.477963
0.158254 1.000000 0.477963
0.334555 1.000000 0.477963
0.518377 1.000000 0.477963
0.707261 1.000000 0.477963
0.900000 1.000000 0.477963
0.000000 0.020000 0.685795
0.158254 0.020000 0.685795
0.334555 0.020000 0.685795
0.518377 0.020000 0.685795
0.707261 0.020000 0.685795
0.900000 0.020000 0.685795
0.000000 0.241831 0.685795
0.158254 0.241831 0.685795
0.334555 0.241831 0.685795
0.518377 0.241831 0.685795
0.707261 0.241831 0.685795
0.900000 0.241831 0.685795
0.000000 0.451530 0.685795
0.158254 0.451530 0.685795
0.334555 0.451530 0.685795
0.518377 0.451530 0.685795
0.707261 0.451530 0.685795
0.900000 0.451530 0.685795
0.000000 0.656881 0.685795
0.158254 0.656881 0.685795
0.334555 0.656881 0.685795
0.518377 0.656881 0.685795
0.707261 0.656881 0.685795
0.900000 0.656881 0.685795
0.000000 0.859459 0.685795
0.158254 0.859459 0.685795
0.334555 0.859459 0.685795
0.518377 0.859459 0.685795
0.707261 0.859459 0.685795
0.900000 0.859459 0.685795
0.000000 1.000000 0.685795
0.158254 1.000000 0.685795
0.334555 1.000000 0.685795
0.518377 1.000000 0.685795
0.707261 1.000000 0.685795
0.900000 1.000000 0.685795
0.000000 0.020000 0.889430
0.158254 0.020000 0.889430
0.334555 0.020000 0.889430
0.518377 0.020000 0.889430
0.707261 0.020000 0.889430
0.900000 0.020000 0.889430
0.000000 0.241831 0.889430
0.158254 0.241831 0.889430
0.334555 0.241831 0.889430
0.518377 0.241831 0.889430
0.707261 0.241831 0.889430
0.900000 0.241831 0.889430
0.000000 0.451530 0.889430
0.158254 0.451530 0.889430
0.334555 0.451530 0.889430
0.518377 0.451530 0.889430
0.707261 0.451530 0.889430
0.900000 0.451530 0.889430
0.000000 0.656881 0.889430
0.158254 0.656881 0.889430
0.334555 0.656881 0.889430
0.518377 0.656881 0.889430
0.707261 0.656881 0.889430
0.900000 0.656881 0.889430
0.000000 0.859459 0.889430
0.158254 0.859459 0.889430
0.334555 0.859459 0.889430
0.518377 0.859459 0.889430
0.707261 0.859459 0.889430
0.900000 0.859459 0.889430
0.000000 1.000000 0.889430
0.158254 1.000000 0.889430
0.334555 1.000000 0.889430
0.518377 1.000000 0.889430
0.707261 1.000000 0.889430
0.900000 1.000000 0.889430
0.000000 0.020000 1.000000
0.158254 0.020000 1.000000
0.334555 0.020000 1.000000
0.518377 0.020000 1.000000
0.707261 0.020000 1.000000
0.900000 0.020000 1.000000
0.000000 0.241831 1.000000
0.158254 0.241831 1.000000
0.334555 0.241831 1.000000
0.518377 0.241831 1.000000
0.707261 0.241831 1.000000
0.900000 0.241831 1.000000
0.000000 0.451530 1.000000
0.158254 0.451530 1.000000
0.334555 0.451530 1.000000
0.518377 0.451530 1.000000
0.707261 0.451530 1.000000
0.900000 0.451530 1.000000
0.000000 0.656881 1.000000
0.158254 0.656881 1.000000
0.334555 0.656881 1.000000
0.518377 0.656881 1.000000
0.707261 0.656881 1.000000
0.900000 0.656881 1.000000
0.000000 0.859459 1.000000
0.158254 0.859459 1.000000
0.334555 0.859459 1.000000
0.518377 0.859459 1.000000
0.707261 0.859459 1.000000
0.900000 0.859459 1.000000
0.000000 1.000000 1.000000
0.158254 1.000000 1.000000
0.334555 1.000000 1.000000
0.518377 1.000000 1.000000
0.707261 1.000000 1.000000
0.900000 1.000000 1.000000
