entry/src/main/resources/rawfile/filters/CeladonCool.cube
TITLE "Celadon Cool"
LUT_3D_SIZE 16
0.000000 0.020000 0.030000
0.048313 0.020000 0.030000
0.102135 0.020000 0.030000
0.158254 0.020000 0.030000
0.215918 0.020000 0.030000
0.274759 0.020000 0.030000
0.334555 0.020000 0.030000
0.395157 0.020000 0.030000
0.456458 0.020000 0.030000
0.518377 0.020000 0.030000
0.580850 0.020000 0.030000
0.643825 0.020000 0.030000
0.707261 0.020000 0.030000
0.771121 0.020000 0.030000
0.835376 0.020000 0.030000
0.900000 0.020000 0.030000
0.000000 0.097266 0.030000
0.048313 0.097266 0.030000
0.102135 0.097266 0.030000
0.158254 0.097266 0.030000
0.215918 0.097266 0.030000
0.274759 0.097266 0.030000
0.334555 0.097266 0.030000
0.395157 0.097266 0.030000
0.456458 0.097266 0.030000
0.518377 0.097266 0.030000
0.580850 0.097266 0.030000
0.643825 0.097266 0.030000
0.707261 0.097266 0.030000
0.771121 0.097266 0.030000
0.835376 0.097266 0.030000
0.900000 0.097266 0.030000
0.000000 0.170305 0.030000
0.048313 0.170305 0.030000
0.102135 0.170305 0.030000
0.158254 0.170305 0.030000
0.215918 0.170305 0.030000
0.274759 0.170305 0.030000
0.334555 0.170305 0.030000
0.395157 0.170305 0.030000
0.456458 0.170305 0.030000
0.518377 0.170305 0.030000
0.580850 0.170305 0.030000
0.643825 0.170305 0.030000
0.707261 0.170305 0.030000
0.771121 0.170305 0.030000
0.835376 0.170305 0.030000
0.900000 0.170305 0.030000
0.000000 0.241831 0.030000
0.048313 0.241831 0.030000
0.102135 0.241831 0.030000
0.158254 0.241831 0.030000
0.215918 0.241831 0.030000
0.274759 0.241831 0.030000
0.334555 0.241831 0.030000
0.395157 0.241831 0.030000
0.456458 0.241831 0.030000
0.518377 0.241831 0.030000
0.580850 0.241831 0.030000
0.643825 0.241831 0.030000
0.707261 0.241831 0.030000
0.771121 0.241831 0.030000
0.835376 0.241831 0.030000
0.900000 0.241831 0.030000
0.000000 0.312391 0.030000
0.048313 0.312391 0.030000
0.102135 0.312391 0.030000
0.158254 0.312391 0.030000
0.215918 0.312391 0.030000
0.274759 0.312391 0.030000
0.334555 0.312391 0.030000
0.395157 0.312391 0.030000
0.456458 0.312391 0.030000
0.518377 0.312391 0.030000
0.580850 0.312391 0.030000
0.643825 0.312391 0.030000
0.707261 0.312391 0.030000
0.771121 0.312391 0.030000
0.835376 0.312391 0.030000
0.900000 0.312391 0.030000
0.000000 0.382240 0.030000
0.048313 0.382240 0.030000
0.102135 0.382240 0.030000
0.158254 0.382240 0.030000
0.215918 0.382240 0.030000
0.274759 0.382240 0.030000
0.334555 0.382240 0.030000
0.395157 0.382240 0.030000
0.456458 0.382240 0.030000
0.518377 0.382240 0.030000
0.580850 0.382240 0.030000
0.643825 0.382240 0.030000
0.707261 0.382240 0.030000
0.771121 0.382240 0.030000
0.835376 0.382240 0.030000
0.900000 0.382240 0.030000
0.000000 0.451530 0.030000
0.048313 0.451530 0.030000
0.102135 0.451530 0.030000
0.158254 0.451530 0.030000
0.215918 0.451530 0.030000
0.274759 0.451530 0.030000
0.334555 0.451530 0.030000
0.395157 0.451530 0.030000
0.456458 0.451530 0.030000
0.518377 0.451530 0.030000
0.580850 0.451530 0.030000
0.643825 0.451530 0.030000
0.707261 0.451530 0.030000
0.771121 0.451530 0.030000
0.835376 0.451530 0.030000
0.900000 0.451530 0.030000
0.000000 0.520357 0.030000
0.048313 0.520357 0.030000
0.102135 0.520357 0.030000
0.158254 0.520357 0.030000
0.215918 0.520357 0.030000
0.274759 0.520357 0.030000
0.334555 0.520357 0.030000
0.395157 0.520357 0.030000
0.456458 0.520357 0.030000
0.518377 0.520357 0.030000
0.580850 0.520357 0.030000
0.643825 0.520357 0.030000
0.707261 0.520357 0.030000
0.771121 0.520357 0.030000
0.835376 0.520357 0.030000
0.900000 0.520357 0.030000
0.000000 0.588790 0.030000
0.048313 0.588790 0.030000
0.102135 0.588790 0.030000
0.158254 0.588790 0.030000
0.215918 0.588790 0.030000
0.274759 0.588790 0.030000
0.334555 0.588790 0.030000
0.395157 0.588790 0.030000
0.456458 0.588790 0.030000
0.518377 0.588790 0.030000
0.580850 0.588790 0.030000
0.643825 0.588790 0.030000
0.707261 0.588790 0.030000
0.771121 0.588790 0.030000
0.835376 0.588790 0.030000
0.900000 0.588790 0.030000
0.000000 0.656881 0.030000
0.048313 0.656881 0.030000
0.102135 0.656881 0.030000
0.158254 0.656881 0.030000
0.215918 0.656881 0.030000
0.274759 0.656881 0.030000
0.334555 0.656881 0.030000
0.395157 0.656881 0.030000
0.456458 0.656881 0.030000
0.518377 0.656881 0.030000
0.580850 0.656881 0.030000
0.643825 0.656881 0.030000
0.707261 0.656881 0.030000
0.771121 0.656881 0.030000
0.835376 0.656881 0.030000
0.900000 0.656881 0.030000
0.000000 0.724670 0.030000
0.048313 0.724670 0.030000
0.102135 0.724670 0.030000
0.158254 0.724670 0.030000
0.215918 0.724670 0.030000
0.274759 0.724670 0.030000
0.334555 0.724670 0.030000
0.395157 0.724670 0.030000
0.456458 0.724670 0.030000
0.518377 0.724670 0.030000
0.580850 0.724670 0.030000
0.643825 0.724670 0.030000
0.707261 0.724670 0.030000
0.771121 0.724670 0.030000
0.835376 0.724670 0.030000
0.900000 0.724670 0.030000
0.000000 0.792187 0.030000
0.048313 0.792187 0.030000
0.102135 0.792187 0.030000
0.158254 0.792187 0.030000
0.215918 0.792187 0.030000
0.274759 0.792187 0.030000
0.334555 0.792187 0.030000
0.395157 0.792187 0.030000
0.456458 0.792187 0.030000
0.518377 0.792187 0.030000
0.580850 0.792187 0.030000
0.643825 0.792187 0.030000
0.707261 0.792187 0.030000
0.771121 0.792187 0.030000
0.835376 0.792187 0.030000
0.900000 0.792187 0.030000
0.000000 0.859459 0.030000
0.048313 0.859459 0.030000
0.102135 0.859459 0.030000
0.158254 0.859459 0.030000
0.215918 0.859459 0.030000
0.274759 0.859459 0.030000
0.334555 0.859459 0.030000
0.395157 0.859459 0.030000
0.456458 0.859459 0.030000
0.518377 0.859459 0.030000
0.580850 0.859459 0.030000
0.643825 0.859459 0.030000
0.707261 0.859459 0.030000
0.771121 0.859459 0.030000
0.835376 0.859459 0.030000
0.900000 0.859459 0.030000
0.000000 0.926507 0.030000
0.048313 0.926507 0.030000
0.102135 0.926507 0.030000
0.158254 0.926507 0.030000
0.215918 0.926507 0.030000
0.274759 0.926507 0.030000
0.334555 0.926507 0.030000
0.395157 0.926507 0.030000
0.456458 0.926507 0.030000
0.518377 0.926507 0.030000
0.580850 0.926507 0.030000
0.643825 0.926507 0.030000
0.707261 0.926507 0.030000
0.771121 0.926507 0.030000
0.835376 0.926507 0.030000
0.900000 0.926507 0.030000
0.000000 0.993349 0.030000
0.048313 0.993349 0.030000
0.102135 0.993349 0.030000
0.158254 0.993349 0.030000
0.215918 0.993349 0.030000
0.274759 0.993349 0.030000
0.334555 0.993349 0.030000
0.395157 0.993349 0.030000
0.456458 0.993349 0.030000
0.518377 0.993349 0.030000
0.580850 0.993349 0.030000
0.643825 0.993349 0.030000
0.707261 0.993349 0.030000
0.771121 0.993349 0.030000
0.835376 0.993349 0.030000
0.900000 0.993349 0.030000
0.000000 1.000000 0.030000
0.048313 1.000000 0.030000
0.102135 1.000000 0.030000
0.158254 1.000000 0.030000
0.215918 1.000000 0.030000
0.274759 1.000000 0.030000
0.334555 1.000000 0.030000
0.395157 1.000000 0.030000
0.456458 1.000000 0.030000
0.518377 1.000000 0.030000
0.580850 1.000000 0.030000
0.643825 1.000000 0.030000
0.707261 1.000000 0.030000
0.771121 1.000000 0.030000
0.835376 1.000000 0.030000
0.900000 1.000000 0.030000
0.000000 0.020000 0.113134
0.048313 0.020000 0.113134
0.102135 0.020000 0.113134
0.158254 0.020000 0.113134
0.215918 0.020000 0.113134
0.274759 0.020000 0.113134
0.334555 0.020000 0.113134
0.395157 0.020000 0.113134
0.456458 0.020000 0.113134
0.518377 0.020000 0.113134
0.580850 0.020000 0.113134
0.643825 0.020000 0.113134
0.707261 0.020000 0.113134
0.771121 0.020000 0.113134
0.835376 0.020000 0.113134
0.900000 0.020000 0.113134
0.000000 0.097266 0.113134
0.048313 0.097266 0.113134
0.102135 0.097266 0.113134
0.158254 0.097266 0.113134
0.215918 0.097266 0.113134
0.274759 0.097266 0.113134
0.334555 0.097266 0.113134
0.395157 0.097266 0.113134
0.456458 0.097266 0.113134
0.518377 0.097266 0.113134
0.580850 0.097266 0.113134
0.643825 0.097266 0.113134
0.707261 0.097266 0.113134
0.771121 0.097266 0.113134
0.835376 0.097266 0.113134
0.900000 0.097266 0.113134
0.000000 0.170305 0.113134
0.048313 0.170305 0.113134
0.102135 0.170305 0.113134
0.158254 0.170305 0.113134
0.215918 0.170305 0.113134
0.274759 0.170305 0.113134
0.334555 0.170305 0.113134
0.395157 0.170305 0.113134
0.456458 0.170305 0.113134
0.518377 0.170305 0.113134
0.580850 0.170305 0.113134
0.643825 0.170305 0.113134
0.707261 0.170305 0.113134
0.771121 0.170305 0.113134
0.835376 0.170305 0.113134
0.900000 0.170305 0.113134
0.000000 0.241831 0.113134
0.048313 0.241831 0.113134
0.102135 0.241831 0.113134
0.158254 0.241831 0.113134
0.215918 0.241831 0.113134
0.274759 0.241831 0.113134
0.334555 0.241831 0.113134
0.395157 0.241831 0.113134
0.456458 0.241831 0.113134
0.518377 0.241831 0.113134
0.580850 0.241831 0.113134
0.643825 0.241831 0.113134
0.707261 0.241831 0.113134
0.771121 0.241831 0.113134
0.835376 0.241831 0.113134
0.900000 0.241831 0.113134
0.000000 0.312391 0.113134
0.048313 0.312391 0.113134
0.102135 0.312391 0.113134
0.158254 0.312391 0.113134
0.215918 0.312391 0.113134
0.274759 0.312391 0.113134
0.334555 0.312391 0.113134
0.395157 0.312391 0.113134
0.456458 0.312391 0.113134
0.518377 0.312391 0.113134
0.580850 0.312391 0.113134
0.643825 0.312391 0.113134
0.707261 0.312391 0.113134
0.771121 0.312391 0.113134
0.835376 0.312391 0.113134
0.900000 0.312391 0.113134
0.000000 0.382240 0.113134
0.048313 0.382240 0.113134
0.102135 0.382240 0.113134
0.158254 0.382240 0.113134
0.215918 0.382240 0.113134
0.274759 0.382240 0.113134
0.334555 0.382240 0.113134
0.395157 0.382240 0.113134
0.456458 0.382240 0.113134
0.518377 0.382240 0.113134
0.580850 0.382240 0.113134
0.643825 0.382240 0.113134
0.707261 0.382240 0.113134
0.771121 0.382240 0.113134
0.835376 0.382240 0.113134
0.900000 0.382240 0.113134
0.000000 0.451530 0.113134
0.048313 0.451530 0.113134
0.102135 0.451530 0.113134
0.158254 0.451530 0.113134
0.215918 0.451530 0.113134
0.274759 0.451530 0.113134
0.334555 0.451530 0.113134
0.395157 0.451530 0.113134
0.456458 0.451530 0.113134
0.518377 0.451530 0.113134
0.580850 0.451530 0.113134
0.643825 0.451530 0.113134
0.707261 0.451530 0.113134
0.771121 0.451530 0.113134
0.835376 0.451530 0.113134
0.900000 0.451530 0.113134
0.000000 0.520357 0.113134
0.048313 0.520357 0.113134
0.102135 0.520357 0.113134
0.158254 0.520357 0.113134
0.215918 0.520357 0.113134
0.274759 0.520357 0.113134
0.334555 0.520357 0.113134
0.395157 0.520357 0.113134
0.456458 0.520357 0.113134
0.518377 0.520357 0.113134
0.580850 0.520357 0.113134
0.643825 0.520357 0.113134
0.707261 0.520357 0.113134
0.771121 0.520357 0.113134
0.835376 0.520357 0.113134
0.900000 0.520357 0.113134
0.000000 0.588790 0.113134
0.048313 0.588790 0.113134
0.102135 0.588790 0.113134
0.158254 0.588790 0.113134
0.215918 0.588790 0.113134
0.274759 0.588790 0.113134
0.334555 0.588790 0.113134
0.395157 0.588790 0.113134
0.456458 0.588790 0.113134
0.518377 0.588790 0.113134
0.580850 0.588790 0.113134
0.643825 0.588790 0.113134
0.707261 0.588790 0.113134
0.771121 0.588790 0.113134
0.835376 0.588790 0.113134
0.900000 0.588790 0.113134
0.000000 0.656881 0.113134
0.048313 0.656881 0.113134
0.102135 0.656881 0.113134
0.158254 0.656881 0.113134
0.215918 0.656881 0.113134
0.274759 0.656881 0.113134
0.334555 0.656881 0.113134
0.395157 0.656881 0.113134
0.456458 0.656881 0.113134
0.518377 0.656881 0.113134
0.580850 0.656881 0.113134
0.643825 0.656881 0.113134
0.707261 0.656881 0.113134
0.771121 0.656881 0.113134
0.835376 0.656881 0.113134
0.900000 0.656881 0.113134
0.000000 0.724670 0.113134
0.048313 0.724670 0.113134
0.102135 0.724670 0.113134
0.158254 0.724670 0.113134
0.215918 0.724670 0.113134
0.274759 0.724670 0.113134
0.334555 0.724670 0.113134
0.395157 0.724670 0.113134
0.456458 0.724670 0.113134
0.518377 0.724670 0.113134
0.580850 0.724670 0.113134
0.643825 0.724670 0.113134
0.707261 0.724670 0.113134
0.771121 0.724670 0.113134
0.835376 0.724670 0.113134
0.900000 0.724670 0.113134
0.000000 0.792187 0.113134
0.048313 0.792187 0.113134
0.102135 0.792187 0.113134
0.158254 0.792187 0.113134
0.215918 0.792187 0.113134
0.274759 0.792187 0.113134
0.334555 0.792187 0.113134
0.395157 0.792187 0.113134
0.456458 0.792187 0.113134
0.518377 0.792187 0.113134
0.580850 0.792187 0.113134
0.643825 0.792187 0.113134
0.707261 0.792187 0.113134
0.771121 0.792187 0.113134
0.835376 0.792187 0.113134
0.900000 0.792187 0.113134
0.000000 0.859459 0.113134
0.048313 0.859459 0.113134
0.102135 0.859459 0.113134
0.158254 0.859459 0.113134
0.215918 0.859459 0.113134
0.274759 0.859459 0.113134
0.334555 0.859459 0.113134
0.395157 0.859459 0.113134
0.456458 0.859459 0.113134
0.518377 0.859459 0.113134
0.580850 0.859459 0.113134
0.643825 0.859459 0.113134
0.707261 0.859459 0.113134
0.771121 0.859459 0.113134
0.835376 0.859459 0.113134
0.900000 0.859459 0.113134
0.000000 0.926507 0.113134
0.048313 0.926507 0.113134
0.102135 0.926507 0.113134
0.158254 0.926507 0.113134
0.215918 0.926507 0.113134
0.274759 0.926507 0.113134
0.334555 0.926507 0.113134
0.395157 0.926507 0.113134
0.456458 0.926507 0.113134
0.518377 0.926507 0.113134
0.580850 0.926507 0.113134
0.643825 0.926507 0.113134
0.707261 0.926507 0.113134
0.771121 0.926507 0.113134
0.835376 0.926507 0.113134
0.900000 0.926507 0.113134
0.000000 0.993349 0.113134
0.048313 0.993349 0.113134
0.102135 0.993349 0.113134
0.158254 0.993349 0.113134
0.215918 0.993349 0.113134
0.274759 0.993349 0.113134
0.334555 0.993349 0.113134
0.395157 0.993349 0.113134
0.456458 0.993349 0.113134
0.518377 0.993349 0.113134
0.580850 0.993349 0.113134
0.643825 0.993349 0.113134
0.707261 0.993349 0.113134
0.771121 0.993349 0.113134
0.835376 0.993349 0.113134
0.900000 0.993349 0.113134
0.000000 1.000000 0.113134
0.048313 1.000000 0.113134
0.102135 1.000000 0.113134
0.158254 1.000000 0.113134
0.215918 1.000000 0.113134
0.274759 1.000000 0.113134
0.334555 1.000000 0.113134
0.395157 1.000000 0.113134
0.456458 1.000000 0.113134
0.518377 1.000000 0.113134
0.580850 1.000000 0.113134
0.643825 1.000000 0.113134
0.707261 1.000000 0.113134
0.771121 1.000000 0.113134
0.835376 1.000000 0.113134
0.900000 1.000000 0.113134
0.000000 0.020000 0.189495
0.048313 0.020000 0.189495
0.102135 0.020000 0.189495
0.158254 0.020000 0.189495
0.215918 0.020000 0.189495
0.274759 0.020000 0.189495
0.334555 0.020000 0.189495
0.395157 0.020000 0.189495
0.456458 0.020000 0.189495
0.518377 0.020000 0.189495
0.580850 0.020000 0.189495
0.643825 0.020000 0.189495
0.707261 0.020000 0.189495
0.771121 0.020000 0.189495
0.835376 0.020000 0.189495
0.900000 0.020000 0.189495
0.000000 0.097266 0.189495
0.048313 0.097266 0.189495
0.102135 0.097266 0.189495
0.158254 0.097266 0.189495
0.215918 0.097266 0.189495
0.274759 0.097266 0.189495
0.334555 0.097266 0.189495
0.395157 0.097266 0.189495
0.456458 0.097266 0.189495
0.518377 0.097266 0.189495
0.580850 0.097266 0.189495
0.643825 0.097266 0.189495
0.707261 0.097266 0.189495
0.771121 0.097266 0.189495
0.835376 0.097266 0.189495
0.900000 0.097266 0.189495
0.000000 0.170305 0.189495
0.048313 0.170305 0.189495
0.102135 0.170305 0.189495
0.158254 0.170305 0.189495
0.215918 0.170305 0.189495
0.274759 0.170305 0.189495
0.334555 0.170305 0.189495
0.395157 0.170305 0.189495
0.456458 0.170305 0.189495
0.518377 0.170305 0.189495
0.580850 0.170305 0.189495
0.643825 0.170305 0.189495
0.707261 0.170305 0.189495
0.771121 0.170305 0.189495
0.835376 0.170305 0.189495
0.900000 0.170305 0.189495
0.000000 0.241831 0.189495
0.048313 0.241831 0.189495
0.102135 0.241831 0.189495
0.158254 0.241831 0.189495
0.215918 0.241831 0.189495
0.274759 0.241831 0.189495
0.334555 0.241831 0.189495
0.395157 0.241831 0.189495
0.456458 0.241831 0.189495
0.518377 0.241831 0.189495
0.580850 0.241831 0.189495
0.643825 0.241831 0.189495
0.707261 0.241831 0.189495
0.771121 0.241831 0.189495
0.835376 0.241831 0.189495
0.900000 0.241831 0.189495
0.000000 0.312391 0.189495
0.048313 0.312391 0.189495
0.102135 0.312391 0.189495
0.158254 0.312391 0.189495
0.215918 0.312391 0.189495
0.274759 0.312391 0.189495
0.334555 0.312391 0.189495
0.395157 0.312391 0.189495
0.456458 0.312391 0.189495
0.518377 0.312391 0.189495
0.580850 0.312391 0.189495
0.643825 0.312391 0.189495
0.707261 0.312391 0.189495
0.771121 0.312391 0.189495
0.835376 0.312391 0.189495
0.900000 0.312391 0.189495
0.000000 0.382240 0.189495
0.048313 0.382240 0.189495
0.102135 0.382240 0.189495
0.158254 0.382240 0.189495
0.215918 0.382240 0.189495
0.274759 0.382240 0.189495
0.334555 0.382240 0.189495
0.395157 0.382240 0.189495
0.456458 0.382240 0.189495
0.518377 0.382240 0.189495
0.580850 0.382240 0.189495
0.643825 0.382240 0.189495
0.707261 0.382240 0.189495
0.771121 0.382240 0.189495
0.835376 0.382240 0.189495
0.900000 0.382240 0.189495
0.000000 0.451530 0.189495
0.048313 0.451530 0.189495
0.102135 0.451530 0.189495
0.158254 0.451530 0.189495
0.215918 0.451530 0.189495
0.274759 0.451530 0.189495
0.334555 0.451530 0.189495
0.395157 0.451530 0.189495
0.456458 0.451530 0.189495
0.518377 0.451530 0.189495
0.580850 0.451530 0.189495
0.643825 0.451530 0.189495
0.707261 0.451530 0.189495
0.771121 0.451530 0.189495
0.835376 0.451530 0.189495
0.900000 0.451530 0.189495
0.000000 0.520357 0.189495
0.048313 0.520357 0.189495
0.102135 0.520357 0.189495
0.158254 0.520357 0.189495
0.215918 0.520357 0.189495
0.274759 0.520357 0.189495
0.334555 0.520357 0.189495
0.395157 0.520357 0.189495
0.456458 0.520357 0.189495
0.518377 0.520357 0.189495
0.580850 0.520357 0.189495
0.643825 0.520357 0.189495
0.707261 0.520357 0.189495
0.771121 0.520357 0.189495
0.835376 0.520357 0.189495
0.900000 0.520357 0.189495
0.000000 0.588790 0.189495
0.048313 0.588790 0.189495
0.102135 0.588790 0.189495
0.158254 0.588790 0.189495
0.215918 0.588790 0.189495
0.274759 0.588790 0.189495
0.334555 0.588790 0.189495
0.395157 0.588790 0.189495
0.456458 0.588790 0.189495
0.518377 0.588790 0.189495
0.580850 0.588790 0.189495
0.643825 0.588790 0.189495
0.707261 0.588790 0.189495
0.771121 0.588790 0.189495
0.835376 0.588790 0.189495
0.900000 0.588790 0.189495
0.000000 0.656881 0.189495
0.048313 0.656881 0.189495
0.102135 0.656881 0.189495
0.158254 0.656881 0.189495
0.215918 0.656881 0.189495
0.274759 0.656881 0.189495
0.334555 0.656881 0.189495
0.395157 0.656881 0.189495
0.456458 0.656881 0.189495
0.518377 0.656881 0.189495
0.580850 0.656881 0.189495
0.643825 0.656881 0.189495
0.707261 0.656881 0.189495
0.771121 0.656881 0.189495
0.835376 0.656881 0.189495
0.900000 0.656881 0.189495
0.000000 0.724670 0.189495
0.048313 0.724670 0.189495
0.102135 0.724670 0.189495
0.158254 0.724670 0.189495
0.215918 0.724670 0.189495
0.274759 0.724670 0.189495
0.334555 0.724670 0.189495
0.395157 0.724670 0.189495
0.456458 0.724670 0.189495
0.518377 0.724670 0.189495
0.580850 0.724670 0.189495
0.643825 0.724670 0.189495
0.707261 0.724670 0.189495
0.771121 0.724670 0.189495
0.835376 0.724670 0.189495
0.900000 0.724670 0.189495
0.000000 0.792187 0.189495
0.048313 0.792187 0.189495
0.102135 0.792187 0.189495
0.158254 0.792187 0.189495
0.215918 0.792187 0.189495
0.274759 0.792187 0.189495
0.334555 0.792187 0.189495
0.395157 0.792187 0.189495
0.456458 0.792187 0.189495
0.518377 0.792187 0.189495
0.580850 0.792187 0.189495
0.643825 0.792187 0.189495
0.707261 0.792187 0.189495
0.771121 0.792187 0.189495
0.835376 0.792187 0.189495
0.900000 0.792187 0.189495
0.000000 0.859459 0.189495
0.048313 0.859459 0.189495
0.102135 0.859459 0.189495
0.158254 0.859459 0.189495
0.215918 0.859459 0.189495
0.274759 0.859459 0.189495
0.334555 0.859459 0.189495
0.395157 0.859459 0.189495
0.456458 0.859459 0.189495
0.518377 0.859459 0.189495
0.580850 0.859459 0.189495
0.643825 0.859459 0.189495
0.707261 0.859459 0.189495
0.771121 0.859459 0.189495
0.835376 0.859459 0.189495
0.900000 0.859459 0.189495
0.000000 0.926507 0.189495
0.048313 0.926507 0.189495
0.102135 0.926507 0.189495
0.158254 0.926507 0.189495
0.215918 0.926507 0.189495
0.274759 0.926507 0.189495
0.334555 0.926507 0.189495
0.395157 0.926507 0.189495
0.456458 0.926507 0.189495
0.518377 0.926507 0.189495
0.580850 0.926507 0.189495
0.643825 0.926507 0.189495
0.707261 0.926507 0.189495
0.771121 0.926507 0.189495
0.835376 0.926507 0.189495
0.900000 0.926507 0.189495
0.000000 0.993349 0.189495
0.048313 0.993349 0.189495
0.102135 0.993349 0.189495
0.158254 0.993349 0.189495
0.215918 0.993349 0.189495
0.274759 0.993349 0.189495
0.334555 0.993349 0.189495
0.395157 0.993349 0.189495
0.456458 0.993349 0.189495
0.518377 0.993349 0.189495
0.580850 0.993349 0.189495
0.643825 0.993349 0.189495
0.707261 0.993349 0.189495
0.771121 0.993349 0.189495
0.835376 0.993349 0.189495
0.900000 0.993349 0.189495
0.000000 1.000000 0.189495
0.048313 1.000000 0.189495
0.102135 1.000000 0.189495
0.158254 1.000000 0.189495
0.215918 1.000000 0.189495
0.274759 1.000000 0.189495
0.334555 1.000000 0.189495
0.395157 1.000000 0.189495
0.456458 1.000000 0.189495
0.518377 1.000000 0.189495
0.580850 1.000000 0.189495
0.643825 1.000000 0.189495
0.707261 1.000000 0.189495
0.771121 1.000000 0.189495
0.835376 1.000000 0.189495
0.900000 1.000000 0.189495
0.000000 0.020000 0.263493
0.048313 0.020000 0.263493
0.102135 0.020000 0.263493
0.158254 0.020000 0.263493
0.215918 0.020000 0.263493
0.274759 0.020000 0.263493
0.334555 0.020000 0.263493
0.395157 0.020000 0.263493
0.456458 0.020000 0.263493
0.518377 0.020000 0.263493
0.580850 0.020000 0.263493
0.643825 0.020000 0.263493
0.707261 0.020000 0.263493
0.771121 0.020000 0.263493
0.835376 0.020000 0.263493
0.900000 0.020000 0.263493
0.000000 0.097266 0.263493
0.048313 0.097266 0.263493
0.102135 0.097266 0.263493
0.158254 0.097266 0.263493
0.215918 0.097266 0.263493
0.274759 0.097266 0.263493
0.334555 0.097266 0.263493
0.395157 0.097266 0.263493
0.456458 0.097266 0.263493
0.518377 0.097266 0.263493
0.580850 0.097266 0.263493
0.643825 0.097266 0.263493
0.707261 0.097266 0.263493
0.771121 0.097266 0.263493
0.835376 0.097266 0.263493
0.900000 0.097266 0.263493
0.000000 0.170305 0.263493
0.048313 0.170305 0.263493
0.102135 0.170305 0.263493
0.158254 0.170305 0.263493
0.215918 0.170305 0.263493
0.274759 0.170305 0.263493
0.334555 0.170305 0.263493
0.395157 0.170305 0.263493
0.456458 0.170305 0.263493
0.518377 0.170305 0.263493
0.580850 0.170305 0.263493
0.643825 0.170305 0.263493
0.707261 0.170305 0.263493
0.771121 0.170305 0.263493
0.835376 0.170305 0.263493
0.900000 0.170305 0.263493
0.000000 0.241831 0.263493
0.048313 0.241831 0.263493
0.102135 0.241831 0.263493
0.158254 0.241831 0.263493
0.215918 0.241831 0.263493
0.274759 0.241831 0.263493
0.334555 0.241831 0.263493
0.395157 0.241831 0.263493
0.456458 0.241831 0.263493
0.518377 0.241831 0.263493
0.580850 0.241831 0.263493
0.643825 0.241831 0.263493
0.707261 0.241831 0.263493
0.771121 0.241831 0.263493
0.835376 0.241831 0.263493
0.900000 0.241831 0.263493
0.000000 0.312391 0.263493
0.048313 0.312391 0.263493
0.102135 0.312391 0.263493
0.158254 0.312391 0.263493
0.215918 0.312391 0.263493
0.274759 0.312391 0.263493
0.334555 0.312391 0.263493
0.395157 0.312391 0.263493
0.456458 0.312391 0.263493
0.518377 0.312391 0.263493
0.580850 0.312391 0.263493
0.643825 0.312391 0.263493
0.707261 0.312391 0.263493
0.771121 0.312391 0.263493
0.835376 0.312391 0.263493
0.900000 0.312391 0.263493
0.000000 0.382240 0.263493
0.048313 0.382240 0.263493
0.102135 0.382240 0.263493
0.158254 0.382240 0.263493
0.215918 0.382240 0.263493
0.274759 0.382240 0.263493
0.334555 0.382240 0.263493
0.395157 0.382240 0.263493
0.456458 0.382240 0.263493
0.518377 0.382240 0.263493
0.580850 0.382240 0.263493
0.643825 0.382240 0.263493
0.707261 0.382240 0.263493
0.771121 0.382240 0.263493
0.835376 0.382240 0.263493
0.900000 0.382240 0.263493
0.000000 0.451530 0.263493
0.048313 0.451530 0.263493
0.102135 0.451530 0.263493
0.158254 0.451530 0.263493
0.215918 0.451530 0.263493
0.274759 0.451530 0.263493
0.334555 0.451530 0.263493
0.395157 0.451530 0.263493
0.456458 0.451530 0.263493
0.518377 0.451530 0.263493
0.580850 0.451530 0.263493
0.643825 0.451530 0.263493
0.707261 0.451530 0.263493
0.771121 0.451530 0.263493
0.835376 0.451530 0.263493
0.900000 0.451530 0.263493
0.000000 0.520357 0.263493
0.048313 0.520357 0.263493
0.102135 0.520357 0.263493
0.158254 0.520357 0.263493
0.215918 0.520357 0.263493
0.274759 0.520357 0.263493
0.334555 0.520357 0.263493
