entry/src/main/resources/rawfile/filters/CinnabarGlow.cube
TITLE "Cinnabar Glow"
LUT_3D_SIZE 6
0.000000 0.000000 0.000000
0.266870 0.000000 0.000000
0.491140 0.000000 0.000000
0.701723 0.000000 0.000000
0.903882 0.000000 0.000000
1.000000 0.000000 0.000000
0.000000 0.209033 0.000000
0.266870 0.209033 0.000000
0.491140 0.209033 0.000000
0.701723 0.209033 0.000000
0.903882 0.209033 0.000000
1.000000 0.209033 0.000000
0.000000 0.406634 0.000000
0.266870 0.406634 0.000000
0.491140 0.406634 0.000000
0.701723 0.406634 0.000000
0.903882 0.406634 0.000000
1.000000 0.406634 0.000000
0.000000 0.600138 0.000000
0.266870 0.600138 0.000000
0.491140 0.600138 0.000000
0.701723 0.600138 0.000000
0.903882 0.600138 0.000000
1.000000 0.600138 0.000000
0.000000 0.791029 0.000000
0.266870 0.791029 0.000000
0.491140 0.791029 0.000000
0.701723 0.791029 0.000000
0.903882 0.791029 0.000000
1.000000 0.791029 0.000000
0.000000 0.980000 0.000000
0.266870 0.980000 0.000000
0.491140 0.980000 0.000000
0.701723 0.980000 0.000000
0.903882 0.980000 0.000000
1.000000 0.980000 0.000000
0.000000 0.000000 0.135704
0.266870 0.000000 0.135704
0.491140 0.000000 0.135704
0.701723 0.000000 0.135704
0.903882 0.000000 0.135704
1.000000 0.000000 0.135704
0.000000 0.209033 0.135704
0.266870 0.209033 0.135704
0.491140 0.209033 0.135704
0.701723 0.209033 0.135704
0.903882 0.209033 0.135704
1.000000 0.209033 0.135704
0.000000 0.406634 0.135704
0.266870 0.406634 0.135704
0.491140 0.406634 0.135704
0.701723 0.406634 0.135704
0.903882 0.406634 0.135704
1.000000 0.406634 0.135704
0.000000 0.600138 0.135704
0.266870 0.600138 0.135704
0.491140 0.600138 0.135704
0.701723 0.600138 0.135704
0.903882 0.600138 0.135704
1.000000 0.600138 0.135704
0.000000 0.791029 0.135704
0.266870 0.791029 0.135704
0.491140 0.791029 0.135704
0.701723 0.791029 0.135704
0.903882 0.791029 0.135704
1.000000 0.791029 0.135704
0.000000 0.980000 0.135704
0.266870 0.980000 0.135704
0.491140 0.980000 0.135704
0.701723 0.980000 0.135704
0.903882 0.980000 0.135704
1.000000 0.980000 0.135704
0.000000 0.000000 0.299066
0.266870 0.000000 0.299066
0.491140 0.000000 0.299066
0.701723 0.000000 0.299066
0.903882 0.000000 0.299066
1.000000 0.000000 0.299066
0.000000 0.209033 0.299066
0.266870 0.209033 0.299066
0.491140 0.209033 0.299066
0.701723 0.209033 0.299066
0.903882 0.209033 0.299066
1.000000 0.209033 0.299066
0.000000 0.406634 0.299066
0.266870 0.406634 0.299066
0.491140 0.406634 0.299066
0.701723 0.406634 0.299066
0.903882 0.406634 0.299066
1.000000 0.406634 0.299066
0.000000 0.600138 0.299066
0.266870 0.600138 0.299066
0.491140 0.600138 0.299066
0.701723 0.600138 0.299066
0.903882 0.600138 0.299066
1.000000 0.600138 0.299066
0.000000 0.791029 0.299066
0.266870 0.791029 0.299066
0.491140 0.791029 0.299066
0.701723 0.791029 0.299066
0.903882 0.791029 0.299066
1.000000 0.791029 0.299066
0.000000 0.980000 0.299066
0.266870 0.980000 0.299066
0.491140 0.980000 0.299066
0.701723 0.980000 0.299066
0.903882 0.980000 0.299066
1.000000 0.980000 0.299066
0.000000 0.000000 0.474801
0.266870 0.000000 0.474801
0.491140 0.000000 0.474801
0.701723 0.000000 0.474801
0.903882 0.000000 0.474801
1.000000 0.000000 0.474801
0.000000 0.209033 0.474801
0.266870 0.209033 0.474801
0.491140 0.209033 0.474801
0.701723 0.209033 0.474801
0.903882 0.209033 0.474801
1.000000 0.209033 0.474801
0.000000 0.406634 0.474801
0.266870 0.406634 0.474801
0.491140 0.406634 0.474801
0.701723 0.406634 0.474801
0.903882 0.406634 0.474801
1.000000 0.406634 0.474801
0.000000 0.600138 0.474801
0.266870 0.600138 0.474801
0.491140 0.600138 0.474801
0.701723 0.600138 0.474801
0.903882 0.600138 0.474801
1.000000 0.600138 0.474801
0.000000 0.791029 0.474801
0.266870 0.791029 0.474801
0.491140 0.791029 0.474801
0.701723 0.791029 0.474801
0.903882 0.791029 0.474801
1.000000 0.791029 0.474801
0.000000 0.980000 0.474801
0.266870 0.980000 0.474801
0.491140 0.980000 0.474801
0.701723 0.980000 0.474801
0.903882 0.980000 0.474801
1.000000 0.980000 0.474801
0.000000 0.000000 0.659085
0.266870 0.000000 0.659085
0.491140 0.000000 0.659085
0.701723 0.000000 0.659085
0.903882 0.000000 0.659085
1.000000 0.000000 0.659085
0.000000 0.209033 0.659085
0.266870 0.209033 0.659085
0.491140 0.209033 0.659085
0.701723 0.209033 0.659085
0.903882 0.209033 0.659085
1.000000 0.209033 0.659085
0.000000 0.406634 0.659085
0.266870 0.406634 0.659085
0.491140 0.406634 0.659085
0.701723 0.406634 0.659085
0.903882 0.406634 0.659085
1.000000 0.406634 0.659085
0.000000 0.600138 0.659085
0.266870 0.600138 0.659085
0.491140 0.600138 0.659085
0.701723 0.600138 0.659085
0.903882 0.600138 0.659085
1.000000 0.600138 0.659085
0.000000 0.791029 0.659085
0.266870 0.791029 0.659085
0.491140 0.791029 0.659085
0.701723 0.791029 0.659085
0.903882 0.791029 0.659085
1.000000 0.791029 0.659085
0.000000 0.980000 0.659085
0.266870 0.980000 0.659085
0.491140 0.980000 0.659085
0.701723 0.980000 0.659085
0.903882 0.980000 0.659085
1.000000 0.980000 0.659085
0.000000 0.000000 0.850000
0.266870 0.000000 0.850000
0.491140 0.000000 0.850000
0.701723 0.000000 0.850000
0.903882 0.000000 0.850000
1.000000 0.000000 0.850000
0.000000 0.209033 0.850000
0.266870 0.209033 0.850000
0.491140 0.209033 0.850000
0.701723 0.209033 0.850000
0.903882 0.209033 0.850000
1.000000 0.209033 0.850000
0.000000 0.406634 0.850000
0.266870 0.406634 0.850000
0.491140 0.406634 0.850000
0.701723 0.406634 0.850000
0.903882 0.406634 0.850000
1.000000 0.406634 0.850000
0.000000 0.600138 0.850000
0.266870 0.600138 0.850000
0.491140 0.600138 0.850000
0.701723 0.600138 0.850000
0.903882 0.600138 0.850000
1.000000 0.600138 0.850000
0.000000 0.791029 0.850000
0.266870 0.791029 0.850000
0.491140 0.791029 0.850000
0.701723 0.791029 0.850000
0.903882 0.791029 0.850000
1.000000 0.791029 0.850000
0.000000 0.980000 0.850000
0.266870 0.980000 0.850000
0.491140 0.980000 0.850000
0.701723 0.980000 0.850000
0.903882 0.980000 0.850000
1.000000 0.980000 0.850000
