entry/src/main/resources/rawfile/filters/CinnabarGlow.cube
TITLE "Cinnabar Glow"
LUT_3D_SIZE 16
0.000000 0.000000 0.000000
0.101492 0.000000 0.000000
0.186784 0.000000 0.000000
0.266870 0.000000 0.000000
0.343752 0.000000 0.000000
0.418337 0.000000 0.000000
0.491140 0.000000 0.000000
0.562495 0.000000 0.000000
0.632633 0.000000 0.000000
0.701723 0.000000 0.000000
0.769897 0.000000 0.000000
0.837255 0.000000 0.000000
0.903882 0.000000 0.000000
0.969845 0.000000 0.000000
1.000000 0.000000 0.000000
1.000000 0.000000 0.000000
0.000000 0.072808 0.000000
0.101492 0.072808 0.000000
0.186784 0.072808 0.000000
0.266870 0.072808 0.000000
0.343752 0.072808 0.000000
0.418337 0.072808 0.000000
0.491140 0.072808 0.000000
0.562495 0.072808 0.000000
0.632633 0.072808 0.000000
0.701723 0.072808 0.000000
0.769897 0.072808 0.000000
0.837255 0.072808 0.000000
0.903882 0.072808 0.000000
0.969845 0.072808 0.000000
1.000000 0.072808 0.000000
1.000000 0.072808 0.000000
0.000000 0.141634 0.000000
0.101492 0.141634 0.000000
0.186784 0.141634 0.000000
0.266870 0.141634 0.000000
0.343752 0.141634 0.000000
0.418337 0.141634 0.000000
0.491140 0.141634 0.000000
0.562495 0.141634 0.000000
0.632633 0.141634 0.000000
0.701723 0.141634 0.000000
0.769897 0.141634 0.000000
0.837255 0.141634 0.000000
0.903882 0.141634 0.000000
0.969845 0.141634 0.000000
1.000000 0.141634 0.000000
1.000000 0.141634 0.000000
0.000000 0.209033 0.000000
0.101492 0.209033 0.000000
0.186784 0.209033 0.000000
0.266870 0.209033 0.000000
0.343752 0.209033 0.000000
0.418337 0.209033 0.000000
0.491140 0.209033 0.000000
0.562495 0.209033 0.000000
0.632633 0.209033 0.000000
0.701723 0.209033 0.000000
0.769897 0.209033 0.000000
0.837255 0.209033 0.000000
0.903882 0.209033 0.000000
0.969845 0.209033 0.000000
1.000000 0.209033 0.000000
1.000000 0.209033 0.000000
0.000000 0.275522 0.000000
0.101492 0.275522 0.000000
0.186784 0.275522 0.000000
0.266870 0.275522 0.000000
0.343752 0.275522 0.000000
0.418337 0.275522 0.000000
0.491140 0.275522 0.000000
0.562495 0.275522 0.000000
0.632633 0.275522 0.000000
0.701723 0.275522 0.000000
0.769897 0.275522 0.000000
0.837255 0.275522 0.000000
0.903882 0.275522 0.000000
0.969845 0.275522 0.000000
1.000000 0.275522 0.000000
1.000000 0.275522 0.000000
0.000000 0.341342 0.000000
0.101492 0.341342 0.000000
0.186784 0.341342 0.000000
0.266870 0.341342 0.000000
0.343752 0.341342 0.000000
0.418337 0.341342 0.000000
0.491140 0.341342 0.000000
0.562495 0.341342 0.000000
0.632633 0.341342 0.000000
0.701723 0.341342 0.000000
0.769897 0.341342 0.000000
0.837255 0.341342 0.000000
0.903882 0.341342 0.000000
0.969845 0.341342 0.000000
1.000000 0.341342 0.000000
1.000000 0.341342 0.000000
0.000000 0.406634 0.000000
0.101492 0.406634 0.000000
0.186784 0.406634 0.000000
0.266870 0.406634 0.000000
0.343752 0.406634 0.000000
0.418337 0.406634 0.000000
0.491140 0.406634 0.000000
0.562495 0.406634 0.000000
0.632633 0.406634 0.000000
0.701723 0.406634 0.000000
0.769897 0.406634 0.000000
0.837255 0.406634 0.000000
0.903882 0.406634 0.000000
0.969845 0.406634 0.000000
1.000000 0.406634 0.000000
1.000000 0.406634 0.000000
0.000000 0.471490 0.000000
0.101492 0.471490 0.000000
0.186784 0.471490 0.000000
0.266870 0.471490 0.000000
0.343752 0.471490 0.000000
0.418337 0.471490 0.000000
0.491140 0.471490 0.000000
0.562495 0.471490 0.000000
0.632633 0.471490 0.000000
0.701723 0.471490 0.000000
0.769897 0.471490 0.000000
0.837255 0.471490 0.000000
0.903882 0.471490 0.000000
0.969845 0.471490 0.000000
1.000000 0.471490 0.000000
1.000000 0.471490 0.000000
0.000000 0.535975 0.000000
0.101492 0.535975 0.000000
0.186784 0.535975 0.000000
0.266870 0.535975 0.000000
0.343752 0.535975 0.000000
0.418337 0.535975 0.000000
0.491140 0.535975 0.000000
0.562495 0.535975 0.000000
0.632633 0.535975 0.000000
0.701723 0.535975 0.000000
0.769897 0.535975 0.000000
0.837255 0.535975 0.000000
0.903882 0.535975 0.000000
0.969845 0.535975 0.000000
1.000000 0.535975 0.000000
1.000000 0.535975 0.000000
0.000000 0.600138 0.000000
0.101492 0.600138 0.000000
0.186784 0.600138 0.000000
0.266870 0.600138 0.000000
0.343752 0.600138 0.000000
0.418337 0.600138 0.000000
0.491140 0.600138 0.000000
0.562495 0.600138 0.000000
0.632633 0.600138 0.000000
0.701723 0.600138 0.000000
0.769897 0.600138 0.000000
0.837255 0.600138 0.000000
0.903882 0.600138 0.000000
0.969845 0.600138 0.000000
1.000000 0.600138 0.000000
1.000000 0.600138 0.000000
0.000000 0.664016 0.000000
0.101492 0.664016 0.000000
0.186784 0.664016 0.000000
0.266870 0.664016 0.000000
0.343752 0.664016 0.000000
0.418337 0.664016 0.000000
0.491140 0.664016 0.000000
0.562495 0.664016 0.000000
0.632633 0.664016 0.000000
0.701723 0.664016 0.000000
0.769897 0.664016 0.000000
0.837255 0.664016 0.000000
0.903882 0.664016 0.000000
0.969845 0.664016 0.000000
1.000000 0.664016 0.000000
1.000000 0.664016 0.000000
0.000000 0.727638 0.000000
0.101492 0.727638 0.000000
0.186784 0.727638 0.000000
0.266870 0.727638 0.000000
0.343752 0.727638 0.000000
0.418337 0.727638 0.000000
0.491140 0.727638 0.000000
0.562495 0.727638 0.000000
0.632633 0.727638 0.000000
0.701723 0.727638 0.000000
0.769897 0.727638 0.000000
0.837255 0.727638 0.000000
0.903882 0.727638 0.000000
0.969845 0.727638 0.000000
1.000000 0.727638 0.000000
1.000000 0.727638 0.000000
0.000000 0.791029 0.000000
0.101492 0.791029 0.000000
0.186784 0.791029 0.000000
0.266870 0.791029 0.000000
0.343752 0.791029 0.000000
0.418337 0.791029 0.000000
0.491140 0.791029 0.000000
0.562495 0.791029 0.000000
0.632633 0.791029 0.000000
0.701723 0.791029 0.000000
0.769897 0.791029 0.000000
0.837255 0.791029 0.000000
0.903882 0.791029 0.000000
0.969845 0.791029 0.000000
1.000000 0.791029 0.000000
1.000000 0.791029 0.000000
0.000000 0.854209 0.000000
0.101492 0.854209 0.000000
0.186784 0.854209 0.000000
0.266870 0.854209 0.000000
0.343752 0.854209 0.000000
0.418337 0.854209 0.000000
0.491140 0.854209 0.000000
0.562495 0.854209 0.000000
0.632633 0.854209 0.000000
0.701723 0.854209 0.000000
0.769897 0.854209 0.000000
0.837255 0.854209 0.000000
0.903882 0.854209 0.000000
0.969845 0.854209 0.000000
1.000000 0.854209 0.000000
1.000000 0.854209 0.000000
0.000000 0.917194 0.000000
0.101492 0.917194 0.000000
0.186784 0.917194 0.000000
0.266870 0.917194 0.000000
0.343752 0.917194 0.000000
0.418337 0.917194 0.000000
0.491140 0.917194 0.000000
0.562495 0.917194 0.000000
0.632633 0.917194 0.000000
0.701723 0.917194 0.000000
0.769897 0.917194 0.000000
0.837255 0.917194 0.000000
0.903882 0.917194 0.000000
0.969845 0.917194 0.000000
1.000000 0.917194 0.000000
1.000000 0.917194 0.000000
0.000000 0.980000 0.000000
0.101492 0.980000 0.000000
0.186784 0.980000 0.000000
0.266870 0.980000 0.000000
0.343752 0.980000 0.000000
0.418337 0.980000 0.000000
0.491140 0.980000 0.000000
0.562495 0.980000 0.000000
0.632633 0.980000 0.000000
0.701723 0.980000 0.000000
0.769897 0.980000 0.000000
0.837255 0.980000 0.000000
0.903882 0.980000 0.000000
0.969845 0.980000 0.000000
1.000000 0.980000 0.000000
1.000000 0.980000 0.000000
0.000000 0.000000 0.038786
0.101492 0.000000 0.038786
0.186784 0.000000 0.038786
0.266870 0.000000 0.038786
0.343752 0.000000 0.038786
0.418337 0.000000 0.038786
0.491140 0.000000 0.038786
0.562495 0.000000 0.038786
0.632633 0.000000 0.038786
0.701723 0.000000 0.038786
0.769897 0.000000 0.038786
0.837255 0.000000 0.038786
0.903882 0.000000 0.038786
0.969845 0.000000 0.038786
1.000000 0.000000 0.038786
1.000000 0.000000 0.038786
0.000000 0.072808 0.038786
0.101492 0.072808 0.038786
0.186784 0.072808 0.038786
0.266870 0.072808 0.038786
0.343752 0.072808 0.038786
0.418337 0.072808 0.038786
0.491140 0.072808 0.038786
0.562495 0.072808 0.038786
0.632633 0.072808 0.038786
0.701723 0.072808 0.038786
0.769897 0.072808 0.038786
0.837255 0.072808 0.038786
0.903882 0.072808 0.038786
0.969845 0.072808 0.038786
1.000000 0.072808 0.038786
1.000000 0.072808 0.038786
0.000000 0.141634 0.038786
0.101492 0.141634 0.038786
0.186784 0.141634 0.038786
0.266870 0.141634 0.038786
0.343752 0.141634 0.038786
0.418337 0.141634 0.038786
0.491140 0.141634 0.038786
0.562495 0.141634 0.038786
0.632633 0.141634 0.038786
0.701723 0.141634 0.038786
0.769897 0.141634 0.038786
0.837255 0.141634 0.038786
0.903882 0.141634 0.038786
0.969845 0.141634 0.038786
1.000000 0.141634 0.038786
1.000000 0.141634 0.038786
0.000000 0.209033 0.038786
0.101492 0.209033 0.038786
0.186784 0.209033 0.038786
0.266870 0.209033 0.038786
0.343752 0.209033 0.038786
0.418337 0.209033 0.038786
0.491140 0.209033 0.038786
0.562495 0.209033 0.038786
0.632633 0.209033 0.038786
0.701723 0.209033 0.038786
0.769897 0.209033 0.038786
0.837255 0.209033 0.038786
0.903882 0.209033 0.038786
0.969845 0.209033 0.038786
1.000000 0.209033 0.038786
1.000000 0.209033 0.038786
0.000000 0.275522 0.038786
0.101492 0.275522 0.038786
0.186784 0.275522 0.038786
0.266870 0.275522 0.038786
0.343752 0.275522 0.038786
0.418337 0.275522 0.038786
0.491140 0.275522 0.038786
0.562495 0.275522 0.038786
0.632633 0.275522 0.038786
0.701723 0.275522 0.038786
0.769897 0.275522 0.038786
0.837255 0.275522 0.038786
0.903882 0.275522 0.038786
0.969845 0.275522 0.038786
1.000000 0.275522 0.038786
1.000000 0.275522 0.038786
0.000000 0.341342 0.038786
0.101492 0.341342 0.038786
0.186784 0.341342 0.038786
0.266870 0.341342 0.038786
0.343752 0.341342 0.038786
0.418337 0.341342 0.038786
0.491140 0.341342 0.038786
0.562495 0.341342 0.038786
0.632633 0.341342 0.038786
0.701723 0.341342 0.038786
0.769897 0.341342 0.038786
0.837255 0.341342 0.038786
0.903882 0.341342 0.038786
0.969845 0.341342 0.038786
1.000000 0.341342 0.038786
1.000000 0.341342 0.038786
0.000000 0.406634 0.038786
0.101492 0.406634 0.038786
0.186784 0.406634 0.038786
0.266870 0.406634 0.038786
0.343752 0.406634 0.038786
0.418337 0.406634 0.038786
0.491140 0.406634 0.038786
0.562495 0.406634 0.038786
0.632633 0.406634 0.038786
0.701723 0.406634 0.038786
0.769897 0.406634 0.038786
0.837255 0.406634 0.038786
0.903882 0.406634 0.038786
0.969845 0.406634 0.038786
1.000000 0.406634 0.038786
1.000000 0.406634 0.038786
0.000000 0.471490 0.038786
0.101492 0.471490 0.038786
0.186784 0.471490 0.038786
0.266870 0.471490 0.038786
0.343752 0.471490 0.038786
0.418337 0.471490 0.038786
0.491140 0.471490 0.038786
0.562495 0.471490 0.038786
0.632633 0.471490 0.038786
0.701723 0.471490 0.038786
0.769897 0.471490 0.038786
0.837255 0.471490 0.038786
0.903882 0.471490 0.038786
0.969845 0.471490 0.038786
1.000000 0.471490 0.038786
1.000000 0.471490 0.038786
0.000000 0.535975 0.038786
0.101492 0.535975 0.038786
0.186784 0.535975 0.038786
0.266870 0.535975 0.038786
0.343752 0.535975 0.038786
0.418337 0.535975 0.038786
0.491140 0.535975 0.038786
0.562495 0.535975 0.038786
0.632633 0.535975 0.038786
0.701723 0.535975 0.038786
0.769897 0.535975 0.038786
0.837255 0.535975 0.038786
0.903882 0.535975 0.038786
0.969845 0.535975 0.038786
1.000000 0.535975 0.038786
1.000000 0.535975 0.038786
0.000000 0.600138 0.038786
0.101492 0.600138 0.038786
0.186784 0.600138 0.038786
0.266870 0.600138 0.038786
0.343752 0.600138 0.038786
0.418337 0.600138 0.038786
0.491140 0.600138 0.038786
0.562495 0.600138 0.038786
0.632633 0.600138 0.038786
0.701723 0.600138 0.038786
0.769897 0.600138 0.038786
0.837255 0.600138 0.038786
0.903882 0.600138 0.038786
0.969845 0.600138 0.038786
1.000000 0.600138 0.038786
1.000000 0.600138 0.038786
0.000000 0.664016 0.038786
0.101492 0.664016 0.038786
0.186784 0.664016 0.038786
0.266870 0.664016 0.038786
0.343752 0.664016 0.038786
0.418337 0.664016 0.038786
0.491140 0.664016 0.038786
0.562495 0.664016 0.038786
0.632633 0.664016 0.038786
0.701723 0.664016 0.038786
0.769897 0.664016 0.038786
0.837255 0.664016 0.038786
0.903882 0.664016 0.038786
0.969845 0.664016 0.038786
1.000000 0.664016 0.038786
1.000000 0.664016 0.038786
0.000000 0.727638 0.038786
0.101492 0.727638 0.038786
0.186784 0.727638 0.038786
0.266870 0.727638 0.038786
0.343752 0.727638 0.038786
0.418337 0.727638 0.038786
0.491140 0.727638 0.038786
0.562495 0.727638 0.038786
0.632633 0.727638 0.038786
0.701723 0.727638 0.038786
0.769897 0.727638 0.038786
0.837255 0.727638 0.038786
0.903882 0.727638 0.038786
0.969845 0.727638 0.038786
1.000000 0.727638 0.038786
1.000000 0.727638 0.038786
0.000000 0.791029 0.038786
0.101492 0.791029 0.038786
0.186784 0.791029 0.038786
0.266870 0.791029 0.038786
0.343752 0.791029 0.038786
0.418337 0.791029 0.038786
0.491140 0.791029 0.038786
0.562495 0.791029 0.038786
0.632633 0.791029 0.038786
0.701723 0.791029 0.038786
0.769897 0.791029 0.038786
0.837255 0.791029 0.038786
0.903882 0.791029 0.038786
0.969845 0.791029 0.038786
1.000000 0.791029 0.038786
1.000000 0.791029 0.038786
0.000000 0.854209 0.038786
0.101492 0.854209 0.038786
0.186784 0.854209 0.038786
0.266870 0.854209 0.038786
0.343752 0.854209 0.038786
0.418337 0.854209 0.038786
0.491140 0.854209 0.038786
0.562495 0.854209 0.038786
0.632633 0.854209 0.038786
0.701723 0.854209 0.038786
0.769897 0.854209 0.038786
0.837255 0.854209 0.038786
0.903882 0.854209 0.038786
0.969845 0.854209 0.038786
1.000000 0.854209 0.038786
1.000000 0.854209 0.038786
0.000000 0.917194 0.038786
0.101492 0.917194 0.038786
0.186784 0.917194 0.038786
0.266870 0.917194 0.038786
0.343752 0.917194 0.038786
0.418337 0.917194 0.038786
0.491140 0.917194 0.038786
0.562495 0.917194 0.038786
0.632633 0.917194 0.038786
0.701723 0.917194 0.038786
0.769897 0.917194 0.038786
0.837255 0.917194 0.038786
0.903882 0.917194 0.038786
0.969845 0.917194 0.038786
1.000000 0.917194 0.038786
1.000000 0.917194 0.038786
0.000000 0.980000 0.038786
0.101492 0.980000 0.038786
0.186784 0.980000 0.038786
0.266870 0.980000 0.038786
0.343752 0.980000 0.038786
0.418337 0.980000 0.038786
0.491140 0.980000 0.038786
0.562495 0.980000 0.038786
0.632633 0.980000 0.038786
0.701723 0.980000 0.038786
0.769897 0.980000 0.038786
0.837255 0.980000 0.038786
0.903882 0.980000 0.038786
0.969845 0.980000 0.038786
1.000000 0.980000 0.038786
1.000000 0.980000 0.038786
0.000000 0.000000 0.085477
0.101492 0.000000 0.085477
0.186784 0.000000 0.085477
0.266870 0.000000 0.085477
0.343752 0.000000 0.085477
0.418337 0.000000 0.085477
0.491140 0.000000 0.085477
0.562495 0.000000 0.085477
0.632633 0.000000 0.085477
0.701723 0.000000 0.085477
0.769897 0.000000 0.085477
0.837255 0.000000 0.085477
0.903882 0.000000 0.085477
0.969845 0.000000 0.085477
1.000000 0.000000 0.085477
1.000000 0.000000 0.085477
0.000000 0.072808 0.085477
0.101492 0.072808 0.085477
0.186784 0.072808 0.085477
0.266870 0.072808 0.085477
0.343752 0.072808 0.085477
0.418337 0.072808 0.085477
0.491140 0.072808 0.085477
0.562495 0.072808 0.085477
0.632633 0.072808 0.085477
0.701723 0.072808 0.085477
0.769897 0.072808 0.085477
0.837255 0.072808 0.085477
0.903882 0.072808 0.085477
0.969845 0.072808 0.085477
1.000000 0.072808 0.085477
1.000000 0.072808 0.085477
0.000000 0.141634 0.085477
0.101492 0.141634 0.085477
0.186784 0.141634 0.085477
0.266870 0.141634 0.085477
0.343752 0.141634 0.085477
0.418337 0.141634 0.085477
0.491140 0.141634 0.085477
0.562495 0.141634 0.085477
0.632633 0.141634 0.085477
0.701723 0.141634 0.085477
0.769897 0.141634 0.085477
0.837255 0.141634 0.085477
0.903882 0.141634 0.085477
0.969845 0.141634 0.085477
1.000000 0.141634 0.085477
1.000000 0.141634 0.085477
0.000000 0.209033 0.085477
0.101492 0.209033 0.085477
0.186784 0.209033 0.085477
0.266870 0.209033 0.085477
0.343752 0.209033 0.085477
0.418337 0.209033 0.085477
0.491140 0.209033 0.085477
0.562495 0.209033 0.085477
0.632633 0.209033 0.085477
0.701723 0.209033 0.085477
0.769897 0.209033 0.085477
0.837255 0.209033 0.085477
0.903882 0.209033 0.085477
0.969845 0.209033 0.085477
1.000000 0.209033 0.085477
1.000000 0.209033 0.085477
0.000000 0.275522 0.085477
0.101492 0.275522 0.085477
0.186784 0.275522 0.085477
0.266870 0.275522 0.085477
0.343752 0.275522 0.085477
0.418337 0.275522 0.085477
0.491140 0.275522 0.085477
0.562495 0.275522 0.085477
0.632633 0.275522 0.085477
0.701723 0.275522 0.085477
0.769897 0.275522 0.085477
0.837255 0.275522 0.085477
0.903882 0.275522 0.085477
0.969845 0.275522 0.085477
1.000000 0.275522 0.085477
1.000000 0.275522 0.085477
0.000000 0.341342 0.085477
0.101492 0.341342 0.085477
0.186784 0.341342 0.085477
0.266870 0.341342 0.085477
0.343752 0.341342 0.085477
0.418337 0.341342 0.085477
0.491140 0.341342 0.085477
0.562495 0.341342 0.085477
0.632633 0.341342 0.085477
0.701723 0.341342 0.085477
0.769897 0.341342 0.085477
0.837255 0.341342 0.085477
0.903882 0.341342 0.085477
0.969845 0.341342 0.085477
1.000000 0.341342 0.085477
1.000000 0.341342 0.085477
0.000000 0.406634 0.085477
0.101492 0.406634 0.085477
0.186784 0.406634 0.085477
0.266870 0.406634 0.085477
0.343752 0.406634 0.085477
0.418337 0.406634 0.085477
0.491140 0.406634 0.085477
0.562495 0.406634 0.085477
0.632633 0.406634 0.085477
0.701723 0.406634 0.085477
0.769897 0.406634 0.085477
0.837255 0.406634 0.085477
0.903882 0.406634 0.085477
0.969845 0.406634 0.085477
1.000000 0.406634 0.085477
1.000000 0.406634 0.085477
0.000000 0.471490 0.085477
0.101492 0.471490 0.085477
0.186784 0.471490 0.085477
0.266870 0.471490 0.085477
0.343752 0.471490 0.085477
0.418337 0.471490 0.085477
0.491140 0.471490 0.085477
0.562495 0.471490 0.085477
0.632633 0.471490 0.085477
0.701723 0.471490 0.085477
0.769897 0.471490 0.085477
0.837255 0.471490 0.085477
0.903882 0.471490 0.085477
0.969845 0.471490 0.085477
1.000000 0.471490 0.085477
1.000000 0.471490 0.085477
0.000000 0.535975 0.085477
0.101492 0.535975 0.085477
0.186784 0.535975 0.085477
0.266870 0.535975 0.085477
0.343752 0.535975 0.085477
0.418337 0.535975 0.085477
0.491140 0.535975 0.085477
0.562495 0.535975 0.085477
0.632633 0.535975 0.085477
0.701723 0.535975 0.085477
0.769897 0.535975 0.085477
0.837255 0.535975 0.085477
0.903882 0.535975 0.085477
0.969845 0.535975 0.085477
1.000000 0.535975 0.085477
1.000000 0.535975 0.085477
0.000000 0.600138 0.085477
0.101492 0.600138 0.085477
0.186784 0.600138 0.085477
0.266870 0.600138 0.085477
0.343752 0.600138 0.085477
0.418337 0.600138 0.085477
0.491140 0.600138 0.085477
0.562495 0.600138 0.085477
0.632633 0.600138 0.085477
0.701723 0.600138 0.085477
0.769897 0.600138 0.085477
0.837255 0.600138 0.085477
0.903882 0.600138 0.085477
0.969845 0.600138 0.085477
1.000000 0.600138 0.085477
1.000000 0.600138 0.085477
0.000000 0.664016 0.085477
0.101492 0.664016 0.085477
0.186784 0.664016 0.085477
0.266870 0.664016 0.085477
0.343752 0.664016 0.085477
0.418337 0.664016 0.085477
0.491140 0.664016 0.085477
0.562495 0.664016 0.085477
0.632633 0.664016 0.085477
0.701723 0.664016 0.085477
0.769897 0.664016 0.085477
0.837255 0.664016 0.085477
0.903882 0.664016 0.085477
0.969845 0.664016 0.085477
1.000000 0.664016 0.085477
1.000000 0.664016 0.085477
0.000000 0.727638 0.085477
0.101492 0.727638 0.085477
0.186784 0.727638 0.085477
0.266870 0.727638 0.085477
0.343752 0.727638 0.085477
0.418337 0.727638 0.085477
0.491140 0.727638 0.085477
0.562495 0.727638 0.085477
0.632633 0.727638 0.085477
0.701723 0.727638 0.085477
0.769897 0.727638 0.085477
0.837255 0.727638 0.085477
0.903882 0.727638 0.085477
0.969845 0.727638 0.085477
1.000000 0.727638 0.085477
1.000000 0.727638 0.085477
0.000000 0.791029 0.085477
0.101492 0.791029 0.085477
0.186784 0.791029 0.085477
0.266870 0.791029 0.085477
0.343752 0.791029 0.085477
0.418337 0.791029 0.085477
0.491140 0.791029 0.085477
0.562495 0.791029 0.085477
0.632633 0.791029 0.085477
0.701723 0.791029 0.085477
0.769897 0.791029 0.085477
0.837255 0.791029 0.085477
0.903882 0.791029 0.085477
0.969845 0.791029 0.085477
1.000000 0.791029 0.085477
1.000000 0.791029 0.085477
0.000000 0.854209 0.085477
0.101492 0.854209 0.085477
0.186784 0.854209 0.085477
0.266870 0.854209 0.085477
0.343752 0.854209 0.085477
0.418337 0.854209 0.085477
0.491140 0.854209 0.085477
0.562495 0.854209 0.085477
0.632633 0.854209 0.085477
0.701723 0.854209 0.085477
0.769897 0.854209 0.085477
0.837255 0.854209 0.085477
0.903882 0.854209 0.085477
0.969845 0.854209 0.085477
1.000000 0.854209 0.085477
1.000000 0.854209 0.085477
0.000000 0.917194 0.085477
0.101492 0.917194 0.085477
0.186784 0.917194 0.085477
0.266870 0.917194 0.085477
0.343752 0.917194 0.085477
0.418337 0.917194 0.085477
0.491140 0.917194 0.085477
0.562495 0.917194 0.085477
0.632633 0.917194 0.085477
0.701723 0.917194 0.085477
0.769897 0.917194 0.085477
0.837255 0.917194 0.085477
0.903882 0.917194 0.085477
0.969845 0.917194 0.085477
1.000000 0.917194 0.085477
1.000000 0.917194 0.085477
0.000000 0.980000 0.085477
0.101492 0.980000 0.085477
0.186784 0.980000 0.085477
0.266870 0.980000 0.085477
0.343752 0.980000 0.085477
0.418337 0.980000 0.085477
0.491140 0.980000 0.085477
0.562495 0.980000 0.085477
0.632633 0.980000 0.085477
0.701723 0.980000 0.085477
0.769897 0.980000 0.085477
0.837255 0.980000 0.085477
0.903882 0.980000 0.085477
0.969845 0.980000 0.085477
1.000000 0.980000 0.085477
1.000000 0.980000 0.085477
0.000000 0.000000 0.135704
0.101492 0.000000 0.135704
0.186784 0.000000 0.135704
0.266870 0.000000 0.135704
0.343752 0.000000 0.135704
0.418337 0.000000 0.135704
0.491140 0.000000 0.135704
0.562495 0.000000 0.135704
0.632633 0.000000 0.135704
0.701723 0.000000 0.135704
0.769897 0.000000 0.135704
0.837255 0.000000 0.135704
0.903882 0.000000 0.135704
0.969845 0.000000 0.135704
1.000000 0.000000 0.135704
1.000000 0.000000 0.135704
0.000000 0.072808 0.135704
0.101492 0.072808 0.135704
0.186784 0.072808 0.135704
0.266870 0.072808 0.135704
0.343752 0.072808 0.135704
0.418337 0.072808 0.135704
0.491140 0.072808 0.135704
0.562495 0.072808 0.135704
0.632633 0.072808 0.135704
0.701723 0.072808 0.135704
0.769897 0.072808 0.135704
0.837255 0.072808 0.135704
0.903882 0.072808 0.135704
0.969845 0.072808 0.135704
1.000000 0.072808 0.135704
1.000000 0.072808 0.135704
0.000000 0.141634 0.135704
0.101492 0.141634 0.135704
0.186784 0.141634 0.135704
0.266870 0.141634 0.135704
0.343752 0.141634 0.135704
0.418337 0.141634 0.135704
0.491140 0.141634 0.135704
0.562495 0.141634 0.135704
0.632633 0.141634 0.135704
0.701723 0.141634 0.135704
0.769897 0.141634 0.135704
0.837255 0.141634 0.135704
0.903882 0.141634 0.135704
0.969845 0.141634 0.135704
1.000000 0.141634 0.135704
1.000000 0.141634 0.135704
0.000000 0.209033 0.135704
0.101492 0.209033 0.135704
0.186784 0.209033 0.135704
0.266870 0.209033 0.135704
0.343752 0.209033 0.135704
0.418337 0.209033 0.135704
0.491140 0.209033 0.135704
0.562495 0.209033 0.135704
0.632633 0.209033 0.135704
0.701723 0.209033 0.135704
0.769897 0.209033 0.135704
0.837255 0.209033 0.135704
0.903882 0.209033 0.135704
0.969845 0.209033 0.135704
1.000000 0.209033 0.135704
1.000000 0.209033 0.135704
0.000000 0.275522 0.135704
0.101492 0.275522 0.135704
0.186784 0.275522 0.135704
0.266870 0.275522 0.135704
0.343752 0.275522 0.135704
0.418337 0.275522 0.135704
0.491140 0.275522 0.135704
0.562495 0.275522 0.135704
0.632633 0.275522 0.135704
0.701723 0.275522 0.135704
0.769897 0.275522 0.135704
0.837255 0.275522 0.135704
0.903882 0.275522 0.135704
0.969845 0.275522 0.135704
1.000000 0.275522 0.135704
1.000000 0.275522 0.135704
0.000000 0.341342 0.135704
0.101492 0.341342 0.135704
0.186784 0.341342 0.135704
0.266870 0.341342 0.135704
0.343752 0.341342 0.135704
0.418337 0.341342 0.135704
0.491140 0.341342 0.135704
0.562495 0.341342 0.135704
0.632633 0.341342 0.135704
0.701723 0.341342 0.135704
0.769897 0.341342 0.135704
0.837255 0.341342 0.135704
0.903882 0.341342 0.135704
0.969845 0.341342 0.135704
1.000000 0.341342 0.135704
1.000000 0.341342 0.135704
0.000000 0.406634 0.135704
0.101492 0.406634 0.135704
0.186784 0.406634 0.135704
0.266870 0.406634 0.135704
0.343752 0.406634 0.135704
0.418337 0.406634 0.135704
0.491140 0.406634 0.135704
0.562495 0.406634 0.135704
0.632633 0.406634 0.135704
0.701723 0.406634 0.135704
0.769897 0.406634 0.135704
0.837255 0.406634 0.135704
0.903882 0.406634 0.135704
0.969845 0.406634 0.135704
1.000000 0.406634 0.135704
1.000000 0.406634 0.135704
0.000000 0.471490 0.135704
0.101492 0.471490 0.135704
0.186784 0.471490 0.135704
0.266870 0.471490 0.135704
0.343752 0.471490 0.135704
0.418337 0.471490 0.135704
0.491140 0.471490 0.135704
