entry/src/main/resources/rawfile/filters/DuskTide.cube
TITLE "DuskTide - Original look 1.0 (Standard/sRGB base)"
LUT_3D_SIZE 16
0.008443 0.022405 0.070515
0.060188 0.022244 0.065657
0.109376 0.031521 0.066499
0.169078 0.039582 0.060148
0.229427 0.044339 0.052768
0.283925 0.051896 0.053355
0.338484 0.057481 0.049065
0.394075 0.061005 0.037460
0.447573 0.072121 0.026129
0.498114 0.095546 0.023853
0.550692 0.121295 0.024675
0.607142 0.147729 0.027500
0.668662 0.174751 0.032368
0.736247 0.202603 0.039873
0.806879 0.230064 0.049267
0.873454 0.257824 0.056687
0.002223 0.071887 0.081071
0.037251 0.078389 0.083051
0.113103 0.076017 0.071322
0.191876 0.070474 0.013920
0.245113 0.076754 0.029377
0.290833 0.086309 0.055069
0.340170 0.092502 0.062632
0.393534 0.096012 0.056609
0.449753 0.098634 0.040210
0.502636 0.113043 0.031047
0.555711 0.134773 0.029683
0.612364 0.158971 0.031707
0.674071 0.184594 0.036409
0.741828 0.211506 0.044002
0.811642 0.237953 0.053067
0.877233 0.265235 0.059630
0.011618 0.125080 0.087504
0.054136 0.126922 0.090929
0.098568 0.132346 0.085990
0.162618 0.131015 0.091928
0.243548 0.128539 0.043518
0.311129 0.130319 0.016645
0.367954 0.131298 0.023563
0.416593 0.134717 0.042200
0.465143 0.138432 0.048947
0.516397 0.145187 0.044734
0.569026 0.159314 0.041640
0.625006 0.178814 0.042066
0.686064 0.201719 0.045895
0.753025 0.226917 0.052826
0.820702 0.251834 0.060775
0.884357 0.278264 0.065425
0.035067 0.176563 0.100936
0.072728 0.176810 0.106327
0.109261 0.179857 0.107894
0.152159 0.184999 0.101567
0.211818 0.185108 0.102285
0.287295 0.179973 0.096859
0.366305 0.186957 0.040728
0.430041 0.191929 0.028426
0.489208 0.194595 0.034186
0.544209 0.197290 0.044237
0.596556 0.202930 0.053013
0.650814 0.213966 0.058515
0.709857 0.230619 0.063481
0.773750 0.251315 0.069847
0.837239 0.273193 0.075034
0.897819 0.297447 0.076149
0.069200 0.226610 0.113502
0.097102 0.226595 0.117683
0.130367 0.227859 0.121761
0.165949 0.232160 0.118630
0.209195 0.237460 0.108606
0.268198 0.238020 0.107020
0.336541 0.232724 0.113301
0.417377 0.235843 0.087721
0.492378 0.252317 0.043674
0.554997 0.257339 0.047858
0.618050 0.262326 0.055222
0.680072 0.268243 0.065280
0.740961 0.277034 0.077540
0.801342 0.289547 0.088396
0.860765 0.305093 0.093168
0.918579 0.323912 0.092173
0.108476 0.277380 0.120631
0.129187 0.277394 0.124117
0.157938 0.278084 0.128745
0.191445 0.280766 0.130692
0.227289 0.286372 0.123044
0.271473 0.292453 0.109756
0.330646 0.294290 0.107398
0.396818 0.293508 0.108068
0.477457 0.287130 0.123125
0.553209 0.307538 0.087014
0.624703 0.322979 0.066144
0.690999 0.329378 0.074369
0.757900 0.336202 0.083417
0.822994 0.342934 0.093205
0.884555 0.350784 0.103020
0.942860 0.361583 0.108088
0.152335 0.330750 0.125010
0.168239 0.330890 0.128206
0.192540 0.331523 0.133059
0.223548 0.333522 0.137759
0.257506 0.338019 0.137140
0.294521 0.345299 0.125887
0.340197 0.352939 0.110531
0.400201 0.356995 0.110175
0.467203 0.359684 0.113094
0.542990 0.358546 0.129974
0.624215 0.364011 0.146792
0.697437 0.388086 0.100427
0.764534 0.397804 0.095291
0.829731 0.403033 0.102860
0.894533 0.408243 0.110185
0.958496 0.413664 0.117510
0.200741 0.388688 0.130705
0.213430 0.388995 0.133896
0.234012 0.389790 0.139099
0.262135 0.391706 0.145588
0.294631 0.395644 0.150164
0.329655 0.402458 0.147840
0.368463 0.412031 0.135294
0.416089 0.422139 0.121186
0.477493 0.429457 0.127087
0.546051 0.434905 0.136212
0.616610 0.438393 0.148582
0.704686 0.428421 0.186412
0.769539 0.446421 0.152467
0.834876 0.463386 0.117230
0.898948 0.468819 0.121043
0.962865 0.473102 0.127640
0.253482 0.453407 0.144120
0.263991 0.453902 0.147446
0.281686 0.454965 0.153105
0.307042 0.457115 0.161007
0.337764 0.461032 0.169237
0.371744 0.467538 0.174393
0.408025 0.476938 0.172193
0.447806 0.488177 0.160811
0.495570 0.498648 0.149037
0.555982 0.504782 0.151196
0.624681 0.507337 0.149355
0.694203 0.508899 0.141871
0.781479 0.496627 0.159144
0.853016 0.496598 0.167319
0.906893 0.520519 0.140819
0.967090 0.533712 0.138662
0.308236 0.525152 0.170378
0.317072 0.525622 0.173532
0.332267 0.526562 0.178969
0.354660 0.528304 0.186827
0.382653 0.531221 0.195678
0.414565 0.535732 0.202427
0.449142 0.542201 0.202942
0.486371 0.550583 0.192908
0.528254 0.559875 0.170433
0.578453 0.567692 0.144030
0.638933 0.571585 0.135074
0.706124 0.572389 0.128777
0.772783 0.573078 0.123417
0.846240 0.568909 0.123164
0.936257 0.551293 0.143400
0.983989 0.571899 0.161893
0.364213 0.593290 0.185317
0.371991 0.593521 0.187456
0.385594 0.593997 0.191116
0.406147 0.594918 0.196322
0.432605 0.596543 0.202037
0.463445 0.599227 0.206268
0.497235 0.603357 0.205895
0.533188 0.609190 0.196726
0.571706 0.616560 0.173870
0.614502 0.624296 0.142214
0.663364 0.630665 0.125045
0.720623 0.634217 0.120753
0.784180 0.635335 0.118776
0.847884 0.636671 0.117624
0.910985 0.638818 0.117713
0.989324 0.629157 0.192045
0.428682 0.655889 0.168472
0.435374 0.655987 0.170117
0.447219 0.656204 0.172977
0.465430 0.656668 0.177146
0.489370 0.657573 0.181828
0.517890 0.659205 0.185460
0.549711 0.661914 0.185519
0.583818 0.666027 0.178461
0.619838 0.671659 0.161831
0.657931 0.678422 0.142672
0.698951 0.685708 0.127558
0.745218 0.692367 0.119321
0.799309 0.696894 0.118547
0.860053 0.699348 0.119834
0.921989 0.702137 0.122014
0.984106 0.705969 0.125614
0.497269 0.714618 0.144380
0.502822 0.714712 0.145368
0.512759 0.714911 0.147132
0.528293 0.715303 0.149844
0.549179 0.716020 0.153261
0.574687 0.717259 0.156714
0.603814 0.719293 0.158958
0.635522 0.722433 0.158341
0.668990 0.726978 0.153604
0.703761 0.733065 0.145251
0.740058 0.740537 0.135659
0.779182 0.748815 0.127753
0.823497 0.756795 0.124139
0.875389 0.763158 0.126440
0.934991 0.767999 0.131137
0.993817 0.776128 0.185744
0.564662 0.772250 0.136872
0.569287 0.772388 0.137623
0.577617 0.772659 0.138985
0.590780 0.773156 0.141148
0.608740 0.773986 0.144077
0.631069 0.775309 0.147551
0.657060 0.777341 0.151074
0.685858 0.780360 0.153813
0.716641 0.784695 0.154686
0.748750 0.790625 0.152923
0.781956 0.798257 0.148817
0.816837 0.807481 0.143821
0.855885 0.818314 0.140184
0.902159 0.830128 0.140332
0.958199 0.841524 0.148927
0.996932 0.856944 0.373399
0.625092 0.832761 0.140921
0.629023 0.832971 0.141661
0.636136 0.833374 0.143017
0.647455 0.834078 0.145222
0.663051 0.835186 0.148335
0.682683 0.836839 0.152327
0.705855 0.839229 0.157015
0.731995 0.842624 0.161962
0.760955 0.847644 0.166458
0.792374 0.854744 0.169548
0.826074 0.864178 0.170474
0.862387 0.875896 0.170756
0.902404 0.889045 0.180212
0.946658 0.902619 0.207426
0.987455 0.917633 0.288432
0.998038 0.936403 0.535587
0.678947 0.901295 0.156329
0.682588 0.901705 0.157198
0.689215 0.902477 0.158802
0.699864 0.903788 0.161434
0.714750 0.905769 0.165215
0.733843 0.908575 0.170199
0.757000 0.912348 0.176823
0.784278 0.917065 0.188026
0.815334 0.922762 0.207284
0.849375 0.929386 0.240738
0.884854 0.936904 0.293708
0.914273 0.947657 0.359705
0.933492 0.962739 0.434341
0.949811 0.979606 0.498329
0.973053 0.994747 0.535510
0.999348 0.999636 0.665589
0.004587 0.002370 0.159661
0.066110 0.005704 0.138220
0.114930 0.014777 0.137841
0.174353 0.021622 0.130815
0.234187 0.024192 0.127600
0.289397 0.032289 0.116238
0.343283 0.044151 0.091359
0.397995 0.052047 0.067474
0.454157 0.057004 0.046249
0.507561 0.075313 0.031265
0.559493 0.104954 0.028794
0.615035 0.134662 0.030630
0.675785 0.163951 0.035138
0.742765 0.193364 0.042542
0.812773 0.221877 0.051738
0.878735 0.250667 0.058802
0.001105 0.069449 0.125149
0.044599 0.072885 0.129817
0.107312 0.075055 0.129768
0.170587 0.078826 0.114439
0.227038 0.082992 0.107749
0.282569 0.086501 0.101389
0.338192 0.089521 0.091413
0.394496 0.091638 0.078569
0.452269 0.093002 0.061293
0.509881 0.099286 0.041247
0.563637 0.121186 0.034886
0.619829 0.147361 0.035387
0.680964 0.174665 0.039553
0.748192 0.202838 0.046837
0.817417 0.230181 0.055651
0.882428 0.258392 0.061797
0.004178 0.125223 0.123408
0.047675 0.126203 0.131169
0.098619 0.129992 0.130746
0.168513 0.129480 0.120229
0.246402 0.129283 0.081244
0.297244 0.132222 0.091139
0.345109 0.135108 0.099669
0.396100 0.137396 0.098381
0.451623 0.139161 0.087469
0.510821 0.141321 0.069002
0.570080 0.150298 0.051537
0.628181 0.170089 0.047111
0.690161 0.194020 0.049395
0.757592 0.220001 0.055791
0.825325 0.245424 0.063427
0.888816 0.272428 0.067564
0.016982 0.177837 0.131822
0.064463 0.177219 0.137153
0.108659 0.178678 0.141859
0.151798 0.183856 0.136558
0.215527 0.182050 0.137529
0.297725 0.182922 0.103436
0.373274 0.187070 0.068540
0.432755 0.187405 0.068047
0.484658 0.189195 0.077086
0.534833 0.192321 0.082998
0.588992 0.197295 0.078971
0.647186 0.207537 0.072139
0.708911 0.224959 0.071005
0.774493 0.246586 0.074788
0.838945 0.268957 0.078496
0.899988 0.293637 0.078286
0.054327 0.227922 0.138584
0.089820 0.227310 0.142769
0.128280 0.227676 0.148107
0.165603 0.231494 0.147289
0.208807 0.236935 0.138306
0.268394 0.237362 0.136278
0.340149 0.233826 0.136210
0.424865 0.241526 0.098746
0.498820 0.249379 0.066976
0.561344 0.251852 0.069343
0.621804 0.255624 0.076530
0.679949 0.261804 0.086685
0.738975 0.272252 0.096392
0.799678 0.286078 0.102562
0.860294 0.301926 0.101503
0.918889 0.321116 0.096063
0.099587 0.278481 0.142515
0.123337 0.278204 0.145943
0.155140 0.278414 0.151002
0.190709 0.280588 0.154402
0.226975 0.286086 0.148732
0.271103 0.292294 0.137045
0.330809 0.293991 0.134817
0.399631 0.291403 0.138085
0.480964 0.289723 0.142861
0.559612 0.311000 0.096726
0.630039 0.319438 0.083520
0.696449 0.325081 0.090380
0.762569 0.331429 0.099092
0.825700 0.338364 0.109351
0.885432 0.347036 0.116953
0.943221 0.358498 0.116667
0.146318 0.331747 0.145086
0.163633 0.331729 0.148176
0.189697 0.332090 0.153105
0.222329 0.333731 0.158460
0.257190 0.337962 0.159308
0.294267 0.345257 0.150073
0.339901 0.352998 0.136841
0.400406 0.356905 0.136656
0.467545 0.359546 0.139351
0.546892 0.356722 0.157384
0.625128 0.369094 0.156658
0.701474 0.388558 0.111079
0.768655 0.394915 0.109894
0.833993 0.399671 0.116141
0.898727 0.404469 0.122376
0.962022 0.409746 0.128600
0.196341 0.389626 0.149627
0.209767 0.389839 0.152671
0.231397 0.390469 0.157762
0.260674 0.392147 0.164414
0.294076 0.395839 0.169721
0.329516 0.402521 0.168787
0.368280 0.412148 0.158177
0.415877 0.422335 0.146086
0.477742 0.429501 0.151536
0.546261 0.434920 0.159661
0.618769 0.437042 0.172872
0.704333 0.429764 0.204270
0.770090 0.449903 0.160818
0.838080 0.462175 0.128623
0.902416 0.466335 0.132834
0.966464 0.470259 0.138389
0.250073 0.454309 0.161786
0.261009 0.454744 0.164948
0.279360 0.455700 0.170400
0.305521 0.457688 0.178191
0.337000 0.461414 0.186620
0.371503 0.467756 0.192434
0.407946 0.477064 0.191308
0.447620 0.488327 0.181311
0.495367 0.498806 0.170801
0.556123 0.504782 0.172794
0.624878 0.507293 0.171029
0.694490 0.508805 0.163799
0.784326 0.494550 0.184835
0.850765 0.500261 0.182152
0.907945 0.522152 0.151071
0.969924 0.531964 0.149071
0.305407 0.525954 0.186160
0.314510 0.526380 0.189172
0.330136 0.527240 0.194406
0.353096 0.528857 0.202074
0.381694 0.531614 0.210874
0.414123 0.535956 0.217882
0.449017 0.542296 0.219084
0.486325 0.550632 0.210240
0.528132 0.559959 0.189692
0.578360 0.567795 0.165462
0.639448 0.571536 0.153639
0.707512 0.572017 0.142833
0.774936 0.572293 0.134058
0.852049 0.565499 0.134673
0.937623 0.551111 0.155515
0.983001 0.574644 0.174401
0.361920 0.593943 0.199788
0.369876 0.594143 0.201844
0.383775 0.594564 0.205386
0.404736 0.595398 0.210488
0.431650 0.596910 0.216217
0.462916 0.599465 0.220715
0.497028 0.603478 0.221001
0.533147 0.609238 0.213059
0.571671 0.616600 0.192399
0.614571 0.624465 0.158459
0.663990 0.630791 0.135343
0.721937 0.634050 0.129102
0.786081 0.634839 0.125745
0.850192 0.635876 0.123540
0.914372 0.637255 0.123052
0.991056 0.627978 0.210588
0.426779 0.656468 0.183730
0.433600 0.656541 0.185350
0.445653 0.656715 0.188152
0.464151 0.657116 0.192219
0.488424 0.657939 0.196864
0.517280 0.659474 0.200683
0.549391 0.662084 0.201327
0.583693 0.666126 0.195294
0.619798 0.671791 0.178108
0.658099 0.678658 0.153786
0.699436 0.685915 0.135104
0.746081 0.692441 0.125086
0.800670 0.696721 0.123654
0.861846 0.698913 0.124466
0.924069 0.701479 0.126285
0.986409 0.705101 0.129642
0.494635 0.715579 0.153746
0.500327 0.715644 0.154861
0.510501 0.715788 0.156857
0.526381 0.716098 0.159937
0.547678 0.716707 0.163833
0.573607 0.717828 0.167765
0.603112 0.719753 0.170252
0.635135 0.722813 0.169286
0.668879 0.727306 0.163382
0.703911 0.733351 0.153297
0.740442 0.740775 0.141957
0.779782 0.748990 0.132710
0.824358 0.756860 0.128340
0.876616 0.763036 0.130434
0.936586 0.767680 0.135026
0.993852 0.776265 0.203220
0.562208 0.773264 0.142408
0.566927 0.773381 0.143215
0.575424 0.773616 0.144681
0.588839 0.774055 0.147015
0.607120 0.774807 0.150185
0.629814 0.776033 0.153958
0.656179 0.777958 0.157788
0.685330 0.780870 0.160736
0.716421 0.785108 0.161565
0.748787 0.790962 0.159392
0.782198 0.798535 0.154562
0.817248 0.807718 0.148736
0.856475 0.818519 0.144400
0.902981 0.830265 0.144161
0.959327 0.841515 0.153036
0.996952 0.857095 0.382071
0.622936 0.833717 0.145119
0.626934 0.833913 0.145900
0.634166 0.834290 0.147336
0.645667 0.834951 0.149672
0.661504 0.836000 0.152980
0.681417 0.837579 0.157235
0.704893 0.839882 0.162251
0.731346 0.843190 0.167553
0.760607 0.848132 0.172352
0.792286 0.855163 0.175563
0.826203 0.864544 0.176321
0.862695 0.876214 0.176370
0.902828 0.889304 0.186276
0.947055 0.902812 0.215353
0.987351 0.917846 0.298791
0.998035 0.936582 0.540058
0.677006 0.902243 0.160230
0.680700 0.902642 0.161141
0.687422 0.903395 0.162823
0.698219 0.904674 0.165589
0.713303 0.906609 0.169570
0.732634 0.909357 0.174830
0.756074 0.913050 0.181924
0.783669 0.917657 0.194031
0.815042 0.923208 0.214984
0.849344 0.929621 0.251845
0.884897 0.937028 0.305013
0.914130 0.947813 0.369250
0.933239 0.962905 0.442159
0.949581 0.979745 0.504688
0.972959 0.994825 0.540759
0.999362 0.999639 0.669230
0.007419 0.002081 0.186582
0.061682 0.003521 0.183332
0.120766 0.006824 0.180693
0.176086 0.011504 0.183543
0.233634 0.016003 0.181418
0.288148 0.021657 0.180710
0.342332 0.026759 0.179420
0.396785 0.031950 0.177958
0.453732 0.040150 0.159735
0.512613 0.051485 0.127156
0.573830 0.064489 0.083314
0.630989 0.098823 0.054886
0.690740 0.135298 0.044445
0.755052 0.173727 0.048885
0.823413 0.205929 0.057033
0.888294 0.236916 0.063197
0.002043 0.059540 0.189608
0.044706 0.063033 0.194346
0.113493 0.066434 0.182033
0.171873 0.068570 0.182401
0.229233 0.070176 0.181913
0.285613 0.071090 0.180799
0.342120 0.070800 0.177662
0.399636 0.072049 0.161042
0.457568 0.075905 0.133782
0.516887 0.081912 0.099106
0.576381 0.094404 0.065819
0.634125 0.120411 0.049930
0.693807 0.153682 0.047588
0.759659 0.185840 0.053135
0.827825 0.215178 0.061190
0.891831 0.245299 0.066299
0.002824 0.122454 0.175935
0.024039 0.125619 0.187851
0.099453 0.126621 0.181142
0.161526 0.126719 0.181414
0.222542 0.128047 0.172167
0.278879 0.129343 0.163510
0.336218 0.130522 0.151497
0.394351 0.131694 0.136177
0.453485 0.133137 0.118446
0.514276 0.135274 0.098234
0.577156 0.139362 0.075138
0.639000 0.153720 0.059936
0.701368 0.178008 0.058166
0.768299 0.205395 0.062930
0.835205 0.232091 0.069500
0.897885 0.260494 0.072277
0.006353 0.177836 0.173280
0.026561 0.180662 0.178590
0.101567 0.178577 0.183607
0.151909 0.181652 0.183096
0.220131 0.182686 0.173077
0.301700 0.186620 0.140286
0.355673 0.187549 0.140950
0.405184 0.187862 0.143118
0.457387 0.189003 0.139018
0.515144 0.191287 0.127941
0.577506 0.195347 0.112826
0.643612 0.202424 0.095841
0.711453 0.216586 0.084904
0.779748 0.237459 0.084244
0.845281 0.259727 0.085451
0.906695 0.284716 0.082989
0.022397 0.230163 0.175543
0.063315 0.230195 0.177807
0.120118 0.228588 0.183429
0.165126 0.230395 0.187186
0.208453 0.235902 0.180057
0.271924 0.234904 0.178661
0.355073 0.237605 0.159227
0.434826 0.248153 0.128022
0.496496 0.249402 0.126453
0.552818 0.251136 0.130571
0.607270 0.254877 0.134869
0.664419 0.261906 0.136108
0.727468 0.272913 0.134320
0.793304 0.285574 0.129446
0.859227 0.298286 0.115848
0.920486 0.316245 0.102152
0.074488 0.281232 0.174783
0.107218 0.280475 0.177649
0.147378 0.279691 0.182875
0.188769 0.280560 0.188590
0.226708 0.285508 0.186343
0.270677 0.291931 0.176354
0.331141 0.293449 0.174199
0.401679 0.291786 0.176372
0.486463 0.300013 0.162047
0.565541 0.314741 0.131343
0.631645 0.318513 0.132089
0.697137 0.323580 0.137099
0.759912 0.330366 0.145782
0.819494 0.338653 0.153735
0.880214 0.346730 0.149435
0.941614 0.355525 0.132233
0.131920 0.334001 0.175228
0.152680 0.333689 0.178053
0.182917 0.333509 0.182972
0.219421 0.334368 0.189335
0.256593 0.337918 0.192637
0.294000 0.345128 0.186245
0.339496 0.353063 0.175158
0.400789 0.356746 0.175165
0.469693 0.358354 0.178912
0.553546 0.355715 0.196261
0.629392 0.377668 0.171640
0.704367 0.389241 0.146660
0.770949 0.393454 0.149223
0.836952 0.397312 0.151820
0.901566 0.401329 0.154657
0.963265 0.406266 0.155657
0.186680 0.391600 0.178565
0.201729 0.391637 0.181391
0.225645 0.391946 0.186325
0.257445 0.393139 0.193289
0.292881 0.396295 0.199864
0.329329 0.402639 0.201157
0.368067 0.412328 0.193075
0.415569 0.422671 0.183137
0.478196 0.429586 0.188197
0.546751 0.434880 0.195396
0.622815 0.434531 0.211153
0.701871 0.435365 0.225386
0.772071 0.454794 0.177809
0.840654 0.461060 0.160802
0.905713 0.464005 0.162640
0.970443 0.467115 0.165030
0.242938 0.456126 0.189424
0.254765 0.456448 0.192369
0.274477 0.457200 0.197566
0.302315 0.458869 0.205281
0.335388 0.462204 0.214162
0.371024 0.468189 0.221166
0.407862 0.477284 0.221761
0.447351 0.488576 0.213614
0.495046 0.499079 0.204549
0.556434 0.504763 0.206319
0.625235 0.507218 0.204640
0.695951 0.508002 0.199194
0.786073 0.493355 0.222266
0.847246 0.507269 0.204947
0.909018 0.524742 0.176005
0.973094 0.530027 0.174414
0.299665 0.527533 0.211576
0.309310 0.527875 0.214394
0.325803 0.528584 0.219360
0.349909 0.529963 0.226799
0.379741 0.532405 0.235603
0.413233 0.536410 0.243129
0.448795 0.542481 0.245497
0.486293 0.550711 0.238440
0.527956 0.560096 0.220400
0.578163 0.567962 0.199501
0.639726 0.571519 0.189022
0.708486 0.571768 0.176134
0.777490 0.571370 0.160232
0.860663 0.560095 0.165870
0.936619 0.553638 0.183559
0.981138 0.579695 0.197648
0.357362 0.595217 0.223464
0.365670 0.595360 0.225401
0.380151 0.595677 0.228778
0.401918 0.596347 0.233746
0.429738 0.597639 0.239537
0.461856 0.599944 0.244501
0.496622 0.603723 0.245853
0.533091 0.609327 0.239765
0.571644 0.616664 0.222137
0.614457 0.624625 0.191842
0.664670 0.630995 0.160419
0.723932 0.633797 0.148464
0.789231 0.634008 0.141234
0.854181 0.634488 0.136273
0.922253 0.633212 0.135200
0.991340 0.627564 0.249034
0.423109 0.657568 0.208643
0.430155 0.657601 0.210153
0.442591 0.657703 0.212794
0.461638 0.657988 0.216704
0.486561 0.658654 0.221334
0.516079 0.660002 0.225478
0.548765 0.662420 0.227028
0.583468 0.666302 0.222797
0.619749 0.671898 0.208386
0.658232 0.678930 0.180235
0.700172 0.686262 0.152019
0.747556 0.692575 0.137418
0.803072 0.696410 0.134365
0.865047 0.698126 0.134042
0.927808 0.700283 0.135014
0.989614 0.703903 0.145560
0.490411 0.717052 0.174642
0.496344 0.717063 0.175985
0.506924 0.717111 0.178380
0.523383 0.717277 0.182059
0.545356 0.717704 0.186699
0.571965 0.718627 0.191421
0.602070 0.720367 0.194592
0.634564 0.723294 0.193718
0.668676 0.727751 0.185754
0.704112 0.733801 0.171228
0.741074 0.741187 0.155457
0.780827 0.749305 0.143003
0.825894 0.756981 0.136902
0.878831 0.762810 0.138512
0.939471 0.767099 0.142854
0.993914 0.776519 0.231296
0.557662 0.775085 0.153935
0.562563 0.775164 0.154868
0.571377 0.775329 0.156570
0.585270 0.775658 0.159296
0.604157 0.776259 0.163024
0.627530 0.777301 0.167498
0.654581 0.779025 0.172060
0.684364 0.781740 0.175520
0.715997 0.785812 0.176255
0.748814 0.791541 0.173105
0.782595 0.799025 0.166573
0.817960 0.808146 0.158834
0.857523 0.818894 0.152924
0.904459 0.830516 0.151825
0.961359 0.841500 0.161289
0.996989 0.857376 0.397350
0.618874 0.835475 0.153549
0.623000 0.835643 0.154419
0.630458 0.835969 0.156023
0.642309 0.836550 0.158643
0.658602 0.837486 0.162374
0.679050 0.838922 0.167207
0.703096 0.841059 0.172949
0.730137 0.844202 0.179049
0.759951 0.848996 0.184539
0.792100 0.855902 0.188031
0.826407 0.865193 0.188408
0.863221 0.876780 0.187941
0.903543 0.889765 0.198840
0.947614 0.903155 0.232201
0.987080 0.918241 0.317733
0.998028 0.936912 0.548150
0.673357 0.903988 0.167963
0.677153 0.904367 0.168962
0.684056 0.905081 0.170810
0.695136 0.906299 0.173857
0.710596 0.908147 0.178260
0.730381 0.910780 0.184106
0.754360 0.914315 0.192242
0.782564 0.918702 0.206350
0.814546 0.923945 0.231187
0.849318 0.929951 0.274036
0.884975 0.937260 0.324545
0.913862 0.948102 0.386042
0.932779 0.963208 0.456080
0.949169 0.979998 0.516093
0.972797 0.994966 0.550209
0.999387 0.999644 0.675841
0.011965 0.002696 0.225445
0.057610 0.003709 0.232910
0.121349 0.005646 0.226255
0.180698 0.007990 0.222906
0.231935 0.012151 0.232710
0.285346 0.017471 0.235270
0.340039 0.023112 0.232629
0.395040 0.029072 0.229530
0.451077 0.035766 0.226943
0.509029 0.043733 0.225472
0.569985 0.053073 0.223341
0.635690 0.065394 0.208013
0.706202 0.081796 0.178302
0.781359 0.103249 0.135978
0.849892 0.145930 0.106262
0.912482 0.188057 0.082335
0.010592 0.040571 0.258716
0.049628 0.051742 0.252688
0.115908 0.056127 0.241433
0.178928 0.057702 0.231837
0.230362 0.061006 0.237507
0.285580 0.062768 0.236769
0.342107 0.062958 0.233112
0.399451 0.061318 0.229233
0.457584 0.059857 0.225599
0.516539 0.062234 0.222667
0.578383 0.069305 0.211373
0.643972 0.081403 0.187610
0.713752 0.098631 0.150925
0.784690 0.128657 0.114349
0.850746 0.168902 0.094954
0.911338 0.210959 0.080741
0.004109 0.118406 0.232512
0.042401 0.117352 0.245502
0.100350 0.120762 0.241085
0.166199 0.120235 0.235095
0.222403 0.120615 0.236963
0.280547 0.120054 0.234726
0.338796 0.118916 0.231298
0.397565 0.117176 0.227440
0.457618 0.115445 0.220822
0.519625 0.115793 0.205029
0.583524 0.119847 0.181005
0.649824 0.129210 0.148875
0.718090 0.146086 0.116223
0.786148 0.174821 0.098151
0.852526 0.204124 0.088426
0.913022 0.238177 0.083029
0.005510 0.174027 0.233926
0.013443 0.177067 0.243918
0.080451 0.178709 0.241814
0.152389 0.179009 0.234122
0.213370 0.178703 0.234012
0.275663 0.179337 0.225045
0.333716 0.179178 0.216185
0.393802 0.179821 0.203586
0.454862 0.181110 0.189033
0.517519 0.183894 0.170751
0.582133 0.188606 0.151954
0.649283 0.196143 0.134122
0.719464 0.207837 0.118767
0.790508 0.224555 0.109192
0.857833 0.243723 0.102149
0.919810 0.267851 0.093639
0.009714 0.229850 0.224456
0.018266 0.233015 0.227359
0.081983 0.233527 0.229656
0.158396 0.230814 0.232833
0.208756 0.233985 0.231430
0.275731 0.236315 0.223836
0.360365 0.245164 0.197529
0.417390 0.245965 0.194943
0.468761 0.245658 0.194359
0.523511 0.247463 0.189550
0.584725 0.252022 0.180858
0.651194 0.259780 0.171689
0.721454 0.271201 0.164503
0.791616 0.283585 0.157336
0.861962 0.293237 0.138651
0.928143 0.306057 0.113581
0.029200 0.284375 0.220644
0.058842 0.285427 0.220794
0.121420 0.283934 0.223325
0.180796 0.282110 0.229458
0.226500 0.284666 0.233137
0.270417 0.291224 0.225557
0.334244 0.291763 0.224301
0.417918 0.295614 0.216671
0.499578 0.312343 0.191689
0.563535 0.315323 0.191128
0.623944 0.318711 0.195063
0.682673 0.324801 0.201223
0.741943 0.333600 0.205950
0.804169 0.342493 0.202377
0.869903 0.349450 0.185746
0.937897 0.354157 0.153255
0.094270 0.338645 0.215591
0.124417 0.338026 0.217405
0.165343 0.337018 0.221316
0.211404 0.336391 0.228029
0.254937 0.338232 0.234739
0.293990 0.344823 0.232716
0.339154 0.353073 0.223572
0.401435 0.356501 0.223754
0.473293 0.357654 0.228607
0.557181 0.366271 0.229090
0.636559 0.384925 0.202896
0.704294 0.389907 0.203237
0.769988 0.394079 0.206274
0.833440 0.398493 0.209717
0.894161 0.403495 0.210221
0.955417 0.408124 0.198972
0.165122 0.395509 0.216928
0.183838 0.395276 0.219278
0.212741 0.395061 0.223695
0.250008 0.395376 0.230747
0.290036 0.397424 0.239000
0.329045 0.402907 0.243648
