entry/src/main/resources/rawfile/filters/DuskTide.cube
TITLE "DuskTide - Original look 1.0 (Standard/sRGB base)"
LUT_3D_SIZE 6
0.008443 0.022405 0.070515
0.169078 0.039582 0.060148
0.338484 0.057481 0.049065
0.498114 0.095546 0.023853
0.668662 0.174751 0.032368
0.873454 0.257824 0.056687
0.035067 0.176563 0.100936
0.152159 0.184999 0.101567
0.366305 0.186957 0.040728
0.544209 0.197290 0.044237
0.709857 0.230619 0.063481
0.897819 0.297447 0.076149
0.152335 0.330750 0.125010
0.223548 0.333522 0.137759
0.340197 0.352939 0.110531
0.542990 0.358546 0.129974
0.764534 0.397804 0.095291
0.958496 0.413664 0.117510
0.308236 0.525152 0.170378
0.354660 0.528304 0.186827
0.449142 0.542201 0.202942
0.578453 0.567692 0.144030
0.772783 0.573078 0.123417
0.983989 0.571899 0.161893
0.497269 0.714618 0.144380
0.528293 0.715303 0.149844
0.603814 0.719293 0.158958
0.703761 0.733065 0.145251
0.823497 0.756795 0.124139
0.993817 0.776128 0.185744
0.678947 0.901295 0.156329
0.699864 0.903788 0.161434
0.757000 0.912348 0.176823
0.849375 0.929386 0.240738
0.933492 0.962739 0.434341
0.999348 0.999636 0.665589
0.011965 0.002696 0.225445
0.180698 0.007990 0.222906
0.340039 0.023112 0.232629
0.509029 0.043733 0.225472
0.706202 0.081796 0.178302
0.912482 0.188057 0.082335
0.005510 0.174027 0.233926
0.152389 0.179009 0.234122
0.333716 0.179178 0.216185
0.517519 0.183894 0.170751
0.719464 0.207837 0.118767
0.919810 0.267851 0.093639
0.094270 0.338645 0.215591
0.211404 0.336391 0.228029
0.339154 0.353073 0.223572
0.557181 0.366271 0.229090
0.769988 0.394079 0.206274
0.955417 0.408124 0.198972
0.288545 0.530408 0.246574
0.343674 0.532041 0.260896
0.448405 0.542833 0.282277
0.577924 0.568207 0.244483
0.778586 0.570981 0.210970
0.978518 0.586884 0.235660
0.484587 0.718932 0.212150
0.519150 0.718813 0.219703
0.600581 0.721140 0.233583
0.704169 0.734209 0.211313
0.828204 0.757183 0.153928
0.994016 0.776947 0.270029
0.667231 0.906818 0.182495
0.689994 0.908914 0.189505
0.751612 0.916264 0.212428
0.849288 0.930453 0.307513
0.932041 0.963702 0.477720
0.999427 0.999654 0.686426
0.040370 0.008236 0.371909
0.168317 0.011636 0.385386
0.344005 0.018841 0.365272
0.506829 0.041055 0.386823
0.706152 0.076678 0.396111
0.926726 0.125044 0.418046
0.037960 0.147398 0.427592
0.154861 0.162118 0.413816
0.348456 0.159918 0.383070
0.523204 0.164837 0.392137
0.729639 0.181585 0.402099
0.944887 0.204016 0.411668
0.026776 0.337672 0.408656
0.134579 0.344947 0.414469
0.339655 0.352693 0.393405
0.540109 0.365924 0.393762
0.747184 0.386923 0.380114
0.958213 0.397127 0.305224
0.156576 0.551624 0.395871
0.267097 0.550580 0.399323
0.437885 0.548615 0.418968
0.578097 0.569102 0.409415
0.788746 0.572123 0.403071
0.975417 0.595188 0.403901
0.439027 0.731663 0.356714
0.484295 0.730015 0.360967
0.586777 0.727597 0.375214
0.703931 0.735511 0.382149
0.830200 0.759067 0.332526
0.994578 0.779671 0.421293
0.636130 0.919457 0.320196
0.664298 0.920410 0.329978
0.738766 0.924239 0.363097
0.848699 0.933739 0.445126
0.928145 0.966493 0.582478
0.999579 0.999650 0.743286
0.077967 0.015909 0.520731
0.163364 0.021292 0.538852
0.344468 0.025515 0.522139
0.524793 0.042375 0.512962
0.715405 0.081923 0.568441
0.930897 0.125935 0.592443
0.094707 0.087922 0.616071
0.168804 0.128172 0.596321
0.350581 0.140415 0.569376
0.548399 0.144071 0.540763
0.737982 0.179817 0.586483
0.949886 0.199248 0.591246
0.052183 0.331036 0.591293
0.192252 0.330049 0.598610
0.346528 0.351384 0.577615
0.562059 0.361787 0.568566
0.753822 0.379827 0.595725
0.965414 0.381074 0.576004
0.096298 0.550760 0.635749
0.185219 0.555953 0.638037
0.381614 0.562425 0.620197
0.581661 0.569856 0.588114
0.784571 0.571827 0.564225
0.984134 0.576280 0.524113
0.288945 0.757999 0.545591
0.360798 0.756631 0.542101
0.514808 0.751302 0.535197
0.694344 0.743025 0.545713
0.829254 0.762299 0.535350
0.994561 0.786471 0.623418
0.557196 0.943989 0.503723
0.596235 0.943864 0.508935
0.699857 0.942614 0.533853
0.840553 0.943285 0.599128
0.922317 0.971573 0.721889
0.999762 0.999580 0.829601
0.117829 0.024101 0.671547
0.179257 0.032568 0.688868
0.334073 0.045118 0.701617
0.543013 0.055312 0.676616
0.747774 0.088406 0.705604
0.942547 0.129622 0.752559
0.139912 0.063691 0.760533
0.195954 0.086254 0.766866
0.345979 0.126780 0.757764
0.566564 0.129727 0.727635
0.772201 0.161044 0.733256
0.961837 0.192247 0.759479
0.163019 0.304737 0.799251
0.232322 0.316998 0.789639
0.359217 0.351436 0.771321
0.572109 0.362607 0.767045
0.785345 0.369849 0.741457
0.973271 0.380553 0.750948
0.125125 0.555856 0.798168
0.233458 0.555622 0.804345
0.422933 0.553603 0.804021
0.589184 0.570524 0.769834
0.806469 0.566607 0.731656
0.986506 0.577229 0.734097
0.260544 0.753689 0.807775
0.328856 0.754387 0.802097
0.470614 0.756423 0.785628
0.644454 0.760429 0.757054
0.829708 0.766973 0.729834
0.996486 0.798149 0.758314
0.416007 0.974144 0.730863
0.471950 0.974146 0.732189
0.610002 0.972795 0.738013
0.781651 0.971375 0.769734
0.908780 0.982854 0.858686
0.999923 0.999553 0.924680
0.161183 0.040769 0.832412
0.210617 0.049908 0.849131
0.342154 0.069902 0.877364
0.545586 0.084241 0.890800
0.774412 0.103555 0.876229
0.974060 0.131745 0.874208
0.183676 0.072436 0.910305
0.230229 0.086598 0.922942
0.356010 0.126261 0.940192
0.562303 0.150128 0.946428
0.795763 0.157337 0.908783
0.983851 0.216636 0.877668
0.223953 0.305801 0.971146
0.271368 0.320028 0.969588
0.379306 0.355514 0.965556
0.567891 0.373327 0.964198
0.806824 0.364314 0.918652
0.988004 0.400643 0.868645
0.292880 0.539158 0.981851
0.349540 0.540376 0.981269
0.457894 0.550116 0.976448
0.599801 0.571908 0.950975
0.817116 0.566946 0.918166
0.993093 0.594685 0.864700
0.319348 0.756384 0.952226
0.371565 0.758046 0.946608
0.501982 0.758806 0.938393
0.683871 0.755113 0.929817
0.834172 0.774301 0.923784
0.998127 0.820957 0.901449
0.514119 0.961659 0.995121
0.544724 0.964593 0.994579
0.634650 0.970902 0.993389
0.782071 0.975401 0.998159
0.918547 0.986615 0.999721
1.000000 1.000000 1.000000
