entry/src/main/resources/rawfile/filters/Fieldnote.cube
TITLE "Fieldnote - Original look 1.0 (Standard/sRGB base)"
LUT_3D_SIZE 6
0.038416 0.081893 0.107214
0.168881 0.068139 0.063129
0.347011 0.082749 0.047719
0.543076 0.161639 0.070733
0.735754 0.266215 0.123514
0.906925 0.391004 0.236741
0.027930 0.186969 0.077429
0.160334 0.196913 0.090076
0.379340 0.200917 0.036536
0.597538 0.237304 0.073607
0.769812 0.323315 0.150068
0.931022 0.429135 0.247570
0.219708 0.378793 0.069679
0.294447 0.383390 0.092884
0.425582 0.404170 0.132435
0.617812 0.426405 0.098436
0.839422 0.475982 0.204561
0.986001 0.548784 0.349902
0.419805 0.585775 0.140081
0.456793 0.590556 0.141032
0.548839 0.604679 0.152454
0.674662 0.631403 0.213090
0.852871 0.658598 0.187417
0.994980 0.714949 0.418519
0.602170 0.795305 0.290696
0.625340 0.799275 0.290351
0.688831 0.810789 0.293881
0.787412 0.832011 0.314077
0.909264 0.863323 0.358797
0.998788 0.896883 0.618607
0.766634 0.992170 0.471997
0.781069 0.993663 0.472673
0.822429 0.996275 0.491373
0.885559 0.998334 0.555126
0.953989 0.999453 0.658867
0.999936 0.995974 0.859619
0.001601 0.077860 0.204625
0.154724 0.071411 0.205088
0.343986 0.082768 0.218289
0.552096 0.153256 0.206312
0.743602 0.261079 0.220723
0.913355 0.387795 0.294988
0.005426 0.187414 0.214487
0.156596 0.197073 0.221391
0.367034 0.212048 0.209172
0.586397 0.239444 0.187062
0.770805 0.316288 0.214314
0.935553 0.424960 0.293720
0.193310 0.386056 0.203798
0.283891 0.388622 0.212324
0.424963 0.407017 0.229196
0.629926 0.432416 0.231620
0.848958 0.469908 0.283127
0.985830 0.541297 0.368026
0.399193 0.593545 0.214253
0.441706 0.597262 0.217070
0.544992 0.607343 0.250407
0.672547 0.633256 0.296877
0.856353 0.658196 0.269603
0.995758 0.719097 0.479616
0.590246 0.800608 0.326550
0.614838 0.804317 0.326146
0.681978 0.814996 0.329491
0.784907 0.834955 0.346905
0.909683 0.864768 0.391017
0.998915 0.897018 0.642199
0.760149 0.994517 0.497424
0.776034 0.995360 0.501990
0.819227 0.997023 0.525000
0.883531 0.998543 0.584193
0.952966 0.999492 0.677200
0.999941 0.996007 0.866606
0.001492 0.102801 0.288553
0.182319 0.038439 0.369927
0.335712 0.119513 0.367258
0.540490 0.186778 0.387860
0.744411 0.271272 0.399124
0.921874 0.387553 0.433991
0.009359 0.196489 0.358678
0.173904 0.194128 0.394544
0.357933 0.231626 0.376464
0.577538 0.256509 0.394289
0.776915 0.318035 0.398912
0.946892 0.421888 0.430622
0.102690 0.400505 0.410315
0.219806 0.406586 0.409388
0.423514 0.414166 0.396880
0.632737 0.426824 0.386832
0.831267 0.455882 0.390646
0.986822 0.533651 0.435746
0.339576 0.610969 0.388616
0.400904 0.611852 0.393221
0.531126 0.616396 0.410959
0.670624 0.638835 0.434722
0.864996 0.663549 0.445889
0.996840 0.722274 0.586568
0.548558 0.816491 0.425305
0.577592 0.819629 0.424136
0.657308 0.827882 0.426376
0.777930 0.841288 0.463590
0.906018 0.868077 0.514697
0.999119 0.897660 0.704324
0.749920 0.997162 0.589471
0.766884 0.997474 0.595305
0.811859 0.998175 0.616412
0.878165 0.998959 0.660448
0.950133 0.999569 0.727366
0.999939 0.996172 0.886220
0.003787 0.152272 0.419577
0.177536 0.103481 0.513917
0.370421 0.152206 0.497268
0.543053 0.236421 0.516219
0.730631 0.318353 0.552258
0.912942 0.415425 0.596464
0.016191 0.220810 0.519082
0.192553 0.212130 0.557373
0.406743 0.230906 0.535505
0.575276 0.293122 0.537736
0.757717 0.359650 0.570278
0.938530 0.444925 0.603835
0.186952 0.406475 0.565663
0.265166 0.413199 0.567198
0.444653 0.417822 0.579542
0.615408 0.451186 0.567402
0.814236 0.477065 0.602025
0.987904 0.542153 0.617762
0.267591 0.625247 0.618584
0.339008 0.627611 0.617958
0.471334 0.638211 0.620363
0.668501 0.647375 0.610648
0.874266 0.660823 0.602315
0.996877 0.725733 0.668997
0.446821 0.843683 0.597934
0.490954 0.845172 0.598567
0.610041 0.846359 0.607752
0.762307 0.852321 0.631689
0.902754 0.873755 0.662025
0.999251 0.899585 0.795284
0.740549 0.998597 0.728325
0.757431 0.998722 0.732892
0.802552 0.999011 0.746985
0.871055 0.999125 0.771378
0.952087 0.992083 0.851880
0.995787 0.994142 0.949725
0.017190 0.212638 0.588839
0.190429 0.204794 0.626004
0.399045 0.222619 0.626041
0.574512 0.284449 0.628393
0.733702 0.369927 0.674684
0.904591 0.462075 0.724778
0.092607 0.274811 0.649775
0.224417 0.275489 0.663803
0.426473 0.282929 0.664870
0.602593 0.329937 0.658317
0.756417 0.406241 0.697748
0.926247 0.489735 0.739132
0.206397 0.432037 0.720415
0.282033 0.434543 0.733877
0.462382 0.433478 0.753342
0.658422 0.450725 0.736636
0.811338 0.506912 0.747949
0.980451 0.569724 0.774976
0.347104 0.627334 0.782286
0.395956 0.631654 0.780139
0.505052 0.644372 0.781962
0.685786 0.651498 0.799157
0.854088 0.684682 0.783946
0.996655 0.739690 0.823765
0.377818 0.856341 0.838836
0.434921 0.857260 0.838230
0.556076 0.862010 0.839310
0.703765 0.874699 0.846287
0.896243 0.879899 0.840450
0.999366 0.905605 0.883633
0.736914 0.999262 0.872027
0.753059 0.999312 0.874859
0.797837 0.999231 0.881335
0.885500 0.990817 0.904073
0.971478 0.979176 0.967407
0.994766 0.994766 0.994766
0.125553 0.302843 0.707785
0.235805 0.304703 0.723180
0.422529 0.312996 0.739105
0.604181 0.349805 0.746353
0.757818 0.422718 0.782439
0.911543 0.513028 0.832715
0.185247 0.351631 0.742325
0.272260 0.353284 0.756213
0.444887 0.358708 0.773861
0.625287 0.387422 0.780654
0.778864 0.453446 0.806073
0.930294 0.538160 0.850249
0.276590 0.474322 0.826469
0.335752 0.476181 0.840064
0.482852 0.478357 0.865401
0.671456 0.490583 0.868035
0.832297 0.539213 0.866050
0.978760 0.610013 0.898858
0.363549 0.651864 0.925836
0.401113 0.655720 0.934623
0.508813 0.662896 0.959672
0.702728 0.663608 0.976292
0.897377 0.682563 0.955719
0.997340 0.766452 0.942824
0.515242 0.849018 0.992551
0.547017 0.851967 0.992410
0.628563 0.861065 0.992552
0.747570 0.876345 0.994981
0.906293 0.882825 0.997976
0.998343 0.915013 0.971649
0.752221 0.997417 0.999408
0.768069 0.997271 0.999350
0.811484 0.996694 0.998708
0.926899 0.980645 0.981741
0.982088 0.984286 0.984438
1.000000 1.000000 1.000000
