entry/src/main/resources/rawfile/filters/Fieldnote.cube
TITLE "Fieldnote - Original look 1.0 (Standard/sRGB base)"
LUT_3D_SIZE 16
0.038416 0.081893 0.107214
0.107182 0.066920 0.072633
0.135337 0.064158 0.063915
0.168881 0.068139 0.063129
0.219348 0.073911 0.062089
0.280136 0.078070 0.056595
0.347011 0.082749 0.047719
0.411492 0.101247 0.049945
0.476151 0.130327 0.060581
0.543076 0.161639 0.070733
0.609295 0.194127 0.081938
0.673769 0.228818 0.098484
0.735754 0.266215 0.123514
0.794678 0.306493 0.158073
0.851142 0.348623 0.198711
0.906925 0.391004 0.236741
0.011541 0.106518 0.071350
0.059072 0.102598 0.075637
0.118905 0.095807 0.058283
0.198635 0.078012 0.015109
0.245846 0.082780 0.025951
0.293644 0.096881 0.043574
0.351906 0.110604 0.050700
0.418954 0.123719 0.047673
0.484843 0.147867 0.055367
0.550352 0.177062 0.067051
0.615736 0.207232 0.078734
0.679577 0.239945 0.096090
0.740879 0.275884 0.122591
0.799171 0.315010 0.158542
0.855263 0.356046 0.199570
0.910845 0.397479 0.237103
0.011961 0.137828 0.072842
0.053793 0.138725 0.074615
0.098570 0.141845 0.079383
0.158672 0.143944 0.072066
0.242403 0.134412 0.030363
0.311713 0.131611 0.016269
0.375155 0.137259 0.023085
0.439528 0.150114 0.033261
0.504495 0.172678 0.049111
0.567372 0.200642 0.066539
0.629700 0.229199 0.081154
0.691411 0.259752 0.099466
0.750917 0.293599 0.126769
0.807792 0.330698 0.163047
0.863066 0.369687 0.202941
0.918128 0.409366 0.238835
0.027930 0.186969 0.077429
0.069035 0.187925 0.081231
0.112757 0.190989 0.084766
0.160334 0.196913 0.090076
0.221440 0.202390 0.085249
0.296241 0.203735 0.071481
0.379340 0.200917 0.036536
0.453924 0.206799 0.036232
0.531128 0.218420 0.047920
0.597538 0.237304 0.073607
0.656473 0.263775 0.101536
0.713963 0.292301 0.124100
0.769812 0.323315 0.150068
0.823955 0.356972 0.182175
0.877431 0.392435 0.216035
0.931022 0.429135 0.247570
0.076563 0.245308 0.080520
0.106999 0.246193 0.085396
0.146064 0.248442 0.093302
0.190585 0.253461 0.103146
0.239079 0.261683 0.113409
0.299686 0.270318 0.109745
0.372690 0.276174 0.097770
0.456414 0.279410 0.071741
0.541956 0.286763 0.061954
0.617410 0.296799 0.075790
0.683797 0.315696 0.117044
0.743264 0.340538 0.158930
0.798104 0.367138 0.190840
0.849740 0.395488 0.218716
0.900351 0.425725 0.244632
0.951001 0.457946 0.270078
0.145615 0.310152 0.083010
0.166470 0.311083 0.087052
0.197978 0.313053 0.093915
0.238328 0.316952 0.103086
0.283282 0.323465 0.114447
0.331883 0.332495 0.126699
0.390024 0.341707 0.122631
0.461579 0.347276 0.098979
0.536784 0.352621 0.082770
0.621480 0.364137 0.085740
0.701357 0.378283 0.112074
0.763882 0.396996 0.161604
0.822729 0.419228 0.207516
0.877721 0.443520 0.247532
0.928355 0.468822 0.279189
0.974747 0.497170 0.307828
0.219708 0.378793 0.069679
0.235078 0.379419 0.074551
0.260152 0.380709 0.083086
0.294447 0.383390 0.092884
0.334747 0.388015 0.103581
0.378597 0.394957 0.117625
0.425582 0.404170 0.132435
0.480217 0.413883 0.131522
0.547471 0.420526 0.108838
0.617812 0.426405 0.098436
0.693588 0.436726 0.105667
0.776315 0.456964 0.149788
0.839422 0.475982 0.204561
0.895945 0.494504 0.247081
0.949302 0.515705 0.288002
0.986001 0.548784 0.349902
0.294018 0.446554 0.070063
0.304763 0.447377 0.070211
0.323538 0.448826 0.072333
0.351661 0.451146 0.079507
0.386917 0.454722 0.092624
0.426431 0.460274 0.107340
0.468542 0.468031 0.128336
0.513107 0.477996 0.150140
0.564001 0.488767 0.158031
0.626697 0.497065 0.145255
0.696498 0.503014 0.130932
0.767195 0.510014 0.128281
0.842323 0.528144 0.172313
0.909319 0.550572 0.241241
0.964958 0.567254 0.284774
0.990442 0.602346 0.374698
0.361126 0.515347 0.092664
0.369274 0.516195 0.092531
0.383735 0.517738 0.092864
0.406070 0.520230 0.095086
0.435330 0.523917 0.099418
0.470228 0.528929 0.109983
0.508992 0.535477 0.131694
0.549806 0.543973 0.163021
0.593311 0.554517 0.188388
0.643399 0.565604 0.197689
0.704703 0.574532 0.183617
0.775484 0.580332 0.155093
0.843866 0.587417 0.155170
0.909863 0.599792 0.189406
0.973979 0.621169 0.266743
0.993273 0.659868 0.405537
0.419805 0.585775 0.140081
0.426425 0.586588 0.140233
0.438289 0.588079 0.140666
0.456793 0.590556 0.141032
0.481844 0.594113 0.141790
0.512918 0.598764 0.145249
0.548839 0.604679 0.152454
0.588310 0.612023 0.165969
0.630182 0.620916 0.189710
0.674662 0.631403 0.213090
0.724948 0.642424 0.220393
0.785322 0.651670 0.203362
0.852871 0.658598 0.187417
0.919581 0.666289 0.194380
0.979375 0.678173 0.238344
0.994980 0.714949 0.418519
0.479311 0.655807 0.194643
0.484898 0.656571 0.194361
0.494997 0.657966 0.193941
0.511044 0.660227 0.193518
0.533103 0.663444 0.193446
0.560740 0.667731 0.193865
0.593159 0.673257 0.194114
0.629610 0.680069 0.196153
0.669271 0.688172 0.204968
0.711393 0.697717 0.219002
0.756249 0.708455 0.235847
0.806028 0.719593 0.244822
0.863092 0.729670 0.244447
0.926872 0.737925 0.245149
0.985445 0.748581 0.289116
0.996660 0.778258 0.470636
0.540892 0.725569 0.240770
0.545628 0.726289 0.240451
0.554228 0.727605 0.239939
0.568000 0.729741 0.239310
0.587141 0.732776 0.238844
0.611487 0.736783 0.238977
0.640564 0.741847 0.240224
0.673670 0.748085 0.243002
0.710079 0.755654 0.247449
0.749163 0.764562 0.256108
0.790473 0.774750 0.270426
0.834331 0.785995 0.288591
0.882440 0.797633 0.303908
0.936972 0.808522 0.312710
0.989800 0.819602 0.360009
0.997971 0.842306 0.547488
0.602170 0.795305 0.290696
0.606196 0.795989 0.290580
0.613531 0.797241 0.290428
0.625340 0.799275 0.290351
0.641881 0.802169 0.290611
0.663135 0.805986 0.291611
0.688831 0.810789 0.293881
0.718478 0.816661 0.298003
0.751509 0.823722 0.304437
0.787412 0.832011 0.314077
0.825686 0.841538 0.327500
0.866275 0.852227 0.343242
0.909264 0.863323 0.358797
0.955048 0.873489 0.371235
0.993971 0.882838 0.436746
0.998788 0.896883 0.618607
0.660973 0.865211 0.352817
0.664419 0.865864 0.352966
0.670717 0.867060 0.353275
0.680906 0.869005 0.353878
0.695281 0.871773 0.354952
0.713941 0.875418 0.356729
0.736807 0.879984 0.359435
0.763623 0.885519 0.363327
0.793927 0.891985 0.368488
0.826897 0.899093 0.374709
0.861795 0.906599 0.382818
0.897692 0.914180 0.393300
0.934316 0.921514 0.405085
0.971910 0.928142 0.416277
0.997118 0.933867 0.517437
0.999319 0.940829 0.690338
0.718550 0.934230 0.418401
0.721522 0.934768 0.418442
0.726954 0.935745 0.418526
0.735747 0.937307 0.418692
0.748156 0.939473 0.418989
0.764223 0.942213 0.419544
0.783794 0.945470 0.420564
0.806608 0.949150 0.422130
0.832315 0.953146 0.424227
0.860386 0.957337 0.426753
0.890161 0.961589 0.430119
0.920059 0.965887 0.439201
0.949526 0.970096 0.454395
0.978784 0.973946 0.473243
0.998354 0.974900 0.585567
0.999698 0.974370 0.764427
0.766634 0.992170 0.471997
0.769071 0.992463 0.471873
0.773595 0.992958 0.471927
0.781069 0.993663 0.472673
0.791763 0.994505 0.475153
0.805626 0.995401 0.480968
0.822429 0.996275 0.491373
0.841744 0.997070 0.507137
0.863017 0.997759 0.528500
0.885559 0.998334 0.555126
0.908673 0.998802 0.586217
0.931708 0.999171 0.620970
0.953989 0.999453 0.658867
0.974763 0.999664 0.699963
0.993086 0.999815 0.745319
0.999936 0.995974 0.859619
0.003629 0.075783 0.175274
0.090547 0.063521 0.141793
0.126489 0.060728 0.128184
0.168960 0.062895 0.115867
0.221809 0.068659 0.107949
0.282671 0.073543 0.100113
0.348870 0.079654 0.092352
0.413936 0.097965 0.090892
0.478812 0.127387 0.096002
0.545355 0.159462 0.102355
0.611332 0.192380 0.109993
0.675584 0.227419 0.122677
0.737367 0.265098 0.143566
0.796115 0.305597 0.174203
0.852454 0.347874 0.211622
0.908146 0.390363 0.247348
0.003200 0.102363 0.128648
0.054974 0.098945 0.125309
0.111747 0.095782 0.116689
0.169328 0.095218 0.107774
0.221869 0.101277 0.105876
0.282432 0.107332 0.101565
0.347401 0.115945 0.097752
0.418582 0.124980 0.090260
0.486595 0.146604 0.091474
0.552244 0.175441 0.098386
0.617699 0.205587 0.106328
0.681335 0.238620 0.120030
0.742462 0.274813 0.142386
0.800600 0.314136 0.174400
0.856577 0.355308 0.212263
0.912071 0.396845 0.247579
0.005082 0.137543 0.112492
0.042249 0.139207 0.114822
0.096571 0.140997 0.119279
0.166979 0.139608 0.104095
0.246842 0.131873 0.076267
0.302522 0.139348 0.084775
0.360337 0.152149 0.094327
0.426453 0.165388 0.095577
0.499338 0.178544 0.088059
0.565326 0.201313 0.091978
0.628964 0.228494 0.101674
0.691422 0.258524 0.116926
0.751380 0.292301 0.141565
0.808516 0.329561 0.175544
0.863948 0.368760 0.213588
0.919110 0.408622 0.248086
0.015436 0.187950 0.112585
0.055624 0.189791 0.112016
0.108484 0.191981 0.114761
0.159515 0.197189 0.120156
0.225051 0.201192 0.113486
0.307405 0.198138 0.090373
0.385345 0.197385 0.074860
0.456736 0.205194 0.081128
0.530552 0.217845 0.086164
0.593795 0.237275 0.097684
0.652377 0.262881 0.113636
0.710899 0.290337 0.130285
0.767737 0.321057 0.154496
0.822668 0.354955 0.186646
0.876815 0.390822 0.220851
0.930978 0.427909 0.252436
0.064920 0.246740 0.113804
0.100153 0.247410 0.117462
0.142574 0.249398 0.123091
0.189182 0.254272 0.128707
0.239264 0.262257 0.134889
0.302570 0.269895 0.129424
0.377342 0.274567 0.120139
0.463387 0.278177 0.101917
0.545388 0.285326 0.099479
0.621052 0.294191 0.107025
0.684593 0.313836 0.139892
0.741813 0.338028 0.169851
0.795508 0.364123 0.194412
0.847173 0.392656 0.219723
0.898442 0.423393 0.245019
0.949927 0.456187 0.270533
0.139703 0.311499 0.114683
0.161996 0.312308 0.117850
0.195172 0.314061 0.123489
0.236943 0.317681 0.131473
0.282626 0.324039 0.140713
0.331647 0.332989 0.150281
0.390835 0.341820 0.145391
0.462739 0.347093 0.127234
0.540387 0.352864 0.114536
0.627572 0.364708 0.118294
0.703943 0.376890 0.138574
0.765940 0.395726 0.181674
0.823987 0.417847 0.222309
0.877685 0.441598 0.256210
0.927362 0.466604 0.282387
0.974009 0.495085 0.307801
0.216234 0.379842 0.105909
0.232178 0.380393 0.109523
0.257751 0.381675 0.114759
0.292910 0.384186 0.122601
0.333895 0.388628 0.131721
0.378077 0.395476 0.143451
0.425171 0.404649 0.156300
0.480336 0.414188 0.154530
0.548480 0.420404 0.134400
0.620208 0.425919 0.122030
0.699343 0.437977 0.132603
0.780404 0.457508 0.174018
0.841331 0.474872 0.220119
0.897629 0.493469 0.259921
0.950714 0.514683 0.298456
0.986232 0.548188 0.357593
0.287684 0.448850 0.086760
0.299399 0.449456 0.088604
0.319735 0.450490 0.094276
0.349625 0.452217 0.106781
0.385839 0.455424 0.121485
0.425751 0.460822 0.134760
0.468045 0.468508 0.152748
0.512660 0.478446 0.172007
0.563878 0.489108 0.178389
0.627339 0.497063 0.166229
0.697408 0.502836 0.153743
0.770169 0.509862 0.147955
0.846823 0.529599 0.194720
0.911641 0.550154 0.255353
0.966589 0.566304 0.295162
0.990675 0.602302 0.383918
0.355985 0.517379 0.104752
0.364509 0.518161 0.104740
0.379662 0.519556 0.105697
0.402901 0.521836 0.108637
0.433298 0.525157 0.115782
0.469341 0.529577 0.134236
0.508425 0.535838 0.158592
0.549330 0.544377 0.183798
0.592899 0.554899 0.206674
0.643234 0.565909 0.214634
0.704958 0.574642 0.201833
0.776296 0.580172 0.174551
0.846102 0.586581 0.167824
0.912725 0.600118 0.206536
0.975853 0.621791 0.283617
0.993435 0.659925 0.414247
0.416570 0.587074 0.154912
0.423316 0.587871 0.154954
0.435329 0.589363 0.154768
0.454137 0.591808 0.154496
0.479752 0.595227 0.155634
0.511549 0.599619 0.161141
0.547966 0.605356 0.168876
0.587796 0.612447 0.185292
0.629694 0.621217 0.209970
0.674125 0.631714 0.231784
0.724471 0.642733 0.238309
0.785290 0.651840 0.221241
0.854297 0.658243 0.199252
0.921334 0.665706 0.205078
0.980450 0.678047 0.251607
0.995131 0.715694 0.429747
0.476638 0.656934 0.205143
0.482317 0.657682 0.204871
0.492580 0.659048 0.204468
0.508880 0.661260 0.204071
0.531267 0.664409 0.204011
0.559218 0.668645 0.203841
0.592043 0.674063 0.204111
0.628921 0.680706 0.207256
0.668889 0.688677 0.216416
0.711150 0.698096 0.231797
0.756008 0.708770 0.249377
0.805925 0.719845 0.257999
0.863790 0.729680 0.253994
0.928036 0.737684 0.254208
0.986150 0.748435 0.299238
0.996732 0.778370 0.477416
0.538619 0.726575 0.248771
0.543415 0.727284 0.248457
0.552126 0.728580 0.247955
0.566070 0.730682 0.247341
0.585443 0.733669 0.246897
0.610069 0.737610 0.247056
0.639455 0.742592 0.248334
0.672854 0.748754 0.250824
0.709546 0.756245 0.254837
0.748885 0.765053 0.263495
0.790358 0.775130 0.278619
0.834337 0.786289 0.296985
0.882632 0.797837 0.311958
0.937617 0.808552 0.319445
0.990218 0.819581 0.368086
0.998013 0.842371 0.552873
0.600200 0.796209 0.296974
0.604267 0.796885 0.296856
0.611678 0.798123 0.296702
0.623607 0.800133 0.296621
0.640312 0.802993 0.296873
0.661771 0.806763 0.297863
0.687702 0.811505 0.300117
0.717599 0.817306 0.304219
0.750879 0.824288 0.310597
0.787009 0.832502 0.320036
0.825491 0.841962 0.332972
0.866268 0.852580 0.348272
0.909415 0.863580 0.363651
0.955393 0.873619 0.375790
0.994145 0.882879 0.442405
0.998810 0.896904 0.622748
0.659236 0.866025 0.357763
0.662712 0.866673 0.357905
0.669064 0.867859 0.358202
0.679340 0.869786 0.358785
0.693837 0.872529 0.359832
0.712651 0.876139 0.361571
0.735701 0.880660 0.364231
0.762721 0.886140 0.368075
0.793228 0.892534 0.373177
0.826391 0.899562 0.379309
0.861458 0.906987 0.387293
0.897497 0.914483 0.397668
0.934244 0.921737 0.409304
0.971954 0.928284 0.420326
0.997148 0.933925 0.521346
0.999325 0.940845 0.693211
0.717005 0.934938 0.422289
0.719998 0.935471 0.422323
0.725468 0.936438 0.422394
0.734322 0.937984 0.422540
0.746816 0.940125 0.422809
0.762989 0.942833 0.423336
0.782688 0.946047 0.424321
0.805651 0.949676 0.425842
0.831520 0.953612 0.427892
0.859756 0.957736 0.430371
0.889678 0.961922 0.433695
0.919690 0.966155 0.442775
0.949268 0.970297 0.457904
0.978628 0.974079 0.476659
0.998352 0.974964 0.587942
0.999700 0.974379 0.766354
0.765272 0.992703 0.475396
0.767783 0.992962 0.475503
0.772427 0.993402 0.475928
0.780059 0.994034 0.477162
0.790911 0.994797 0.480185
0.804918 0.995619 0.486459
0.821840 0.996427 0.497129
0.841249 0.997172 0.512910
0.862598 0.997824 0.534040
0.885203 0.998373 0.560229
0.908376 0.998825 0.590741
0.931471 0.999183 0.624837
0.953811 0.999460 0.662059
0.974646 0.999668 0.702500
0.993028 0.999817 0.747247
0.999937 0.995979 0.860829
0.002129 0.075722 0.189090
0.086096 0.058515 0.179627
0.114692 0.064467 0.165003
0.157402 0.068254 0.165181
0.216002 0.069774 0.165688
0.282045 0.070504 0.159428
0.350681 0.074898 0.150848
0.416970 0.093136 0.145760
0.482465 0.123162 0.145658
0.548805 0.156107 0.147676
0.614558 0.189622 0.151370
0.678542 0.225173 0.159751
0.740051 0.263281 0.175731
0.798544 0.304122 0.201225
0.854703 0.346623 0.233967
0.910263 0.389280 0.266075
0.003271 0.098272 0.169462
0.054353 0.093078 0.175416
0.105816 0.094821 0.165702
0.161011 0.095805 0.167073
0.220518 0.098962 0.163263
0.284479 0.103441 0.156575
0.350234 0.112235 0.150712
0.421759 0.121431 0.143228
0.490399 0.142882 0.141005
0.555837 0.172295 0.143550
0.620995 0.202971 0.147725
0.684335 0.236460 0.157045
0.745173 0.273047 0.174326
0.803053 0.312685 0.201094
0.858850 0.354067 0.234298
0.914206 0.395768 0.266099
0.003381 0.135609 0.161990
0.020685 0.139264 0.170016
0.094802 0.139633 0.166942
0.160203 0.140676 0.163144
0.228967 0.141082 0.154680
0.288434 0.149123 0.153604
0.352432 0.159333 0.152068
0.423749 0.169297 0.146836
0.500331 0.178446 0.136690
0.568080 0.199125 0.135824
0.631795 0.226358 0.141805
0.694196 0.256563 0.152838
0.753981 0.290621 0.172466
0.810927 0.328143 0.201313
0.866219 0.367532 0.234928
0.921255 0.407557 0.266170
0.007250 0.188291 0.158267
0.022738 0.193001 0.158353
0.098048 0.193629 0.161089
0.158197 0.197138 0.166464
0.231230 0.198634 0.155759
0.312641 0.196301 0.137707
0.376171 0.204866 0.143457
0.442335 0.217817 0.148432
0.512834 0.229793 0.144316
0.585380 0.240134 0.132608
0.648854 0.261233 0.136674
0.709043 0.287925 0.150487
0.767216 0.318476 0.172832
0.822982 0.352713 0.203584
0.877723 0.389008 0.236394
0.932302 0.426478 0.266626
0.040058 0.249338 0.158452
0.078995 0.250710 0.158762
0.131951 0.252311 0.160517
0.185909 0.256043 0.164655
0.239189 0.263203 0.170408
0.307333 0.269071 0.162825
0.388025 0.270954 0.151182
0.470722 0.278038 0.150473
0.544431 0.286295 0.155962
0.617685 0.294608 0.155500
0.680964 0.310343 0.163162
0.736328 0.333227 0.178530
0.790278 0.359204 0.197866
0.843175 0.388381 0.222737
0.895994 0.420014 0.248688
0.948912 0.453681 0.274852
0.126755 0.314176 0.157479
0.152341 0.314777 0.159705
0.189163 0.316145 0.163919
0.234013 0.319283 0.169843
0.281574 0.325360 0.174941
0.332045 0.333999 0.179998
0.394125 0.341658 0.173035
0.466670 0.346585 0.163911
0.547191 0.355162 0.164033
0.630961 0.367121 0.174196
0.706245 0.375719 0.182000
0.768541 0.393199 0.211874
0.823955 0.414545 0.241856
0.875160 0.437279 0.264552
0.924458 0.462495 0.284348
0.972465 0.491465 0.306342
0.208686 0.382043 0.150940
0.225601 0.382540 0.153025
0.252858 0.383590 0.156956
0.289910 0.385731 0.163345
0.332388 0.389770 0.171337
0.377284 0.396418 0.180734
0.424667 0.405507 0.191144
0.480926 0.414650 0.188224
0.550054 0.420309 0.172598
0.622786 0.427151 0.168626
0.706781 0.442888 0.186631
0.785072 0.457138 0.210235
0.844649 0.472946 0.246210
0.900373 0.491660 0.281857
0.952647 0.512682 0.315267
0.986327 0.546152 0.365999
0.281313 0.451023 0.135077
0.294353 0.451301 0.138704
0.316180 0.451952 0.145245
0.346880 0.453567 0.153491
0.383876 0.456655 0.163223
0.424573 0.461806 0.174273
0.467228 0.469368 0.189020
0.511928 0.479254 0.205609
0.563779 0.489703 0.210014
0.628555 0.497047 0.198826
0.698391 0.502900 0.191421
0.773422 0.512239 0.193712
0.854082 0.531988 0.231932
0.915037 0.548756 0.277696
0.969361 0.564693 0.313619
0.991058 0.602259 0.400108
0.348379 0.520200 0.137823
0.357502 0.520868 0.138331
0.373564 0.522091 0.139596
0.398476 0.523900 0.145325
0.431079 0.526342 0.159975
0.468067 0.530344 0.178365
0.507398 0.536639 0.195213
0.548526 0.545120 0.215930
0.592205 0.555592 0.235979
0.643007 0.566453 0.242119
0.705755 0.574748 0.229770
0.776577 0.580354 0.210772
0.848353 0.585970 0.197852
0.917894 0.601411 0.239088
0.978586 0.622667 0.311585
0.993705 0.660017 0.429452
0.410282 0.589508 0.179264
0.417208 0.590301 0.178916
0.429651 0.591736 0.178515
0.449322 0.593991 0.178948
0.476189 0.597044 0.182239
0.509076 0.601107 0.188535
0.546640 0.606274 0.201425
0.586942 0.613030 0.220042
0.628902 0.621764 0.241806
0.673429 0.632295 0.259610
0.724010 0.643249 0.264956
0.785157 0.652169 0.251058
0.855700 0.658005 0.225689
0.923818 0.664933 0.226813
0.982238 0.678214 0.276813
0.995390 0.717075 0.449733
0.471582 0.659008 0.223483
0.477436 0.659728 0.223223
0.488009 0.661042 0.222841
0.504778 0.663170 0.222439
0.527683 0.666243 0.221796
0.556310 0.670343 0.221236
0.590024 0.675471 0.222912
0.627678 0.681805 0.227848
0.668167 0.689524 0.238208
0.710561 0.698715 0.256650
0.755285 0.709306 0.275957
0.805343 0.720337 0.283732
0.864449 0.729825 0.274764
0.930031 0.737286 0.270766
0.987269 0.748233 0.317581
0.996856 0.778586 0.489526
0.534338 0.728427 0.263072
0.539250 0.729117 0.262766
0.548166 0.730377 0.262278
0.562434 0.732418 0.261685
0.582243 0.735315 0.261271
0.607397 0.739134 0.261473
0.637344 0.743978 0.262612
0.671284 0.750012 0.264409
0.708527 0.757331 0.268201
0.748337 0.765911 0.278010
0.790115 0.775807 0.293790
0.834316 0.786826 0.312177
0.883004 0.798202 0.326175
0.938643 0.808630 0.332550
0.990894 0.819566 0.382885
0.998090 0.842497 0.562544
0.596503 0.797874 0.308350
0.600648 0.798537 0.308229
0.608200 0.799749 0.308070
0.620353 0.801716 0.307980
0.637366 0.804512 0.308218
0.659209 0.808194 0.309187
0.685580 0.812826 0.311418
0.715947 0.818493 0.315489
0.749693 0.825330 0.321774
0.786243 0.833420 0.330551
0.825116 0.842753 0.342722
0.866222 0.853227 0.357653
0.909607 0.864044 0.373290
0.955913 0.873862 0.384936
0.994434 0.882954 0.452811
0.998851 0.896945 0.630242
0.655986 0.867526 0.366807
0.659517 0.868163 0.366937
0.665970 0.869331 0.367212
0.676408 0.871226 0.367760
0.691131 0.873922 0.368757
0.710235 0.877468 0.370426
0.733628 0.881906 0.373006
0.761029 0.887285 0.376766
0.791917 0.893544 0.381766
0.825441 0.900425 0.387753
0.860823 0.907697 0.395512
0.897127 0.915041 0.405655
0.934112 0.922149 0.416870
0.972046 0.928548 0.427507
0.997208 0.934032 0.528397
0.999337 0.940874 0.698442
0.714121 0.936242 0.429437
0.717152 0.936765 0.429458
0.722692 0.937714 0.429507
0.731659 0.939230 0.429616
0.744311 0.941327 0.429835
0.760681 0.943975 0.430310
0.780620 0.947112 0.431229
0.803861 0.950646 0.432672
0.830032 0.954470 0.434638
0.858577 0.958471 0.437034
0.888770 0.962534 0.440296
0.918998 0.966646 0.449366
0.948780 0.970664 0.464382
0.978325 0.974319 0.483044
0.998339 0.975078 0.592384
0.999704 0.974397 0.769882
0.763088 0.993514 0.482932
0.765706 0.993726 0.483343
0.770524 0.994089 0.484255
0.778387 0.994616 0.486134
0.789471 0.995262 0.489894
0.803696 0.995970 0.496770
0.820806 0.996679 0.507742
0.840368 0.997343 0.523439
0.861842 0.997935 0.544091
0.884558 0.998442 0.569470
0.907838 0.998865 0.598936
0.931039 0.999206 0.631856
0.953488 0.999473 0.667867
0.974431 0.999674 0.707132
0.992919 0.999820 0.750781
0.999938 0.995988 0.863038
0.001601 0.077860 0.204625
0.074061 0.055358 0.223171
0.117662 0.059937 0.203943
0.154724 0.071411 0.205088
0.207182 0.078079 0.213727
0.272594 0.080179 0.219020
0.343986 0.082768 0.218289
0.415805 0.094431 0.213088
0.484531 0.121300 0.208877
0.552096 0.153256 0.206312
0.618241 0.186757 0.205830
0.682238 0.222613 0.209802
0.743602 0.261079 0.220723
0.801891 0.302248 0.240571
0.857906 0.344962 0.267654
0.913355 0.387795 0.294988
0.002631 0.097626 0.202850
0.050369 0.088698 0.224908
0.113458 0.089275 0.212962
0.154732 0.099969 0.210263
0.209323 0.106386 0.216505
0.276302 0.109110 0.219769
0.346777 0.114633 0.217324
0.422456 0.120341 0.210277
0.493459 0.139942 0.204631
0.559662 0.169061 0.202310
0.624965 0.199974 0.202281
0.688207 0.233835 0.207069
0.748836 0.270809 0.219115
0.806483 0.310780 0.240092
0.862122 0.352378 0.267612
0.917347 0.394266 0.294744
0.004208 0.134810 0.208403
0.019627 0.136604 0.224714
0.097009 0.135835 0.223801
0.156473 0.140916 0.217919
0.219836 0.143944 0.220539
0.285507 0.149693 0.218610
0.353994 0.157762 0.214363
0.427162 0.166837 0.207977
0.504334 0.175368 0.198635
0.572623 0.195657 0.194453
0.636173 0.223321 0.196058
0.698312 0.253940 0.202493
0.757801 0.288387 0.216656
0.814481 0.326222 0.239545
0.869595 0.365822 0.267524
0.924471 0.406042 0.294309
0.005426 0.187414 0.214487
0.011681 0.191883 0.222649
0.077377 0.195230 0.224083
0.156596 0.197073 0.221391
0.227165 0.200006 0.218350
0.300873 0.202792 0.211455
0.367034 0.212048 0.209172
0.435913 0.223083 0.206438
0.510177 0.231828 0.198529
0.586397 0.239444 0.187062
0.652360 0.258565 0.186877
0.712673 0.285474 0.196836
0.770805 0.316288 0.214314
0.826463 0.350780 0.239622
0.881108 0.387284 0.267409
0.935553 0.424960 0.293720
0.016129 0.251373 0.214250
0.032932 0.255579 0.213990
0.101324 0.257950 0.213799
0.177898 0.258869 0.216632
0.239014 0.264099 0.222300
0.312343 0.268099 0.213960
0.394678 0.271661 0.206759
0.463827 0.281048 0.210953
0.530670 0.290369 0.208846
0.599803 0.298914 0.199715
0.670845 0.307633 0.188396
0.731326 0.327795 0.196406
0.787238 0.354637 0.216805
0.842101 0.384624 0.242401
0.896433 0.417067 0.268209
0.950401 0.451422 0.293683
0.096724 0.318932 0.210684
0.128803 0.319606 0.211192
0.172759 0.320900 0.212010
0.225038 0.323377 0.213408
0.279047 0.327948 0.217063
0.332411 0.335559 0.221971
0.399597 0.341285 0.212910
0.476961 0.347143 0.211873
0.556606 0.359691 0.227600
0.630388 0.367891 0.233406
0.703182 0.374800 0.232718
0.765148 0.387152 0.238228
0.817013 0.407095 0.252701
0.868225 0.430354 0.268368
0.919616 0.456946 0.286068
0.970633 0.486978 0.307354
0.193310 0.386056 0.203798
0.212565 0.386384 0.205052
0.243117 0.387084 0.207641
0.283891 0.388622 0.212324
0.329474 0.391968 0.218398
0.376196 0.398269 0.223346
0.424963 0.407017 0.229196
0.484308 0.414890 0.223924
0.554179 0.420224 0.218194
0.629926 0.432416 0.231620
0.714009 0.448560 0.252226
0.788340 0.455691 0.258536
0.848958 0.469908 0.283127
0.902432 0.488146 0.309812
0.952074 0.508160 0.329803
0.985830 0.541297 0.368026
0.272231 0.453940 0.194948
0.285829 0.454244 0.196628
0.308616 0.454908 0.199756
0.341198 0.456248 0.205217
0.380386 0.458804 0.213312
0.422720 0.463433 0.223155
