entry/src/main/resources/rawfile/filters/Heartland.cube
TITLE "Heartland - Original look 1.0 (Standard/sRGB base)"
LUT_3D_SIZE 16
0.003795 0.037000 0.052403
0.081345 0.028735 0.024838
0.135227 0.037303 0.027235
0.191592 0.054352 0.037328
0.250416 0.073120 0.048904
0.314146 0.089097 0.056164
0.381408 0.102894 0.058530
0.451979 0.114146 0.053689
0.521425 0.129575 0.048487
0.588604 0.151630 0.048267
0.655706 0.176432 0.050377
0.723375 0.202505 0.055181
0.792195 0.228550 0.062880
0.862473 0.253777 0.074075
0.932628 0.278546 0.087846
0.986247 0.323961 0.140385
0.005050 0.089843 0.028741
0.050507 0.095885 0.041122
0.125640 0.096286 0.038854
0.213075 0.085673 0.024435
0.270173 0.096155 0.042503
0.325007 0.113814 0.065059
0.387437 0.128412 0.074711
0.456319 0.138962 0.072358
0.527626 0.148903 0.062334
0.595846 0.166168 0.057041
0.662836 0.188286 0.056772
0.730104 0.212571 0.060468
0.798459 0.237330 0.067797
0.868226 0.261644 0.079131
0.937425 0.285980 0.092589
0.986625 0.335327 0.153356
0.031980 0.146235 0.039106
0.076295 0.148742 0.051252
0.114717 0.157113 0.061449
0.179221 0.162310 0.064077
0.269950 0.153452 0.043434
0.344243 0.150725 0.048535
0.409163 0.156646 0.060686
0.472455 0.167874 0.073348
0.540077 0.177961 0.075262
0.608485 0.190576 0.071989
0.675515 0.208438 0.070794
0.742474 0.229474 0.072644
0.810041 0.252197 0.079032
0.878646 0.275312 0.090347
0.946015 0.299135 0.102512
0.987287 0.354985 0.175859
0.084129 0.205024 0.056125
0.114362 0.206497 0.064584
0.148473 0.211456 0.073091
0.186799 0.221132 0.078678
0.248084 0.227125 0.082606
0.327962 0.226134 0.068110
0.412125 0.219322 0.062981
0.484736 0.219565 0.074468
0.554092 0.224181 0.083228
0.622793 0.232300 0.087999
0.689679 0.245553 0.094193
0.757487 0.260890 0.097731
0.825378 0.278936 0.103876
0.892766 0.299295 0.114613
0.958373 0.320894 0.123359
0.988256 0.384305 0.210515
0.144794 0.265344 0.058417
0.166641 0.266080 0.067697
0.196578 0.268593 0.080401
0.230783 0.275159 0.088357
0.270092 0.285371 0.089293
0.327800 0.292265 0.096530
0.403618 0.293712 0.072371
0.482635 0.291643 0.067686
0.559850 0.289698 0.085005
0.631773 0.292586 0.102254
0.700774 0.300170 0.118747
0.767045 0.313096 0.136564
0.834622 0.327472 0.147665
0.901701 0.343004 0.156481
0.966794 0.359959 0.163393
0.989375 0.422074 0.252078
0.215725 0.325695 0.045925
0.231433 0.326332 0.051923
0.256071 0.327908 0.062830
0.287812 0.331721 0.077453
0.322395 0.339372 0.085256
0.362012 0.349906 0.085525
0.415937 0.357855 0.100305
0.488590 0.360320 0.072488
0.560899 0.362951 0.065998
0.635527 0.363922 0.087289
0.709502 0.365760 0.118353
0.778275 0.373333 0.148169
0.843321 0.385319 0.176400
0.908087 0.397825 0.195229
0.970659 0.412359 0.209434
0.990475 0.466738 0.294210
0.293590 0.385510 0.042757
0.305086 0.386167 0.045388
0.324347 0.387576 0.050355
0.351544 0.390467 0.058352
0.383440 0.395895 0.067576
0.417569 0.404837 0.072532
0.456081 0.416200 0.076347
0.506660 0.425558 0.095288
0.573439 0.430310 0.084694
0.642638 0.435115 0.076131
0.713118 0.439691 0.091117
0.785819 0.442039 0.129553
0.853018 0.447693 0.173162
0.917131 0.455966 0.203886
0.975588 0.469027 0.235556
0.991692 0.516466 0.332276
0.369692 0.447161 0.046701
0.378579 0.447810 0.048555
0.393934 0.449126 0.052023
0.416612 0.451641 0.057581
0.444740 0.456039 0.065189
0.475805 0.463248 0.073493
0.508341 0.473890 0.079500
0.544807 0.486745 0.085957
0.591848 0.497976 0.110338
0.653858 0.504691 0.113748
0.721317 0.509622 0.098885
0.788132 0.514573 0.102201
0.857779 0.516739 0.127940
0.923493 0.519903 0.186270
0.979835 0.529823 0.241071
0.993048 0.570280 0.357103
0.439439 0.512318 0.056842
0.446496 0.513017 0.058187
0.458940 0.514366 0.060859
0.477897 0.516769 0.065672
0.502322 0.520690 0.073091
0.530356 0.526821 0.082744
0.559981 0.535857 0.093113
0.590803 0.547753 0.100796
0.625884 0.560875 0.108408
0.670618 0.571781 0.132569
0.729288 0.578023 0.138331
0.794720 0.581908 0.118628
0.859122 0.585992 0.114151
0.924395 0.588862 0.127216
0.982728 0.593995 0.207927
0.994136 0.626820 0.371371
0.500603 0.580982 0.074554
0.506452 0.581625 0.075616
0.516885 0.582836 0.077627
0.533098 0.584895 0.081128
0.554639 0.588045 0.086606
0.580353 0.592653 0.094327
0.608620 0.599226 0.103564
0.638016 0.608239 0.112024
0.668553 0.619622 0.116814
0.703079 0.631765 0.123212
0.745974 0.641867 0.144112
0.800915 0.647837 0.154029
0.863517 0.651017 0.137807
0.926070 0.653934 0.130302
0.985472 0.657902 0.152499
0.995305 0.685403 0.362680
0.558947 0.647486 0.090668
0.564034 0.647958 0.091603
0.573147 0.648852 0.093333
0.587394 0.650395 0.096103
0.606525 0.652783 0.100011
0.629784 0.656277 0.105226
0.656024 0.661223 0.111878
0.683910 0.668037 0.119359
0.712481 0.677056 0.125959
0.742139 0.687993 0.129920
0.775522 0.699332 0.136669
0.816345 0.708775 0.156045
0.867760 0.714475 0.170787
0.927479 0.717015 0.162103
0.986338 0.719593 0.169431
0.996197 0.742249 0.378631
0.614850 0.711019 0.104219
0.619243 0.711385 0.105042
0.627150 0.712078 0.106570
0.639621 0.713267 0.109102
0.656569 0.715098 0.112787
0.677476 0.717772 0.117701
0.701468 0.721563 0.123673
0.727476 0.726800 0.130442
0.754467 0.733830 0.137533
0.781866 0.742800 0.143927
0.810333 0.753284 0.148734
0.842251 0.763946 0.157175
0.880717 0.772861 0.177902
0.928663 0.778323 0.198963
0.984634 0.780577 0.207045
0.996825 0.797190 0.416460
0.666530 0.772185 0.118015
0.670341 0.772476 0.118797
0.677226 0.773026 0.120252
0.688152 0.773967 0.122673
0.703137 0.775409 0.126225
0.721849 0.777501 0.131058
0.743663 0.780442 0.137271
0.767722 0.784487 0.144841
0.793073 0.789957 0.153466
0.818871 0.797110 0.162460
0.844944 0.805920 0.170658
0.872247 0.815892 0.177011
0.903010 0.825762 0.187211
0.939705 0.833899 0.210590
0.983721 0.839304 0.248682
0.997179 0.852089 0.467549
0.712470 0.831499 0.134262
0.715799 0.831735 0.135077
0.721831 0.832178 0.136596
0.731452 0.832934 0.139132
0.744758 0.834082 0.142854
0.761568 0.835725 0.147927
0.781452 0.838004 0.154490
0.803772 0.841102 0.162595
0.827791 0.845254 0.172041
0.852713 0.850701 0.182193
0.877968 0.857584 0.192098
0.903553 0.865802 0.204060
0.930425 0.875230 0.223685
0.959287 0.885215 0.269845
0.989082 0.895226 0.353290
0.997606 0.908110 0.551272
0.753402 0.888775 0.152714
0.756416 0.888941 0.153499
0.761892 0.889254 0.154954
0.770667 0.889786 0.157367
0.782873 0.890596 0.160895
0.798421 0.891755 0.165781
0.817061 0.893332 0.172953
0.838329 0.895457 0.183552
0.861723 0.898486 0.199663
0.886390 0.902684 0.225624
0.911078 0.908248 0.268386
0.935039 0.915609 0.318001
0.955913 0.925337 0.376750
0.973432 0.936982 0.445927
0.989751 0.949108 0.523048
0.998407 0.959301 0.657554
0.797099 0.942846 0.194336
0.800000 0.942963 0.196485
0.805284 0.943185 0.200622
0.813788 0.943559 0.207944
0.825688 0.944117 0.219830
0.840936 0.944873 0.238771
0.859215 0.945792 0.269507
0.879180 0.947275 0.310397
0.898807 0.950013 0.358706
0.917256 0.954322 0.410752
0.934328 0.960157 0.465180
0.950186 0.967247 0.521387
0.965616 0.975460 0.571841
0.982273 0.984410 0.608619
0.998139 0.991446 0.668044
0.999840 0.992163 0.829146
0.000265 0.039061 0.089237
0.069035 0.026425 0.114648
0.133854 0.031925 0.112110
0.192503 0.049496 0.107889
0.252472 0.070738 0.097323
0.315775 0.088917 0.090187
0.382484 0.104032 0.085233
0.452890 0.115673 0.077465
0.523434 0.129210 0.068372
0.593097 0.146880 0.059366
0.660536 0.171022 0.057031
0.727806 0.197695 0.059935
0.796144 0.224422 0.066785
0.865961 0.250245 0.077701
0.935627 0.275577 0.091363
0.986300 0.325222 0.149253
0.001176 0.089175 0.099692
0.043404 0.094864 0.111327
0.120233 0.097928 0.106089
0.189952 0.102619 0.100466
0.252470 0.112822 0.099917
0.314478 0.126068 0.102333
0.382718 0.136131 0.099825
0.454339 0.144211 0.092485
0.527388 0.152051 0.080284
0.598362 0.165018 0.068621
0.666560 0.185020 0.063550
0.733848 0.209090 0.065315
0.801939 0.234090 0.071831
0.871355 0.258767 0.082933
0.940142 0.283517 0.096254
0.986666 0.336560 0.161291
0.006213 0.148914 0.101442
0.058925 0.151359 0.106055
0.111423 0.157127 0.114834
0.187811 0.157722 0.110007
0.273577 0.151314 0.097225
0.333623 0.159819 0.108292
0.394396 0.171373 0.116681
0.461914 0.180474 0.115335
0.534592 0.186558 0.104189
0.607356 0.194393 0.089159
0.677137 0.208545 0.078666
0.744725 0.228517 0.077146
0.812341 0.250958 0.082642
0.880831 0.274010 0.093956
0.948013 0.297870 0.106056
0.987317 0.356197 0.181963
0.053357 0.209486 0.098763
0.099492 0.209749 0.104040
0.143640 0.212700 0.114480
0.184610 0.221581 0.121676
0.250395 0.226233 0.119931
0.337911 0.220345 0.104789
0.414482 0.217754 0.109244
0.482797 0.221605 0.116463
0.550508 0.228584 0.119918
0.620932 0.235563 0.115458
0.690289 0.246345 0.110554
0.759134 0.260506 0.106964
0.827126 0.278414 0.109428
0.894147 0.299131 0.119048
0.959532 0.320883 0.126828
0.988294 0.385481 0.214153
0.131034 0.268232 0.100492
0.157070 0.268529 0.106151
0.191476 0.270317 0.114399
0.228772 0.276143 0.120387
0.269210 0.286002 0.121813
0.330349 0.291676 0.123004
0.408021 0.291727 0.105447
0.486468 0.289120 0.111240
0.560106 0.289491 0.127124
0.630990 0.293521 0.136970
0.700843 0.300677 0.143650
0.767966 0.313036 0.152471
0.835767 0.327265 0.159191
0.902650 0.342991 0.165843
0.967330 0.360421 0.171084
0.989449 0.422968 0.256245
0.206293 0.328453 0.085164
0.224232 0.328635 0.091258
0.251502 0.329572 0.101471
0.285444 0.332761 0.113794
0.321203 0.340093 0.119319
0.361437 0.350528 0.117379
0.417360 0.357711 0.125777
0.492168 0.359154 0.096147
0.565819 0.360484 0.092673
0.637966 0.362270 0.125674
0.709570 0.365737 0.152463
0.778496 0.373361 0.173348
0.843443 0.385551 0.195423
0.908453 0.397975 0.208898
0.971099 0.412581 0.218927
0.990566 0.467317 0.299757
0.285591 0.388773 0.059822
0.298397 0.389119 0.063600
0.319584 0.389989 0.071034
0.348875 0.392154 0.083010
0.382271 0.396926 0.096320
0.417143 0.405551 0.101933
0.456193 0.416755 0.102721
0.507044 0.425740 0.124914
0.576835 0.429303 0.100810
0.647477 0.433054 0.089562
0.717426 0.437283 0.114475
0.786886 0.441179 0.162339
0.853705 0.447171 0.196392
0.917249 0.455953 0.222741
0.975584 0.469193 0.250292
0.991717 0.516721 0.340459
0.364406 0.449830 0.055680
0.373922 0.450318 0.057862
0.390275 0.451357 0.061892
0.414275 0.453449 0.068682
0.443733 0.457342 0.078341
0.475784 0.464098 0.088923
0.508849 0.474470 0.095592
0.545599 0.487149 0.102130
0.592409 0.498146 0.133678
0.655979 0.504168 0.130065
0.725019 0.508211 0.109390
0.792377 0.512479 0.114730
0.861138 0.514564 0.150945
0.924105 0.519302 0.210479
0.980039 0.529613 0.258045
0.993070 0.570316 0.366640
0.435385 0.514565 0.062903
0.442817 0.515161 0.064504
0.455890 0.516324 0.067699
0.475716 0.518444 0.073447
0.501083 0.522019 0.082185
0.529942 0.527795 0.093533
0.560119 0.536524 0.105976
0.591216 0.548235 0.114506
0.626468 0.561217 0.122422
0.671023 0.571937 0.152022
0.730758 0.577693 0.153492
0.797679 0.580857 0.127066
0.862591 0.584460 0.122056
0.928535 0.586523 0.138945
0.983134 0.593460 0.231483
0.994188 0.626691 0.382014
0.496993 0.582950 0.079677
0.503075 0.583528 0.080832
0.513918 0.584619 0.083071
0.530746 0.586483 0.087078
0.553040 0.589367 0.093496
0.579518 0.593665 0.102647
0.608409 0.599944 0.113539
0.638203 0.608737 0.123189
0.668962 0.619993 0.127947
0.703649 0.632023 0.134369
0.746595 0.641946 0.158178
0.802199 0.647553 0.166614
0.865881 0.650223 0.145114
0.928946 0.652746 0.136158
0.986020 0.657607 0.174226
0.995317 0.685214 0.374720
0.555871 0.649143 0.095406
0.561112 0.649573 0.096376
0.570486 0.650394 0.098132
0.585129 0.651819 0.100971
0.604774 0.654041 0.105085
0.628625 0.657321 0.110825
0.655451 0.662026 0.118369
0.683814 0.668617 0.126893
0.712690 0.677472 0.134170
0.742526 0.688311 0.137976
0.776050 0.699549 0.144952
0.816964 0.708830 0.166929
0.868776 0.714264 0.181904
0.929331 0.716419 0.168930
0.986834 0.719415 0.186376
0.996236 0.742243 0.386883
0.612168 0.712444 0.108375
0.616670 0.712780 0.109229
0.624767 0.713419 0.110816
0.637530 0.714521 0.113453
0.654855 0.716233 0.117307
0.676188 0.718762 0.122400
0.700623 0.722389 0.128618
0.727053 0.727450 0.135801
0.754387 0.734319 0.143456
0.782010 0.743170 0.150232
0.810612 0.753576 0.154991
0.842644 0.764152 0.163823
0.881184 0.772932 0.186859
0.929329 0.778201 0.209380
0.985017 0.780462 0.220632
0.996872 0.797184 0.423432
0.664120 0.773433 0.121777
0.668009 0.773702 0.122587
0.675033 0.774213 0.124095
0.686174 0.775090 0.126610
0.701441 0.776445 0.130310
0.720487 0.778425 0.135365
0.742661 0.781236 0.141894
0.767071 0.785141 0.149877
0.792726 0.790476 0.158934
0.818753 0.797515 0.168382
0.844974 0.806240 0.176900
0.872372 0.816151 0.183364
0.903217 0.825952 0.193979
0.939932 0.833990 0.219253
0.983813 0.839314 0.260261
0.997209 0.852109 0.473551
0.710221 0.832611 0.137899
0.713609 0.832831 0.138744
0.719745 0.833245 0.140320
0.729529 0.833953 0.142954
0.743055 0.835033 0.146829
0.760130 0.836590 0.152126
0.780308 0.838765 0.159006
0.802929 0.841748 0.167538
0.827229 0.845780 0.177523
0.852382 0.851114 0.188280
0.877801 0.857905 0.198775
0.903462 0.866057 0.211557
0.930287 0.875449 0.232704
0.959047 0.885412 0.279522
0.988878 0.895372 0.361401
0.997599 0.908178 0.555727
0.751287 0.889769 0.156355
0.754348 0.889922 0.157167
0.759908 0.890211 0.158673
0.768814 0.890706 0.161174
0.781198 0.891462 0.164836
0.796965 0.892552 0.169943
0.815857 0.894041 0.177496
0.837391 0.896066 0.188718
0.861035 0.898984 0.205922
0.885871 0.903053 0.234038
0.910634 0.908508 0.278165
0.934680 0.915833 0.326388
0.955528 0.925532 0.384445
0.972999 0.937142 0.453062
0.989342 0.949232 0.529090
0.998395 0.959396 0.660277
0.795325 0.943666 0.199552
0.798267 0.943769 0.201827
0.803628 0.943964 0.206214
0.812254 0.944292 0.214001
0.824319 0.944776 0.226711
0.839773 0.945420 0.247151
0.858259 0.946209 0.279156
0.878336 0.947652 0.318881
0.898074 0.950347 0.366041
0.916640 0.954618 0.416898
0.933833 0.960368 0.471088
0.949786 0.967376 0.527072
0.965297 0.975546 0.576874
0.982031 0.984475 0.612866
0.998101 0.991547 0.670147
0.999842 0.992218 0.830646
0.000284 0.048818 0.109795
0.061459 0.025787 0.176078
0.121592 0.042464 0.168467
0.188132 0.050697 0.172543
0.251206 0.066653 0.173613
0.316319 0.082906 0.170955
0.385037 0.098116 0.156990
0.456120 0.111350 0.137637
0.526590 0.126626 0.119279
0.597417 0.143020 0.101419
0.669185 0.159798 0.082224
0.737452 0.185040 0.074267
0.804760 0.213765 0.077016
0.873349 0.241619 0.086522
0.941809 0.268679 0.099543
0.986437 0.327342 0.166213
0.001189 0.093734 0.137509
0.036957 0.093110 0.176245
0.114611 0.097999 0.171349
0.188035 0.099958 0.173842
0.252821 0.109189 0.171930
0.316859 0.122554 0.163653
0.385609 0.133830 0.150137
0.456935 0.143406 0.134794
0.529804 0.152064 0.118091
0.601073 0.164760 0.102925
0.672831 0.178986 0.086353
0.741655 0.200436 0.078955
0.809253 0.226130 0.081927
0.877754 0.252071 0.091874
0.945562 0.278057 0.104521
0.986782 0.338669 0.176295
0.003065 0.148896 0.160664
0.016298 0.155813 0.171402
0.106380 0.157311 0.173275
0.181173 0.160378 0.169788
0.254319 0.163464 0.163494
0.321226 0.170617 0.157946
0.387126 0.180299 0.153327
0.459035 0.186736 0.143581
0.533743 0.191352 0.129304
0.607995 0.197563 0.113027
0.679570 0.209067 0.099341
0.749545 0.225283 0.090684
0.817516 0.246883 0.093042
0.885528 0.270301 0.103489
0.952154 0.294626 0.114736
0.987397 0.358264 0.194326
0.011590 0.212984 0.162278
0.048765 0.216546 0.161396
0.129186 0.216020 0.167136
0.182660 0.221871 0.174612
0.257338 0.223003 0.169556
0.342086 0.218270 0.159874
0.407277 0.223790 0.164797
0.472473 0.231838 0.165697
0.543389 0.237819 0.157427
0.617895 0.241957 0.142108
0.690693 0.249371 0.127600
0.760483 0.262350 0.119670
0.829035 0.279295 0.119660
0.895963 0.299773 0.128691
0.961421 0.321075 0.135378
0.988349 0.387527 0.222416
0.090037 0.274704 0.151300
0.129329 0.274555 0.152436
0.177872 0.274534 0.157390
0.224741 0.277825 0.166589
0.267533 0.286813 0.170903
0.333416 0.290924 0.166621
0.415455 0.287783 0.156307
0.488838 0.287463 0.169879
0.558862 0.290893 0.176770
0.629270 0.296122 0.177217
0.701439 0.301835 0.171326
0.770593 0.312525 0.169292
0.837914 0.327260 0.172766
0.904107 0.343665 0.177143
0.968032 0.361903 0.180448
0.989549 0.424801 0.261876
0.187490 0.333131 0.138889
0.209283 0.332883 0.142400
0.241559 0.333032 0.148766
0.280535 0.335095 0.157015
0.319406 0.341525 0.160837
0.360738 0.351597 0.159369
0.420618 0.357252 0.160836
0.496679 0.357653 0.139983
0.567579 0.359368 0.157258
0.637343 0.362427 0.186278
0.708819 0.366579 0.198410
0.778694 0.373829 0.208294
0.844313 0.385718 0.220532
0.909897 0.397869 0.225888
0.972105 0.413012 0.232047
0.990733 0.468518 0.308085
0.272208 0.393321 0.111708
0.287143 0.393218 0.115852
0.311319 0.393358 0.123478
0.343826 0.394572 0.135082
0.379688 0.398473 0.147336
0.415708 0.406690 0.152118
0.455287 0.417818 0.150571
0.508219 0.425944 0.164511
0.580351 0.428431 0.139743
0.651745 0.431345 0.133712
0.717758 0.436898 0.177534
0.786754 0.441054 0.211941
0.854438 0.446719 0.231787
0.917330 0.456158 0.251874
0.975649 0.469585 0.272950
0.991805 0.517386 0.352344
0.353422 0.454758 0.080536
0.364243 0.454921 0.083731
0.382673 0.455373 0.090117
0.409256 0.456596 0.101226
0.441035 0.459507 0.117065
0.474501 0.465485 0.133439
0.508140 0.475527 0.141478
0.545077 0.488103 0.147035
0.592044 0.498739 0.177991
0.658139 0.503785 0.165235
0.729821 0.506425 0.138407
0.797056 0.510077 0.152594
0.861530 0.513869 0.206273
0.925390 0.518209 0.245762
0.980301 0.529382 0.285340
0.993102 0.570455 0.382712
0.427035 0.518827 0.077696
0.435231 0.519216 0.079974
0.449560 0.520015 0.084499
0.471067 0.521592 0.092484
0.498216 0.524487 0.104870
0.528541 0.529530 0.122419
0.559455 0.537692 0.141233
0.590811 0.549140 0.151877
0.626159 0.561992 0.159764
0.670513 0.572455 0.192081
0.732207 0.577467 0.185404
0.802288 0.579217 0.147153
0.868295 0.581871 0.141278
0.933629 0.583426 0.173211
0.983337 0.592824 0.270265
0.994271 0.626508 0.400115
0.489699 0.586679 0.091170
0.496264 0.587126 0.092633
0.507947 0.587974 0.095567
0.526012 0.589445 0.101023
0.549775 0.591799 0.110021
0.577658 0.595497 0.122968
0.607587 0.601227 0.138167
0.637959 0.609637 0.150978
0.669065 0.620702 0.155416
0.703951 0.632581 0.161569
0.746540 0.642309 0.191651
0.803467 0.647334 0.194972
0.869746 0.648912 0.161426
0.933859 0.650690 0.149404
0.986913 0.657053 0.209938
0.995337 0.684837 0.396149
0.549732 0.652282 0.105308
0.555266 0.652636 0.106299
0.565157 0.653317 0.108137
0.580593 0.654511 0.111238
0.601272 0.656399 0.116100
0.626291 0.659250 0.123421
0.654223 0.663483 0.133443
0.683430 0.669648 0.144787
0.712807 0.678209 0.153860
0.742946 0.688887 0.157164
0.776647 0.699974 0.164590
0.817343 0.709057 0.192888
0.869782 0.714088 0.207494
0.932343 0.715439 0.183952
0.987656 0.719123 0.214170
0.996311 0.742222 0.401665
0.606912 0.715126 0.116901
0.611623 0.715406 0.117817
0.620090 0.715942 0.119527
0.633415 0.716881 0.122384
0.651458 0.718371 0.126523
0.673609 0.720626 0.131980
0.698907 0.723932 0.138890
0.726155 0.728646 0.147381
0.754125 0.735202 0.156636
0.782138 0.743832 0.164452
0.810972 0.754106 0.169048
0.843153 0.764541 0.178825
0.881536 0.773135 0.207852
0.929827 0.778139 0.233188
0.985596 0.780289 0.244259
0.996953 0.797178 0.435854
0.659452 0.775772 0.129353
0.663491 0.776001 0.130220
0.670781 0.776437 0.131837
0.682333 0.777196 0.134546
0.698142 0.778384 0.138557
0.717826 0.780154 0.144083
0.740682 0.782717 0.151282
0.765752 0.786361 0.160053
0.791979 0.791441 0.170064
0.818430 0.798260 0.180548
0.844913 0.806826 0.189906
0.872475 0.816630 0.196542
0.903428 0.826314 0.208161
0.939971 0.834206 0.238371
0.983875 0.839348 0.281124
0.997259 0.852151 0.484317
0.705908 0.834688 0.145151
0.709407 0.834876 0.146057
0.715743 0.835235 0.147752
0.725840 0.835853 0.150590
0.739784 0.836806 0.154782
0.757364 0.838199 0.160551
0.778099 0.840178 0.168103
0.801285 0.842940 0.177557
0.826108 0.846743 0.188721
0.851682 0.851866 0.200818
0.877384 0.858485 0.212608
0.903147 0.866516 0.227231
0.929858 0.875851 0.250836
0.958536 0.885776 0.297240
0.988432 0.895640 0.376414
0.997588 0.908303 0.563811
0.747268 0.891614 0.163572
0.750417 0.891744 0.164439
0.756136 0.891989 0.166050
0.765292 0.892413 0.168730
0.778012 0.893069 0.172670
0.794196 0.894026 0.178244
0.813562 0.895347 0.186604
0.835596 0.897179 0.199166
0.859701 0.899879 0.218781
0.884822 0.903689 0.251388
0.909806 0.908988 0.295357
0.934014 0.916241 0.341352
0.954806 0.925877 0.398502
0.972190 0.937427 0.466084
0.988599 0.949462 0.539929
0.998373 0.959569 0.665264
0.792020 0.945153 0.210094
0.795045 0.945227 0.212640
0.800554 0.945367 0.217567
0.809416 0.945599 0.226373
0.821808 0.945931 0.240913
0.837664 0.946337 0.264456
0.856481 0.946978 0.296045
0.876761 0.948353 0.333781
0.896711 0.950971 0.379012
0.915499 0.955161 0.428013
0.932922 0.960742 0.481953
0.949055 0.967606 0.537418
0.964726 0.975706 0.585858
0.981596 0.984595 0.620531
0.998029 0.991733 0.673989
0.999844 0.992318 0.833390
0.000403 0.065499 0.140287
0.052777 0.027804 0.239033
0.116405 0.049352 0.224479
0.177482 0.065455 0.225394
0.247716 0.070667 0.233296
0.316047 0.081376 0.235587
0.384344 0.094813 0.234994
0.455925 0.106349 0.228173
0.528432 0.120458 0.210257
0.600917 0.136908 0.186271
0.673992 0.153408 0.160536
0.746696 0.171821 0.136061
0.817675 0.194908 0.118574
0.885892 0.224321 0.116510
0.952571 0.254769 0.123061
0.986753 0.330213 0.196271
0.001199 0.102644 0.174676
0.028012 0.092577 0.240325
0.113945 0.096743 0.234937
0.177910 0.107648 0.229970
0.248291 0.112008 0.234901
0.316162 0.120593 0.235615
0.385473 0.129938 0.233600
0.458462 0.137954 0.222458
0.532960 0.146440 0.201361
0.605062 0.160074 0.178157
0.677260 0.175005 0.155077
0.749398 0.191660 0.133873
0.819989 0.212747 0.120062
0.888137 0.239570 0.120693
0.954666 0.267611 0.127520
0.987062 0.341576 0.203294
0.003264 0.153079 0.202071
0.012209 0.157799 0.223495
0.101647 0.156989 0.237470
0.176493 0.161453 0.233988
0.252304 0.162266 0.236412
0.321688 0.167950 0.233300
0.389562 0.176897 0.225292
0.462465 0.183595 0.209720
0.537464 0.189105 0.189059
0.611740 0.196165 0.167629
0.682986 0.208646 0.150057
0.754194 0.223185 0.135027
0.824263 0.241540 0.126962
0.892143 0.264919 0.131273
0.958370 0.289480 0.137550
0.987617 0.361211 0.216706
0.006987 0.213301 0.224802
0.014832 0.218669 0.232419
0.093170 0.221962 0.234503
0.178477 0.222843 0.234747
0.253619 0.225021 0.230461
0.329108 0.226727 0.222557
0.400360 0.231128 0.212134
0.468740 0.238548 0.202969
0.542604 0.242988 0.188988
0.618350 0.246364 0.172026
0.692252 0.252634 0.156694
0.762021 0.265466 0.149133
0.830740 0.281893 0.148134
0.897631 0.301965 0.154953
0.963282 0.322541 0.159005
0.988484 0.390480 0.239304
0.024988 0.280416 0.222398
0.055785 0.283450 0.220666
0.135881 0.283241 0.219458
0.212486 0.281916 0.223432
0.266514 0.287542 0.228972
0.338534 0.289111 0.223979
0.418026 0.286659 0.222048
0.486446 0.290556 0.223310
0.555076 0.296492 0.218371
0.628042 0.300978 0.206047
0.702418 0.305308 0.191762
0.773513 0.314134 0.183674
0.839794 0.329711 0.187049
0.905176 0.346636 0.191345
0.968514 0.365185 0.194732
0.989646 0.427763 0.272013
0.140028 0.341787 0.201825
0.171188 0.341426 0.201501
0.215207 0.340820 0.201754
0.267780 0.340424 0.206005
0.316018 0.343776 0.214288
0.359403 0.352936 0.216678
0.424293 0.356822 0.211771
0.500251 0.356156 0.207149
0.566040 0.359747 0.235926
0.636632 0.363472 0.243752
0.708013 0.368541 0.244531
0.780397 0.374483 0.240540
0.848059 0.384948 0.240667
0.913079 0.397663 0.240913
0.973597 0.414436 0.245103
0.990945 0.470946 0.316685
0.247586 0.400214 0.178469
0.265810 0.399765 0.180325
0.294917 0.399196 0.184325
0.333414 0.399187 0.191498
0.374772 0.401566 0.199860
0.413982 0.408696 0.203336
0.454548 0.419475 0.201924
0.511846 0.425814 0.207874
0.585533 0.427170 0.189710
0.650346 0.432143 0.215812
0.715379 0.437836 0.254344
0.786054 0.441669 0.267668
0.854597 0.447117 0.276125
0.917998 0.456531 0.286087
0.976499 0.470294 0.296596
0.992034 0.518893 0.365646
0.335569 0.461167 0.148769
0.348269 0.460953 0.151699
0.369620 0.460746 0.157411
0.399886 0.460981 0.167219
0.435292 0.462712 0.180879
0.471501 0.467625 0.195105
