entry/src/main/resources/rawfile/filters/Heartland.cube
TITLE "Heartland - Original look 1.0 (Standard/sRGB base)"
LUT_3D_SIZE 6
0.003795 0.037000 0.052403
0.191592 0.054352 0.037328
0.381408 0.102894 0.058530
0.588604 0.151630 0.048267
0.792195 0.228550 0.062880
0.986247 0.323961 0.140385
0.084129 0.205024 0.056125
0.186799 0.221132 0.078678
0.412125 0.219322 0.062981
0.622793 0.232300 0.087999
0.825378 0.278936 0.103876
0.988256 0.384305 0.210515
0.293590 0.385510 0.042757
0.351544 0.390467 0.058352
0.456081 0.416200 0.076347
0.642638 0.435115 0.076131
0.853018 0.447693 0.173162
0.991692 0.516466 0.332276
0.500603 0.580982 0.074554
0.533098 0.584895 0.081128
0.608620 0.599226 0.103564
0.703079 0.631765 0.123212
0.863517 0.651017 0.137807
0.995305 0.685403 0.362680
0.666530 0.772185 0.118015
0.688152 0.773967 0.122673
0.743663 0.780442 0.137271
0.818871 0.797110 0.162460
0.903010 0.825762 0.187211
0.997179 0.852089 0.467549
0.797099 0.942846 0.194336
0.813788 0.943559 0.207944
0.859215 0.945792 0.269507
0.917256 0.954322 0.410752
0.965616 0.975460 0.571841
0.999840 0.992163 0.829146
0.000403 0.065499 0.140287
0.177482 0.065455 0.225394
0.384344 0.094813 0.234994
0.600917 0.136908 0.186271
0.817675 0.194908 0.118574
0.986753 0.330213 0.196271
0.006987 0.213301 0.224802
0.178477 0.222843 0.234747
0.400360 0.231128 0.212134
0.618350 0.246364 0.172026
0.830740 0.281893 0.148134
0.988484 0.390480 0.239304
0.247586 0.400214 0.178469
0.333414 0.399187 0.191498
0.454548 0.419475 0.201924
0.650346 0.432143 0.215812
0.854597 0.447117 0.276125
0.992034 0.518893 0.365646
0.476306 0.592780 0.120796
0.517396 0.594040 0.139161
0.604852 0.603089 0.193805
0.702422 0.633687 0.217250
0.873770 0.647590 0.198646
0.995375 0.684196 0.428725
0.651166 0.779696 0.144081
0.675495 0.780722 0.150009
0.737048 0.785182 0.169638
0.817493 0.799429 0.206793
0.902990 0.826952 0.239159
0.997332 0.852234 0.501230
0.786588 0.947470 0.230680
0.804848 0.947546 0.251074
0.853499 0.948263 0.321387
0.913616 0.956031 0.445922
0.963830 0.975978 0.599860
0.999848 0.992483 0.837835
0.001185 0.130571 0.258657
0.180085 0.066977 0.418231
0.372097 0.131626 0.401401
0.601597 0.144386 0.403891
0.820601 0.192919 0.398497
0.988214 0.332608 0.406695
0.008587 0.233478 0.348876
0.176387 0.226331 0.420780
0.388956 0.246337 0.400491
0.624202 0.244472 0.400760
0.835796 0.280160 0.395517
0.989867 0.396196 0.399192
0.105831 0.423365 0.405701
0.241486 0.425501 0.404262
0.449466 0.426589 0.396383
0.663846 0.432610 0.375800
0.861875 0.454500 0.360990
0.992815 0.530082 0.414343
0.385148 0.620168 0.355207
0.448732 0.618496 0.357492
0.580685 0.616381 0.376633
0.696425 0.639399 0.394245
0.873395 0.648100 0.411864
0.995747 0.683454 0.548936
0.595670 0.799797 0.308265
0.628042 0.799178 0.311866
0.709562 0.797779 0.336719
0.806978 0.804577 0.387766
0.895173 0.830313 0.414146
0.997688 0.853053 0.584894
0.756232 0.958196 0.374770
0.778015 0.957390 0.389632
0.833966 0.956434 0.434403
0.902690 0.960426 0.544520
0.959274 0.977552 0.670537
0.999871 0.993425 0.862347
0.003043 0.201604 0.388870
0.167204 0.120009 0.587203
0.382060 0.164680 0.563653
0.589272 0.211947 0.556884
0.820089 0.227126 0.580181
0.988659 0.344774 0.596648
0.010331 0.271503 0.482196
0.171403 0.246047 0.592560
0.406749 0.254539 0.580012
0.610567 0.287768 0.564044
0.833349 0.302896 0.588051
0.990201 0.403394 0.600308
0.139969 0.437915 0.551811
0.253105 0.440683 0.554553
0.454093 0.434359 0.592873
0.647155 0.453839 0.579632
0.864039 0.455889 0.596893
0.993430 0.532522 0.612659
0.284535 0.640772 0.595887
0.353211 0.642171 0.596663
0.493946 0.646829 0.598750
0.688682 0.646614 0.592874
0.886273 0.647643 0.569816
0.996269 0.694980 0.616301
0.453096 0.832891 0.547852
0.503539 0.831189 0.546509
0.625340 0.825579 0.546365
0.777556 0.818213 0.566324
0.886310 0.835178 0.589943
0.998095 0.854960 0.708010
0.685788 0.979285 0.552043
0.713962 0.977806 0.558098
0.788327 0.972743 0.593525
0.878829 0.970060 0.677538
0.952398 0.980694 0.770256
0.999910 0.995093 0.902523
0.006919 0.274764 0.532988
0.140107 0.201719 0.736613
0.402793 0.195602 0.745272
0.600784 0.261505 0.709537
0.802593 0.308663 0.734132
0.988381 0.375558 0.753923
0.016982 0.324223 0.620242
0.166872 0.292332 0.738577
0.422500 0.281128 0.753446
0.619005 0.324694 0.723362
0.813424 0.366238 0.742739
0.990050 0.427900 0.756283
0.099832 0.467487 0.715264
0.234601 0.465206 0.737523
0.457365 0.452683 0.775651
0.657582 0.465838 0.767496
0.841564 0.493620 0.761066
0.993490 0.547455 0.765133
0.293539 0.653876 0.756439
0.360831 0.655773 0.751839
0.495822 0.660728 0.752199
0.685291 0.653037 0.793100
0.864124 0.664539 0.769945
0.996652 0.698952 0.789098
0.364125 0.846162 0.782899
0.417589 0.845843 0.783048
0.538195 0.845262 0.784271
0.687500 0.846386 0.788749
0.874295 0.840028 0.785170
0.998444 0.863022 0.820878
0.604497 0.996176 0.782857
0.632420 0.995947 0.784989
0.706002 0.995014 0.796223
0.819655 0.990968 0.830338
0.935861 0.989624 0.873643
0.999963 0.997397 0.952117
0.014462 0.349174 0.689855
0.114804 0.287028 0.880075
0.417198 0.260809 0.908267
0.623575 0.295488 0.898618
0.805244 0.365901 0.886006
0.985054 0.422784 0.898252
0.028365 0.386154 0.767293
0.161825 0.353113 0.884479
0.432017 0.332255 0.915128
0.636077 0.353574 0.915327
0.814995 0.412578 0.894548
0.987198 0.466915 0.899992
0.105278 0.504818 0.873055
0.237762 0.500136 0.900131
0.456157 0.486781 0.939158
0.663568 0.486895 0.949809
0.839588 0.522970 0.916654
0.991575 0.572875 0.906805
0.253300 0.681958 0.902287
0.319404 0.682716 0.910524
0.470756 0.679883 0.939372
0.682380 0.664489 0.973875
0.867139 0.671147 0.953448
0.995833 0.713180 0.926126
0.365277 0.852519 0.955208
0.418418 0.852619 0.951733
0.537790 0.853370 0.942365
0.683278 0.855199 0.942380
0.868454 0.843249 0.977775
0.997630 0.874208 0.951201
0.615411 0.997285 0.961099
0.639613 0.997322 0.964833
0.703742 0.997530 0.976252
0.800033 0.998330 0.992958
0.911238 0.999593 0.999048
1.000000 1.000000 1.000000
