entry/src/main/resources/rawfile/filters/InkNoir.cube
TITLE "Ink Noir"
LUT_3D_SIZE 6
0.000000 0.000000 0.000000
0.007295 0.007152 0.006866
0.029180 0.028608 0.027464
0.065656 0.064369 0.061794
0.116722 0.114433 0.109856
0.182378 0.178802 0.171650
0.028117 0.027566 0.026463
0.064056 0.062800 0.060288
0.114585 0.112338 0.107844
0.179704 0.176180 0.169133
0.259414 0.254327 0.244154
0.353713 0.346778 0.332907
0.112467 0.110262 0.105852
0.177050 0.173578 0.166635
0.256223 0.251199 0.241151
0.349986 0.343123 0.329398
0.458339 0.449352 0.431378
0.576621 0.565315 0.542703
0.253051 0.248090 0.238166
0.346278 0.339488 0.325908
0.454094 0.445190 0.427383
0.572427 0.561203 0.538755
0.679414 0.666092 0.639448
0.771811 0.756677 0.726410
0.449869 0.441048 0.423406
0.568213 0.557071 0.534788
0.675736 0.662487 0.635987
0.768670 0.753598 0.723454
0.847013 0.830405 0.797189
0.910766 0.892908 0.857192
0.672039 0.658862 0.632508
0.765510 0.750500 0.720480
0.844390 0.827833 0.794720
0.908679 0.890862 0.855228
0.958379 0.939587 0.902004
0.993488 0.974008 0.935048
0.001060 0.001040 0.000998
0.013918 0.013646 0.013100
0.041367 0.040556 0.038933
0.083405 0.081770 0.078499
0.140034 0.137288 0.131796
0.211253 0.207110 0.198826
0.040098 0.039312 0.037740
0.081600 0.080000 0.076800
0.137692 0.134992 0.129592
0.208374 0.204288 0.196117
0.293646 0.287889 0.276373
0.393509 0.385793 0.370362
0.135370 0.132716 0.127407
0.205515 0.201486 0.193426
0.290251 0.284560 0.273177
0.389577 0.381938 0.366660
0.503493 0.493620 0.473876
0.618929 0.606793 0.582521
0.286875 0.281250 0.270000
0.385664 0.378102 0.362978
0.499043 0.489258 0.469688
0.614939 0.602881 0.578766
0.716363 0.702317 0.674224
0.803197 0.787448 0.755950
0.494614 0.484916 0.465519
0.610929 0.598950 0.574992
0.712890 0.698912 0.670956
0.800261 0.784570 0.753187
0.873041 0.855923 0.821686
0.931232 0.912972 0.876453
0.709398 0.695488 0.667668
0.797305 0.781672 0.750405
0.870622 0.853551 0.819409
0.929349 0.911127 0.874682
0.973486 0.954398 0.916222
1.000000 0.983365 0.944031
0.004242 0.004159 0.003992
0.022663 0.022218 0.021330
0.055674 0.054582 0.052399
0.103275 0.101250 0.097200
0.165467 0.162222 0.155733
0.242248 0.237498 0.227998
0.054201 0.053138 0.051012
0.101265 0.099280 0.095308
0.162920 0.159726 0.153336
0.239165 0.234476 0.225096
0.330000 0.323530 0.310588
0.435426 0.426888 0.409812
0.160393 0.157248 0.150958
0.236102 0.231472 0.222213
0.326400 0.320000 0.307200
0.431289 0.422832 0.405919
0.549200 0.538432 0.516894
0.659115 0.646191 0.620344
0.322819 0.316490 0.303830
0.427171 0.418796 0.402044
0.544878 0.534194 0.512827
0.655330 0.642480 0.616781
0.751191 0.736462 0.707004
0.832462 0.816140 0.783494
0.540537 0.529938 0.508740
0.651525 0.638750 0.613200
0.747923 0.733258 0.703928
0.829731 0.813462 0.780923
0.896949 0.879361 0.844187
0.949576 0.930957 0.893718
0.744635 0.730034 0.700833
0.826980 0.810764 0.778334
0.894734 0.877190 0.842103
0.947898 0.929312 0.892140
0.986472 0.967130 0.928444
1.000000 0.990643 0.951017
0.009544 0.009357 0.008983
0.033528 0.032870 0.031556
0.072102 0.070688 0.067860
0.125266 0.122810 0.117897
0.193020 0.189236 0.181666
0.275365 0.269966 0.259167
0.070424 0.069043 0.066282
0.123051 0.120639 0.115813
0.190269 0.186538 0.179077
0.272077 0.266742 0.256072
0.368475 0.361250 0.346800
0.479463 0.470062 0.451260
0.187538 0.183860 0.176506
0.268809 0.263538 0.252996
0.364670 0.357520 0.343219
0.475122 0.465806 0.447173
0.592829 0.581204 0.557956
0.697181 0.683510 0.656170
0.360885 0.353809 0.339656
0.470800 0.461568 0.443106
0.588711 0.577168 0.554081
0.693600 0.680000 0.652800
0.783898 0.768528 0.737787
0.859607 0.842752 0.809042
0.584574 0.573112 0.550188
0.690000 0.676470 0.649412
0.780835 0.765524 0.734904
0.857080 0.840274 0.806664
0.918735 0.900720 0.864692
0.965799 0.946862 0.908988
0.777752 0.762502 0.732002
0.854533 0.837778 0.804267
0.916725 0.898750 0.862800
0.964326 0.945418 0.907601
0.997337 0.977782 0.938670
1.000000 0.995841 0.956008
0.016968 0.016635 0.015969
0.046514 0.045602 0.043778
0.090651 0.088873 0.085318
0.149378 0.146449 0.140591
0.222695 0.218328 0.209595
0.310602 0.304512 0.292332
0.088768 0.087028 0.083547
0.146959 0.144077 0.138314
0.219739 0.215430 0.206813
0.307110 0.301088 0.289044
0.409071 0.401050 0.385008
0.525386 0.515084 0.494481
0.216803 0.212552 0.204050
0.303637 0.297683 0.285776
0.405061 0.397119 0.381234
0.520957 0.510742 0.490312
0.634336 0.621898 0.597022
0.733125 0.718750 0.690000
0.401071 0.393207 0.377479
0.516507 0.506380 0.486124
0.630423 0.618062 0.593340
0.729749 0.715440 0.686823
0.814485 0.798514 0.766574
0.884630 0.867284 0.832593
0.626491 0.614207 0.589638
0.726354 0.712111 0.683627
0.811626 0.795712 0.763883
0.882308 0.865008 0.830408
0.938400 0.920000 0.883200
0.979902 0.960688 0.922260
0.808747 0.792890 0.761174
0.879966 0.862712 0.828204
0.936595 0.918230 0.881501
0.978633 0.959444 0.921067
1.000000 0.986354 0.946900
1.000000 0.998960 0.959002
0.026512 0.025992 0.024952
0.061621 0.060413 0.057996
0.111321 0.109138 0.104772
0.175610 0.172167 0.165280
0.254490 0.249500 0.239520
0.347961 0.341138 0.327492
0.109234 0.107092 0.102808
0.172987 0.169595 0.162811
0.251330 0.246402 0.236546
0.344264 0.337513 0.324013
0.451787 0.442929 0.425212
0.570131 0.558952 0.536594
0.248189 0.243323 0.233590
0.340586 0.333908 0.320552
0.447573 0.438797 0.421245
0.565906 0.554810 0.532617
0.673722 0.660512 0.634092
0.766949 0.751910 0.721834
0.443379 0.434685 0.417297
0.561661 0.550648 0.528622
0.670014 0.656877 0.630602
0.763777 0.748801 0.718849
0.842950 0.826422 0.793365
0.907533 0.889738 0.854148
0.666287 0.653222 0.627093
0.760586 0.745673 0.715846
0.840296 0.823820 0.790867
0.905415 0.887662 0.852156
0.955944 0.937200 0.899712
0.991883 0.972434 0.933537
0.837622 0.821198 0.788350
0.903278 0.885567 0.850144
0.954344 0.935631 0.898206
0.990820 0.971392 0.932536
1.000000 0.992848 0.953134
1.000000 1.000000 0.960000
