entry/src/main/resources/rawfile/filters/InkNoir.cube
TITLE "Ink Noir"
LUT_3D_SIZE 16
0.000000 0.000000 0.000000
0.000811 0.000795 0.000763
0.003242 0.003179 0.003052
0.007295 0.007152 0.006866
0.012969 0.012715 0.012206
0.020264 0.019867 0.019072
0.029180 0.028608 0.027464
0.039718 0.038939 0.037382
0.051876 0.050859 0.048825
0.065656 0.064369 0.061794
0.081057 0.079468 0.076289
0.098079 0.096156 0.092310
0.116722 0.114433 0.109856
0.136986 0.134300 0.128928
0.158872 0.155756 0.149526
0.182378 0.178802 0.171650
0.003124 0.003063 0.002940
0.007117 0.006978 0.006699
0.012732 0.012482 0.011983
0.019967 0.019576 0.018793
0.028824 0.028259 0.027128
0.039301 0.038531 0.036990
0.051400 0.050393 0.048377
0.065120 0.063844 0.061290
0.080462 0.078884 0.075729
0.097424 0.095514 0.091693
0.116007 0.113733 0.109183
0.136212 0.133541 0.128199
0.158038 0.154939 0.148741
0.181485 0.177926 0.170809
0.206553 0.202502 0.194402
0.233242 0.228668 0.219522
0.012496 0.012251 0.011761
0.019672 0.019286 0.018515
0.028469 0.027911 0.026795
0.038887 0.038125 0.036600
0.050927 0.049928 0.047931
0.064587 0.063321 0.060788
0.079868 0.078302 0.075170
0.096771 0.094874 0.091079
0.115295 0.113034 0.108513
0.135440 0.132784 0.127473
0.157206 0.154124 0.147959
0.180593 0.177052 0.169970
0.205602 0.201570 0.193507
0.232231 0.227678 0.218570
0.260482 0.255374 0.245159
0.290353 0.284660 0.273274
0.028117 0.027566 0.026463
0.038475 0.037721 0.036212
0.050455 0.049466 0.047487
0.064056 0.062800 0.060288
0.079278 0.077723 0.074614
0.096121 0.094236 0.090466
0.114585 0.112338 0.107844
0.134670 0.132029 0.126748
0.156377 0.153310 0.147178
0.179704 0.176180 0.169133
0.204653 0.200640 0.192614
0.231223 0.226689 0.217621
0.259414 0.254327 0.244154
0.289226 0.283555 0.272213
0.320659 0.314372 0.301797
0.353713 0.346778 0.332907
0.049985 0.049005 0.047045
0.063527 0.062281 0.059790
0.078689 0.077146 0.074060
0.095472 0.093600 0.089856
0.113877 0.111644 0.107178
0.133902 0.131277 0.126026
0.155549 0.152499 0.146399
0.178817 0.175311 0.168299
0.203706 0.199712 0.191724
0.230216 0.225702 0.216674
0.258348 0.253282 0.243151
0.288100 0.282451 0.271153
0.319474 0.313210 0.300681
0.352469 0.345558 0.331735
0.387085 0.379495 0.364315
0.423322 0.415021 0.398420
0.078102 0.076571 0.073508
0.094826 0.092967 0.089248
0.113171 0.110952 0.106514
0.133137 0.130526 0.125305
0.154724 0.151690 0.145623
0.177932 0.174444 0.167466
0.202762 0.198786 0.190835
0.229212 0.224718 0.215729
0.257284 0.252239 0.242150
0.286977 0.281350 0.270096
0.318291 0.312050 0.299568
0.351226 0.344339 0.330566
0.385782 0.378218 0.363089
0.421960 0.413686 0.397139
0.459758 0.450743 0.432714
0.499178 0.489390 0.469815
0.112467 0.110262 0.105852
0.132374 0.129778 0.124587
0.153901 0.150884 0.144848
0.177050 0.173578 0.166635
0.201820 0.197862 0.189948
0.228211 0.223736 0.214786
0.256223 0.251199 0.241151
0.285856 0.280251 0.269041
0.317110 0.310892 0.298457
0.349986 0.343123 0.329398
0.384482 0.376944 0.361866
0.420600 0.412353 0.395859
0.458339 0.449352 0.431378
0.497699 0.487940 0.468423
0.537896 0.527349 0.506255
0.576621 0.565315 0.542703
0.153081 0.150079 0.144076
0.176170 0.172715 0.165807
0.200880 0.196941 0.189063
0.227211 0.222756 0.213846
0.255163 0.250160 0.240154
0.284737 0.279154 0.267988
0.315932 0.309737 0.297347
0.348748 0.341909 0.328233
0.383185 0.375671 0.360644
0.419243 0.411022 0.394581
0.456922 0.447963 0.430044
0.496222 0.486492 0.467033
0.536440 0.525922 0.504885
0.575225 0.563947 0.541389
0.612390 0.600382 0.576367
0.647933 0.635228 0.609819
0.199942 0.196021 0.188181
0.226214 0.221778 0.212907
0.254106 0.249124 0.239159
0.283620 0.278059 0.266937
0.314755 0.308584 0.296240
0.347512 0.340698 0.327070
0.381889 0.374401 0.359425
0.417887 0.409694 0.393306
0.455507 0.446576 0.428712
0.494748 0.485047 0.465645
0.534982 0.524492 0.503513
0.573827 0.562576 0.540073
0.611051 0.599070 0.575107
0.646654 0.633974 0.608615
0.680635 0.667290 0.640598
0.712996 0.699015 0.671055
0.253051 0.248090 0.238166
0.282506 0.276966 0.265888
0.313581 0.307433 0.295135
0.346278 0.339488 0.325908
0.380595 0.373133 0.358207
0.416534 0.408367 0.392032
0.454094 0.445190 0.427383
0.493275 0.483603 0.464259
0.533522 0.523061 0.502139
0.572427 0.561203 0.538755
0.609710 0.597755 0.573845
0.645373 0.632718 0.607410
0.679414 0.666092 0.639448
0.711834 0.697876 0.669961
0.742633 0.728071 0.698949
0.771811 0.756677 0.726410
0.312409 0.306284 0.294032
0.345046 0.338281 0.324749
0.379304 0.371867 0.356992
0.415183 0.407043 0.390761
0.452684 0.443808 0.426055
0.491805 0.482162 0.462876
0.532060 0.521628 0.500762
0.571024 0.559828 0.537435
0.608367 0.596439 0.572581
0.644089 0.631460 0.606202
0.678190 0.664892 0.638297
0.710670 0.696735 0.668866
0.741529 0.726989 0.697909
0.770766 0.755653 0.725427
0.798382 0.782728 0.751419
0.824377 0.808213 0.775885
0.378015 0.370603 0.355779
0.413835 0.405720 0.389492
0.451275 0.442427 0.424730
0.490337 0.480723 0.461494
0.530596 0.520192 0.499384
0.569620 0.558451 0.536113
0.607022 0.595120 0.571315
0.642804 0.630200 0.604992
0.676964 0.663691 0.637143
0.709504 0.695592 0.667768
0.740422 0.725904 0.696868
0.769719 0.754627 0.724441
0.797395 0.781760 0.750489
0.823450 0.807304 0.775012
0.847883 0.831258 0.798008
0.870696 0.853623 0.819478
0.449869 0.441048 0.423406
0.488871 0.479286 0.460114
0.529129 0.518754 0.498004
0.568213 0.557071 0.534788
0.605675 0.593799 0.570047
0.641516 0.628938 0.603780
0.675736 0.662487 0.635987
0.708335 0.694446 0.666669
0.739313 0.724817 0.695824
0.768670 0.753598 0.723454
0.796406 0.780790 0.749558
0.822520 0.806392 0.774136
0.847013 0.830405 0.797189
0.869885 0.852829 0.818716
0.891136 0.873663 0.838717
0.910766 0.892908 0.857192
0.527660 0.517314 0.496622
0.566804 0.555690 0.533462
0.604326 0.592476 0.568777
0.640226 0.627673 0.602566
0.674506 0.661281 0.634829
0.707165 0.693299 0.665567
0.738202 0.723728 0.694779
0.767619 0.752567 0.722465
0.795414 0.779818 0.748625
0.821588 0.805478 0.773259
0.846141 0.829550 0.796368
0.869073 0.852032 0.817951
0.890383 0.872925 0.838008
0.910073 0.892228 0.856539
0.928141 0.909942 0.873545
0.944588 0.926067 0.889024
0.602974 0.591151 0.567505
0.638934 0.626406 0.601350
0.673274 0.660072 0.633669
0.705992 0.692149 0.664463
0.737089 0.722636 0.693731
0.766565 0.751534 0.721473
0.794420 0.778843 0.747689
0.820654 0.804562 0.772380
0.845266 0.828692 0.795545
0.868258 0.851233 0.817184
0.889628 0.872184 0.837297
0.909377 0.891546 0.855884
0.927505 0.909319 0.872946
0.944012 0.925502 0.888482
0.958898 0.940096 0.902492
0.972162 0.953100 0.914976
0.672039 0.658862 0.632508
0.704817 0.690997 0.663357
0.735974 0.721543 0.692681
0.765510 0.750500 0.720480
0.793424 0.777867 0.746752
0.819717 0.803644 0.771499
0.844390 0.827833 0.794720
0.867441 0.850432 0.816415
0.888871 0.871442 0.836584
0.908679 0.890862 0.855228
0.926867 0.908693 0.872345
0.943433 0.924935 0.887937
0.958379 0.939587 0.902004
0.971703 0.952650 0.914544
0.983406 0.964124 0.925559
0.993488 0.974008 0.935048
0.000118 0.000116 0.000111
0.001546 0.001516 0.001456
0.004596 0.004506 0.004326
0.009267 0.009086 0.008722
0.015559 0.015254 0.014644
0.023473 0.023012 0.022092
0.033007 0.032360 0.031065
0.044162 0.043296 0.041565
0.056939 0.055823 0.053590
0.071337 0.069938 0.067140
0.087356 0.085643 0.082217
0.104996 0.102937 0.098819
0.124257 0.121820 0.116948
0.145139 0.142293 0.136602
0.167643 0.164356 0.157781
0.191767 0.188007 0.180487
0.004455 0.004368 0.004193
0.009067 0.008889 0.008533
0.015299 0.014999 0.014399
0.023153 0.022699 0.021791
0.032627 0.031988 0.030708
0.043723 0.042866 0.041151
0.056440 0.055334 0.053120
0.070778 0.069391 0.066615
0.086738 0.085037 0.081635
0.104318 0.102273 0.098182
0.123520 0.121098 0.116254
0.144342 0.141512 0.135852
0.166786 0.163516 0.156975
0.190851 0.187109 0.179624
0.216537 0.212291 0.203800
0.243844 0.239063 0.229501
0.015041 0.014746 0.014156
0.022835 0.022387 0.021492
0.032250 0.031618 0.030353
0.043286 0.042438 0.040740
0.055944 0.054847 0.052653
0.070222 0.068845 0.066091
0.086122 0.084433 0.081056
0.103643 0.101610 0.097546
0.122784 0.120377 0.115562
0.143547 0.140733 0.135103
0.165932 0.162678 0.156171
0.189937 0.186213 0.178764
0.215563 0.211337 0.202883
0.242811 0.238050 0.228528
0.271680 0.266353 0.255699
0.302170 0.296245 0.284395
0.031875 0.031250 0.030000
0.042852 0.042011 0.040331
0.055449 0.054362 0.052188
0.069668 0.068302 0.065570
0.085508 0.083831 0.080478
0.102969 0.100950 0.096912
0.122051 0.119658 0.114872
0.142755 0.139956 0.134358
0.165079 0.161843 0.155369
0.189025 0.185319 0.177906
0.214592 0.210384 0.201969
0.241780 0.237039 0.227558
0.270589 0.265283 0.254672
0.301019 0.295117 0.283312
0.333071 0.326540 0.313478
0.366743 0.359552 0.345170
0.054957 0.053880 0.051724
0.069116 0.067761 0.065051
0.084897 0.083232 0.079903
0.102298 0.100292 0.096281
0.121321 0.118942 0.114184
0.141964 0.139181 0.133614
0.164229 0.161009 0.154569
0.188115 0.184427 0.177050
0.213623 0.209434 0.201057
0.240751 0.236030 0.226589
0.269500 0.264216 0.253647
0.299871 0.293991 0.282231
0.331863 0.325356 0.312341
0.365476 0.358309 0.343977
0.400710 0.392852 0.377138
0.437565 0.428985 0.411826
0.084287 0.082635 0.079329
0.101629 0.099636 0.095651
0.120592 0.118228 0.113499
0.141176 0.138408 0.132872
0.163382 0.160178 0.153771
0.187208 0.183537 0.176196
0.212655 0.208486 0.200146
0.239724 0.235024 0.225623
0.268414 0.263151 0.252625
0.298725 0.292868 0.281153
0.330657 0.324174 0.311207
0.364210 0.357069 0.342786
0.399385 0.391554 0.375891
0.436180 0.427628 0.410522
0.474597 0.465291 0.446679
0.514614 0.504523 0.484342
0.119866 0.117516 0.112815
0.140390 0.137638 0.132132
0.162536 0.159349 0.152975
0.186303 0.182650 0.175344
0.211691 0.207540 0.199238
0.238700 0.234019 0.224658
0.267330 0.262088 0.251604
0.297581 0.291746 0.280076
0.329454 0.322994 0.310074
0.362947 0.355830 0.341597
0.398062 0.390257 0.374646
0.434798 0.426272 0.409221
0.473155 0.463877 0.445322
0.513123 0.503062 0.482939
0.552852 0.542012 0.520331
0.590960 0.579372 0.556197
0.161692 0.158522 0.152181
0.185400 0.181764 0.174494
0.210728 0.206596 0.198332
0.237677 0.233017 0.223696
0.266248 0.261027 0.250586
0.296439 0.290627 0.279002
0.328252 0.321816 0.308943
0.361686 0.354594 0.340411
0.396741 0.388962 0.373404
0.433417 0.424919 0.407922
0.471715 0.462466 0.443967
0.511631 0.501599 0.481535
0.551419 0.540607 0.518983
0.589586 0.578026 0.554905
0.626132 0.613855 0.589301
0.661057 0.648095 0.622172
0.209767 0.205654 0.197428
0.236657 0.232017 0.222736
0.265168 0.259969 0.249570
0.295300 0.289510 0.277929
0.327053 0.320640 0.307815
0.360427 0.353360 0.339226
0.395423 0.387669 0.372163
0.432039 0.423568 0.406625
0.470277 0.461056 0.442614
0.510136 0.500133 0.480128
0.549984 0.539200 0.517632
0.588211 0.576677 0.553610
0.624817 0.612565 0.588063
0.659801 0.646864 0.620989
0.693165 0.679573 0.652390
0.724907 0.710693 0.682265
0.264090 0.258912 0.248556
0.294163 0.288395 0.276859
0.325856 0.319467 0.306688
0.359171 0.352128 0.338043
0.394107 0.386379 0.370924
0.430664 0.422219 0.405330
0.468842 0.459649 0.441263
0.508641 0.498668 0.478721
0.548547 0.537791 0.516279
0.586833 0.575327 0.552314
0.623499 0.611273 0.586822
0.658543 0.645630 0.619805
0.691966 0.678398 0.651262
0.723768 0.709576 0.681193
0.753949 0.739165 0.709599
0.782508 0.767165 0.736479
0.324662 0.318296 0.305564
0.357917 0.350899 0.336863
0.392793 0.385091 0.369687
0.429290 0.420873 0.404038
0.467408 0.458244 0.439914
0.507148 0.497204 0.477316
0.547107 0.536380 0.514925
0.585453 0.573974 0.551015
0.622178 0.609979 0.585580
0.657282 0.644394 0.618619
0.690765 0.677221 0.650132
0.722627 0.708458 0.680119
0.752867 0.738105 0.708581
0.781486 0.766163 0.735517
0.808485 0.792632 0.760927
0.833862 0.817511 0.784811
0.391481 0.383805 0.368453
0.427919 0.419528 0.402747
0.465977 0.456841 0.438567
0.505657 0.495742 0.475913
0.545666 0.534966 0.513568
0.584071 0.572619 0.549714
0.620856 0.608682 0.584335
0.656020 0.643156 0.617430
0.689562 0.676041 0.649000
0.721483 0.707336 0.679043
0.751783 0.737042 0.707561
0.780462 0.765159 0.734553
0.807520 0.791686 0.760019
0.832957 0.816624 0.783959
0.856772 0.839973 0.806374
0.878967 0.861732 0.827263
0.464548 0.455440 0.437222
0.504169 0.494283 0.474512
0.544222 0.533551 0.512209
0.582687 0.571262 0.548412
0.619532 0.607384 0.583089
0.654755 0.641916 0.616240
0.688357 0.674860 0.647865
0.720338 0.706213 0.677965
0.750697 0.735978 0.706539
0.779436 0.764153 0.733587
0.806553 0.790739 0.759109
0.832050 0.815735 0.783106
0.855925 0.839142 0.805576
0.878179 0.860960 0.826521
0.898812 0.881188 0.845941
0.917824 0.899827 0.863834
0.542776 0.532133 0.510848
0.581301 0.569903 0.547107
0.618205 0.606083 0.581840
0.653488 0.640674 0.615047
0.687149 0.673676 0.646729
0.719190 0.705088 0.676884
0.749609 0.734911 0.705514
0.778407 0.763144 0.732619
0.805584 0.789789 0.758197
0.831140 0.814844 0.782250
0.855075 0.838309 0.804777
0.877389 0.860185 0.825778
0.898082 0.880472 0.845253
0.917153 0.899170 0.863203
0.934603 0.916278 0.879627
0.950432 0.931796 0.894525
0.616876 0.604780 0.580589
0.652218 0.639430 0.613852
0.685940 0.672490 0.645590
0.718040 0.703961 0.675802
0.748519 0.733842 0.704488
0.777377 0.762134 0.731649
0.804613 0.788837 0.757283
0.830229 0.813950 0.781392
0.854223 0.837474 0.803975
0.876597 0.859409 0.825032
0.897349 0.879754 0.844564
0.916480 0.898510 0.862569
0.933990 0.915676 0.879049
0.949879 0.931254 0.894004
0.964146 0.945242 0.907432
0.976793 0.957640 0.919334
0.684728 0.671302 0.644450
0.716888 0.702831 0.674718
0.747426 0.732771 0.703460
0.776344 0.761121 0.730676
0.803640 0.787882 0.756367
0.829315 0.813054 0.780532
0.853369 0.836637 0.803171
0.875802 0.858630 0.824285
0.896614 0.879034 0.843872
0.915805 0.897848 0.861934
0.933375 0.915073 0.878470
0.949323 0.930709 0.893480
0.963650 0.944755 0.906965
0.976356 0.957212 0.918924
0.987441 0.968080 0.929357
0.996905 0.977358 0.938264
0.000471 0.000462 0.000444
0.002518 0.002469 0.002370
0.006186 0.006065 0.005822
0.011475 0.011250 0.010800
0.018385 0.018025 0.017304
0.026916 0.026389 0.025333
0.037069 0.036342 0.034888
0.048843 0.047885 0.045969
0.062237 0.061017 0.058576
0.077253 0.075738 0.072709
0.093890 0.092049 0.088367
0.112148 0.109949 0.105551
0.132027 0.129439 0.124261
0.153528 0.150518 0.144497
0.176649 0.173186 0.166258
0.201392 0.197443 0.189546
0.006022 0.005904 0.005668
0.011252 0.011031 0.010590
0.018102 0.017747 0.017037
0.026574 0.026053 0.025011
0.036667 0.035948 0.034510
0.048381 0.047432 0.045535
0.061716 0.060506 0.058085
0.076672 0.075169 0.072162
0.093249 0.091421 0.087764
0.111448 0.109263 0.104892
0.131267 0.128694 0.123546
0.152708 0.149714 0.143725
0.175770 0.172324 0.165431
0.200453 0.196523 0.188662
0.226757 0.222311 0.213419
0.254683 0.249689 0.239701
0.017821 0.017472 0.016773
0.026234 0.025719 0.024690
0.036267 0.035556 0.034133
0.047921 0.046981 0.045102
0.061196 0.059996 0.057597
0.076093 0.074601 0.071617
0.092611 0.090795 0.087163
0.110750 0.108578 0.104235
0.130510 0.127951 0.122833
0.151891 0.148912 0.142956
0.174893 0.171464 0.164605
0.199516 0.195604 0.187780
0.225761 0.221334 0.212481
0.253627 0.248654 0.238707
0.283113 0.277562 0.266460
0.314221 0.308060 0.295738
0.035869 0.035166 0.033759
0.047463 0.046533 0.044672
0.060679 0.059490 0.057110
0.075516 0.074036 0.071074
0.091974 0.090171 0.086564
0.110054 0.107896 0.103580
0.129754 0.127210 0.122121
0.151075 0.148113 0.142189
0.174018 0.170606 0.163782
0.198582 0.194688 0.186900
0.224767 0.220359 0.211545
0.252573 0.247620 0.237715
0.282000 0.276470 0.265412
0.313048 0.306910 0.294634
0.345718 0.338939 0.325381
0.380008 0.372557 0.357655
0.060164 0.058985 0.056625
0.074942 0.073472 0.070533
0.091340 0.089549 0.085967
0.109360 0.107215 0.102927
0.129000 0.126471 0.121412
0.150262 0.147316 0.141423
0.173145 0.169750 0.162960
0.197649 0.193774 0.186023
0.223775 0.219387 0.210611
0.251521 0.246589 0.236726
0.280889 0.275381 0.264366
0.311877 0.305762 0.293532
0.344487 0.337732 0.324223
0.378718 0.371292 0.356440
0.414570 0.406441 0.390184
0.452043 0.443180 0.425453
0.090708 0.088930 0.085372
0.108668 0.106537 0.102276
0.128249 0.125734 0.120705
0.149451 0.146521 0.140660
0.172275 0.168897 0.162141
0.196719 0.192862 0.185147
0.222785 0.218416 0.209680
0.250472 0.245560 0.235738
0.279779 0.274294 0.263322
0.310708 0.304616 0.292431
0.343259 0.336528 0.323067
0.377430 0.370029 0.355228
0.413222 0.405120 0.388915
0.450636 0.441800 0.424128
0.489671 0.480069 0.460867
0.529929 0.519539 0.498757
0.127500 0.125000 0.120000
0.148643 0.145728 0.139899
0.171406 0.168045 0.161324
0.195791 0.191952 0.184274
0.221797 0.217448 0.208750
0.249424 0.244534 0.234752
0.278672 0.273208 0.262280
0.309542 0.303472 0.291334
0.342032 0.335326 0.321913
0.376144 0.368769 0.354018
0.411877 0.403801 0.387649
0.449231 0.440422 0.422806
0.488206 0.478633 0.459488
0.528462 0.518100 0.497376
0.567572 0.556444 0.534186
0.605062 0.593198 0.569470
0.170540 0.167196 0.160508
0.194865 0.191044 0.183403
0.220812 0.216482 0.207823
0.248379 0.243509 0.233769
0.277568 0.272125 0.261240
0.308377 0.302331 0.290238
0.340808 0.334126 0.320761
0.374860 0.367510 0.352810
0.410534 0.402484 0.386385
0.447828 0.439047 0.421485
0.486743 0.477199 0.458111
0.526992 0.516659 0.495993
0.566162 0.555061 0.532859
0.603711 0.591874 0.568199
0.639639 0.627098 0.602014
0.673946 0.660732 0.634302
0.219828 0.215518 0.206897
0.247336 0.242486 0.232787
0.276465 0.271044 0.260203
0.307215 0.301191 0.289144
0.339587 0.332928 0.319611
0.373579 0.366254 0.351604
0.409192 0.401169 0.385122
0.446427 0.437674 0.420167
0.485283 0.475768 0.456737
0.525520 0.515216 0.494607
0.564750 0.553676 0.531529
0.602359 0.590548 0.566926
0.638346 0.625830 0.600797
0.672713 0.659522 0.633142
0.705458 0.691626 0.663961
0.736583 0.722140 0.693254
0.275365 0.269966 0.259167
0.306055 0.300054 0.288052
0.338367 0.331732 0.318463
0.372300 0.365000 0.350400
0.407854 0.399856 0.383862
0.445029 0.436303 0.418850
0.483825 0.474338 0.455364
0.524046 0.513771 0.493220
0.563335 0.552290 0.530198
0.601004 0.589220 0.565651
0.637051 0.624560 0.599578
0.671477 0.658311 0.631979
0.704282 0.690473 0.662854
0.735466 0.721045 0.692203
0.765029 0.750028 0.720027
0.792971 0.777422 0.746325
0.337149 0.330539 0.317317
0.371023 0.363748 0.349198
0.406517 0.398546 0.382604
0.443632 0.434934 0.417536
0.482369 0.472911 0.453994
0.522570 0.512323 0.491830
0.561919 0.550901 0.528865
0.599647 0.587889 0.564373
0.635754 0.623288 0.598356
0.670240 0.657098 0.630814
0.703104 0.689318 0.661745
0.734348 0.719949 0.691151
0.763970 0.748990 0.719031
0.791971 0.776442 0.745385
0.818351 0.802305 0.770213
0.843110 0.826579 0.793516
0.405182 0.397238 0.381348
0.442238 0.433567 0.416224
0.480915 0.471485 0.452626
0.521091 0.510874 0.490439
0.560500 0.549510 0.527529
0.598288 0.586556 0.563094
0.634454 0.622014 0.597133
0.669000 0.655882 0.629647
0.701924 0.688161 0.660634
0.733227 0.718850 0.690096
0.762909 0.747950 0.718032
0.790970 0.775461 0.744442
0.817410 0.801382 0.769327
0.842228 0.825714 0.792685
0.865426 0.848457 0.814518
0.887002 0.869610 0.834825
0.479463 0.470062 0.451260
0.519610 0.509422 0.489045
0.559079 0.548116 0.526192
0.596926 0.585222 0.561813
0.633152 0.620738 0.595908
0.667757 0.654664 0.628478
0.700741 0.687001 0.659521
0.732104 0.717749 0.689039
0.761846 0.746908 0.717031
0.789966 0.774477 0.743498
0.816466 0.800456 0.768438
0.841344 0.824847 0.791853
0.864601 0.847648 0.813742
0.886237 0.868860 0.834105
0.906252 0.888482 0.852943
0.924645 0.906515 0.870255
0.557655 0.546721 0.524852
0.595562 0.583885 0.560529
0.631848 0.619459 0.594681
0.666513 0.653444 0.627306
0.699557 0.685840 0.658406
0.730979 0.716646 0.687980
0.760780 0.745863 0.716029
0.788960 0.773491 0.742551
0.815519 0.799529 0.767548
0.840457 0.823978 0.791019
0.863774 0.846837 0.812964
0.885470 0.868108 0.833383
0.905544 0.887788 0.852277
0.923997 0.905880 0.869645
0.940830 0.922382 0.885487
0.956041 0.937295 0.899803
0.630542 0.618179 0.593451
0.665266 0.652222 0.626133
0.698370 0.684676 0.657289
0.729852 0.715541 0.686919
0.759713 0.744816 0.715024
0.787952 0.772502 0.741602
0.814571 0.798599 0.766655
0.839569 0.823106 0.790182
0.862945 0.846024 0.812184
0.884700 0.867353 0.832659
0.904834 0.887092 0.851609
0.923347 0.905242 0.869033
0.940239 0.921803 0.884931
0.955510 0.936774 0.899303
0.969159 0.950156 0.912150
0.981188 0.961949 0.923471
0.697181 0.683510 0.656170
0.728722 0.714434 0.685856
0.758643 0.743767 0.714017
0.786942 0.771512 0.740652
0.813621 0.797667 0.765761
0.838678 0.822233 0.789344
0.862114 0.845210 0.811401
0.883929 0.866597 0.831933
0.904122 0.886394 0.850939
0.922695 0.904603 0.868419
0.939646 0.921222 0.884373
0.954977 0.936252 0.898802
0.968686 0.949692 0.911704
0.980774 0.961543 0.923081
0.991241 0.971805 0.932933
1.000000 0.980477 0.941258
0.001060 0.001040 0.000998
0.003725 0.003652 0.003506
0.008011 0.007854 0.007540
0.013918 0.013646 0.013100
0.021447 0.021026 0.020185
0.030596 0.029996 0.028796
0.041367 0.040556 0.038933
0.053758 0.052704 0.050596
0.067771 0.066442 0.063785
0.083405 0.081770 0.078499
0.100660 0.098686 0.094739
0.119536 0.117193 0.112505
0.140034 0.137288 0.131796
0.162152 0.158973 0.152614
0.185892 0.182247 0.174957
0.211253 0.207110 0.198826
0.007825 0.007671 0.007365
0.013672 0.013404 0.012868
0.021141 0.020726 0.019897
0.030231 0.029638 0.028452
0.040942 0.040139 0.038533
0.053274 0.052229 0.050140
0.067227 0.065909 0.063272
0.082801 0.081178 0.077931
0.099997 0.098036 0.094114
0.118813 0.116484 0.111824
0.139251 0.136521 0.131060
0.161310 0.158147 0.151821
0.184990 0.181363 0.174108
0.210291 0.206168 0.197921
0.237213 0.232562 0.223260
0.265757 0.260546 0.250124
0.020838 0.020429 0.019612
0.029868 0.029282 0.028111
0.040519 0.039724 0.038135
0.052791 0.051756 0.049686
0.066685 0.065377 0.062762
0.082199 0.080588 0.077364
0.099335 0.097388 0.093492
0.118092 0.115777 0.111146
0.138470 0.135755 0.130325
0.160470 0.157323 0.151030
0.184090 0.180480 0.173261
0.209331 0.205227 0.197018
0.236194 0.231563 0.222300
0.264678 0.259488 0.249109
0.294783 0.289003 0.277443
0.326509 0.320107 0.307302
0.040098 0.039312 0.037740
0.052311 0.051285 0.049234
0.066145 0.064848 0.062254
0.081600 0.080000 0.076800
0.098676 0.096741 0.092872
0.117373 0.115072 0.110469
0.137692 0.134992 0.129592
0.159632 0.156501 0.150241
0.183192 0.179600 0.172416
0.208374 0.204288 0.196117
0.235177 0.230566 0.221343
0.263601 0.258433 0.248095
0.293646 0.287889 0.276373
0.325313 0.318934 0.306177
0.358600 0.351569 0.337506
0.393509 0.385793 0.370362
0.065607 0.064321 0.061748
0.081003 0.079414 0.076238
0.098019 0.096097 0.092253
0.116657 0.114370 0.109795
0.136916 0.134231 0.128862
0.158796 0.155682 0.149455
0.182297 0.178722 0.171573
0.207419 0.203352 0.195218
0.234162 0.229571 0.220388
0.262527 0.257379 0.247084
0.292512 0.286777 0.275306
0.324119 0.317764 0.305053
0.357347 0.350340 0.336327
0.392196 0.384506 0.369126
0.428666 0.420261 0.403451
0.466758 0.457606 0.439301
0.097364 0.095455 0.091637
0.115943 0.113669 0.109122
0.136142 0.133472 0.128133
0.157962 0.154865 0.148670
0.181403 0.177846 0.170733
0.206466 0.202418 0.194321
0.233150 0.228578 0.219435
0.261455 0.256328 0.246075
0.291381 0.285667 0.274241
0.322928 0.316596 0.303932
0.356096 0.349114 0.335149
0.390885 0.383221 0.367892
0.427296 0.418918 0.402161
0.465328 0.456204 0.437955
0.504980 0.495079 0.475276
0.545010 0.534323 0.512950
0.135370 0.132716 0.127407
0.157130 0.154050 0.147888
0.180512 0.176973 0.169894
0.205515 0.201486 0.193426
0.232139 0.227588 0.218484
0.260385 0.255279 0.245068
0.290251 0.284560 0.273177
0.321738 0.315430 0.302813
0.354847 0.347889 0.333974
0.389577 0.381938 0.366660
0.425928 0.417576 0.400873
0.463900 0.454804 0.436611
0.503493 0.493620 0.473876
0.543565 0.532907 0.511590
0.582057 0.570644 0.547819
0.618929 0.606793 0.582521
0.179623 0.176101 0.169057
0.204567 0.200556 0.192533
0.231131 0.226599 0.217535
0.259317 0.254232 0.244063
0.289123 0.283454 0.272116
0.320551 0.314266 0.301695
0.353600 0.346667 0.332800
