entry/src/main/resources/rawfile/filters/JadeMist.cube
TITLE "Jade Mist"
LUT_3D_SIZE 6
0.021200 0.077600 0.058800
0.182842 0.084345 0.067232
0.344485 0.091091 0.075664
0.506127 0.097836 0.084095
0.667770 0.104582 0.092527
0.829412 0.111327 0.100959
0.043271 0.256283 0.075353
0.204914 0.263028 0.083785
0.366556 0.269774 0.092217
0.528198 0.276519 0.100649
0.689841 0.283264 0.109081
0.851483 0.290010 0.117512
0.065342 0.434965 0.091907
0.226985 0.441711 0.100339
0.388627 0.448456 0.108770
0.550270 0.455202 0.117202
0.711912 0.461947 0.125634
0.873554 0.468693 0.134066
0.087414 0.613648 0.108460
0.249056 0.620394 0.116892
0.410698 0.627139 0.125324
0.572341 0.633884 0.133756
0.733983 0.640630 0.142187
0.895626 0.647375 0.150619
0.109485 0.792331 0.125014
0.271127 0.799076 0.133445
0.432770 0.805822 0.141877
0.594412 0.812567 0.150309
0.756054 0.819313 0.158741
0.917697 0.826058 0.167173
0.131556 0.971014 0.141567
0.293198 0.977759 0.149999
0.454841 0.984504 0.158431
0.616483 0.991250 0.166862
0.778126 0.997995 0.175294
0.939768 1.000000 0.183726
0.025486 0.080172 0.221815
0.187129 0.086917 0.230247
0.348771 0.093663 0.238678
0.510414 0.100408 0.247110
0.672056 0.107154 0.255542
0.833698 0.113899 0.263974
0.047558 0.258855 0.238368
0.209200 0.265600 0.246800
0.370842 0.272345 0.255232
0.532485 0.279091 0.263664
0.694127 0.285836 0.272095
0.855770 0.292582 0.280527
0.069629 0.437537 0.254922
0.231271 0.444283 0.263353
0.392914 0.451028 0.271785
0.554556 0.457774 0.280217
0.716198 0.464519 0.288649
0.877841 0.471264 0.297081
0.091700 0.616220 0.271475
0.253342 0.622965 0.279907
0.414985 0.629711 0.288339
0.576627 0.636456 0.296770
0.738270 0.643202 0.305202
0.899912 0.649947 0.313634
0.113771 0.794903 0.288028
0.275414 0.801648 0.296460
0.437056 0.808394 0.304892
0.598698 0.815139 0.313324
0.760341 0.821884 0.321756
0.921983 0.828630 0.330187
0.135842 0.973585 0.304582
0.297485 0.980331 0.313014
0.459127 0.987076 0.321445
0.620770 0.993822 0.329877
0.782412 1.000000 0.338309
0.944054 1.000000 0.346741
0.029773 0.082744 0.384830
0.191415 0.089489 0.393261
0.353058 0.096235 0.401693
0.514700 0.102980 0.410125
0.676342 0.109725 0.418557
0.837985 0.116471 0.426989
0.051844 0.261426 0.401383
0.213486 0.268172 0.409815
0.375129 0.274917 0.418247
0.536771 0.281663 0.426678
0.698414 0.288408 0.435110
0.860056 0.295154 0.443542
0.073915 0.440109 0.417936
0.235558 0.446855 0.426368
0.397200 0.453600 0.434800
0.558842 0.460345 0.443232
0.720485 0.467091 0.451664
0.882127 0.473836 0.460095
0.095986 0.618792 0.434490
0.257629 0.625537 0.442922
0.419271 0.632283 0.451353
0.580914 0.639028 0.459785
0.742556 0.645774 0.468217
0.904198 0.652519 0.476649
0.118058 0.797475 0.451043
0.279700 0.804220 0.459475
0.441342 0.810965 0.467907
0.602985 0.817711 0.476339
0.764627 0.824456 0.484770
0.926270 0.831202 0.493202
0.140129 0.976157 0.467597
0.301771 0.982903 0.476028
0.463414 0.989648 0.484460
0.625056 0.996394 0.492892
0.786698 1.000000 0.501324
0.948341 1.000000 0.509756
0.034059 0.085316 0.547844
0.195702 0.092061 0.556276
0.357344 0.098806 0.564708
0.518986 0.105552 0.573140
0.680629 0.112297 0.581572
0.842271 0.119043 0.590003
0.056130 0.263998 0.564398
0.217773 0.270744 0.572830
0.379415 0.277489 0.581261
0.541058 0.284235 0.589693
0.702700 0.290980 0.598125
0.864342 0.297725 0.606557
0.078202 0.442681 0.580951
0.239844 0.449426 0.589383
0.401486 0.456172 0.597815
0.563129 0.462917 0.606247
0.724771 0.469663 0.614678
0.886414 0.476408 0.623110
0.100273 0.621364 0.597505
0.261915 0.628109 0.605936
0.423558 0.634855 0.614368
0.585200 0.641600 0.622800
0.746842 0.648345 0.631232
0.908485 0.655091 0.639664
0.122344 0.800046 0.614058
0.283986 0.806792 0.622490
0.445629 0.813537 0.630922
0.607271 0.820283 0.639353
0.768914 0.827028 0.647785
0.930556 0.833774 0.656217
0.144415 0.978729 0.630611
0.306058 0.985475 0.639043
0.467700 0.992220 0.647475
0.629342 0.998965 0.655907
0.790985 1.000000 0.664339
0.952627 1.000000 0.672770
0.038346 0.087887 0.710859
0.199988 0.094633 0.719291
0.361630 0.101378 0.727723
0.523273 0.108124 0.736155
0.684915 0.114869 0.744586
0.846558 0.121615 0.753018
0.060417 0.266570 0.727413
0.222059 0.273316 0.735844
0.383702 0.280061 0.744276
0.545344 0.286806 0.752708
0.706986 0.293552 0.761140
0.868629 0.300297 0.769572
0.082488 0.445253 0.743966
0.244130 0.451998 0.752398
0.405773 0.458744 0.760830
0.567415 0.465489 0.769261
0.729058 0.472235 0.777693
0.890700 0.478980 0.786125
0.104559 0.623936 0.760519
0.266202 0.630681 0.768951
0.427844 0.637426 0.777383
0.589486 0.644172 0.785815
0.751129 0.650917 0.794247
0.912771 0.657663 0.802678
0.126630 0.802618 0.777073
0.288273 0.809364 0.785505
0.449915 0.816109 0.793936
0.611558 0.822855 0.802368
0.773200 0.829600 0.810800
0.934842 0.836345 0.819232
0.148702 0.981301 0.793626
0.310344 0.988046 0.802058
0.471986 0.994792 0.810490
0.633629 1.000000 0.818922
0.795271 1.000000 0.827353
0.956914 1.000000 0.835785
0.042632 0.090459 0.873874
0.204274 0.097205 0.882306
0.365917 0.103950 0.890738
0.527559 0.110696 0.899169
0.689202 0.117441 0.907601
0.850844 0.124186 0.916033
0.064703 0.269142 0.890427
0.226346 0.275887 0.898859
0.387988 0.282633 0.907291
0.549630 0.289378 0.915723
0.711273 0.296124 0.924155
0.872915 0.302869 0.932586
0.086774 0.447825 0.906981
0.248417 0.454570 0.915413
0.410059 0.461316 0.923844
0.571702 0.468061 0.932276
0.733344 0.474806 0.940708
0.894986 0.481552 0.949140
0.108846 0.626507 0.923534
0.270488 0.633253 0.931966
0.432130 0.639998 0.940398
0.593773 0.646744 0.948830
0.755415 0.653489 0.957261
0.917058 0.660235 0.965693
0.130917 0.805190 0.940088
0.292559 0.811936 0.948519
0.454202 0.818681 0.956951
0.615844 0.825426 0.965383
0.777486 0.832172 0.973815
0.939129 0.838917 0.982247
0.152988 0.983873 0.956641
0.314630 0.990618 0.965073
0.476273 0.997364 0.973505
0.637915 1.000000 0.981936
0.799558 1.000000 0.990368
0.961200 1.000000 0.998800
