entry/src/main/resources/rawfile/filters/JadeMist.cube
TITLE "Jade Mist"
LUT_3D_SIZE 16
0.021200 0.077600 0.058800
0.075081 0.079848 0.061611
0.128962 0.082097 0.064421
0.182842 0.084345 0.067232
0.236723 0.086594 0.070042
0.290604 0.088842 0.072853
0.344485 0.091091 0.075664
0.398366 0.093339 0.078474
0.452246 0.095588 0.081285
0.506127 0.097836 0.084095
0.560008 0.100085 0.086906
0.613889 0.102333 0.089717
0.667770 0.104582 0.092527
0.721650 0.106830 0.095338
0.775531 0.109079 0.098148
0.829412 0.111327 0.100959
0.028557 0.137161 0.064318
0.082438 0.139409 0.067128
0.136319 0.141658 0.069939
0.190199 0.143906 0.072750
0.244080 0.146155 0.075560
0.297961 0.148403 0.078371
0.351842 0.150652 0.081181
0.405723 0.152900 0.083992
0.459603 0.155149 0.086803
0.513484 0.157397 0.089613
0.567365 0.159646 0.092424
0.621246 0.161894 0.095234
0.675127 0.164143 0.098045
0.729007 0.166391 0.100856
0.782888 0.168640 0.103666
0.836769 0.170888 0.106477
0.035914 0.196722 0.069836
0.089795 0.198970 0.072646
0.143676 0.201219 0.075457
0.197557 0.203467 0.078267
0.251437 0.205716 0.081078
0.305318 0.207964 0.083889
0.359199 0.210213 0.086699
0.413080 0.212461 0.089510
0.466961 0.214710 0.092320
0.520841 0.216958 0.095131
0.574722 0.219207 0.097942
0.628603 0.221455 0.100752
0.682484 0.223704 0.103563
0.736365 0.225952 0.106373
0.790245 0.228201 0.109184
0.844126 0.230449 0.111995
0.043271 0.256283 0.075353
0.097152 0.258531 0.078164
0.151033 0.260780 0.080975
0.204914 0.263028 0.083785
0.258794 0.265277 0.086596
0.312675 0.267525 0.089406
0.366556 0.269774 0.092217
0.420437 0.272022 0.095028
0.474318 0.274271 0.097838
0.528198 0.276519 0.100649
0.582079 0.278768 0.103459
0.635960 0.281016 0.106270
0.689841 0.283264 0.109081
0.743722 0.285513 0.111891
0.797602 0.287761 0.114702
0.851483 0.290010 0.117512
0.050628 0.315844 0.080871
0.104509 0.318092 0.083682
0.158390 0.320341 0.086492
0.212271 0.322589 0.089303
0.266151 0.324838 0.092114
0.320032 0.327086 0.094924
0.373913 0.329335 0.097735
0.427794 0.331583 0.100545
0.481675 0.333831 0.103356
0.535555 0.336080 0.106167
0.589436 0.338328 0.108977
0.643317 0.340577 0.111788
0.697198 0.342825 0.114598
0.751079 0.345074 0.117409
0.804959 0.347322 0.120220
0.858840 0.349571 0.123030
0.057985 0.375405 0.086389
0.111866 0.377653 0.089200
0.165747 0.379901 0.092010
0.219628 0.382150 0.094821
0.273509 0.384398 0.097631
0.327389 0.386647 0.100442
0.381270 0.388895 0.103253
0.435151 0.391144 0.106063
0.489032 0.393392 0.108874
0.542913 0.395641 0.111684
0.596793 0.397889 0.114495
0.650674 0.400138 0.117306
0.704555 0.402386 0.120116
0.758436 0.404635 0.122927
0.812317 0.406883 0.125737
0.866197 0.409132 0.128548
0.065342 0.434965 0.091907
0.119223 0.437214 0.094717
0.173104 0.439462 0.097528
0.226985 0.441711 0.100339
0.280866 0.443959 0.103149
0.334746 0.446208 0.105960
0.388627 0.448456 0.108770
0.442508 0.450705 0.111581
0.496389 0.452953 0.114392
0.550270 0.455202 0.117202
0.604150 0.457450 0.120013
0.658031 0.459699 0.122823
0.711912 0.461947 0.125634
0.765793 0.464196 0.128445
0.819674 0.466444 0.131255
0.873554 0.468693 0.134066
0.072699 0.494526 0.097425
0.126580 0.496775 0.100235
0.180461 0.499023 0.103046
0.234342 0.501272 0.105856
0.288223 0.503520 0.108667
0.342103 0.505769 0.111478
0.395984 0.508017 0.114288
0.449865 0.510266 0.117099
0.503746 0.512514 0.119909
0.557627 0.514763 0.122720
0.611507 0.517011 0.125531
0.665388 0.519260 0.128341
0.719269 0.521508 0.131152
0.773150 0.523757 0.133962
0.827031 0.526005 0.136773
0.880911 0.528254 0.139584
0.080057 0.554087 0.102942
0.133937 0.556336 0.105753
0.187818 0.558584 0.108564
0.241699 0.560833 0.111374
0.295580 0.563081 0.114185
0.349461 0.565330 0.116995
0.403341 0.567578 0.119806
0.457222 0.569827 0.122617
0.511103 0.572075 0.125427
0.564984 0.574324 0.128238
0.618865 0.576572 0.131048
0.672745 0.578821 0.133859
0.726626 0.581069 0.136670
0.780507 0.583317 0.139480
0.834388 0.585566 0.142291
0.888269 0.587814 0.145101
0.087414 0.613648 0.108460
0.141294 0.615897 0.111271
0.195175 0.618145 0.114081
0.249056 0.620394 0.116892
0.302937 0.622642 0.119703
0.356818 0.624891 0.122513
0.410698 0.627139 0.125324
0.464579 0.629388 0.128134
0.518460 0.631636 0.130945
0.572341 0.633884 0.133756
0.626222 0.636133 0.136566
0.680102 0.638381 0.139377
0.733983 0.640630 0.142187
0.787864 0.642878 0.144998
0.841745 0.645127 0.147809
0.895626 0.647375 0.150619
0.094771 0.673209 0.113978
0.148651 0.675458 0.116789
0.202532 0.677706 0.119599
0.256413 0.679955 0.122410
0.310294 0.682203 0.125220
0.364175 0.684451 0.128031
0.418055 0.686700 0.130842
0.471936 0.688948 0.133652
0.525817 0.691197 0.136463
0.579698 0.693445 0.139273
0.633579 0.695694 0.142084
0.687459 0.697942 0.144895
0.741340 0.700191 0.147705
0.795221 0.702439 0.150516
0.849102 0.704688 0.153326
0.902983 0.706936 0.156137
0.102128 0.732770 0.119496
0.156009 0.735018 0.122306
0.209889 0.737267 0.125117
0.263770 0.739515 0.127928
0.317651 0.741764 0.130738
0.371532 0.744012 0.133549
0.425413 0.746261 0.136359
0.479293 0.748509 0.139170
0.533174 0.750758 0.141981
0.587055 0.753006 0.144791
0.640936 0.755255 0.147602
0.694817 0.757503 0.150412
0.748697 0.759752 0.153223
0.802578 0.762000 0.156034
0.856459 0.764249 0.158844
0.910340 0.766497 0.161655
0.109485 0.792331 0.125014
0.163366 0.794579 0.127824
0.217246 0.796828 0.130635
0.271127 0.799076 0.133445
0.325008 0.801325 0.136256
0.378889 0.803573 0.139067
0.432770 0.805822 0.141877
0.486650 0.808070 0.144688
0.540531 0.810319 0.147498
0.594412 0.812567 0.150309
0.648293 0.814816 0.153120
0.702174 0.817064 0.155930
0.756054 0.819313 0.158741
0.809935 0.821561 0.161551
0.863816 0.823810 0.164362
0.917697 0.826058 0.167173
0.116842 0.851892 0.130531
0.170723 0.854140 0.133342
0.224603 0.856389 0.136153
0.278484 0.858637 0.138963
0.332365 0.860886 0.141774
0.386246 0.863134 0.144584
0.440127 0.865383 0.147395
0.494007 0.867631 0.150206
0.547888 0.869880 0.153016
0.601769 0.872128 0.155827
0.655650 0.874377 0.158637
0.709531 0.876625 0.161448
0.763411 0.878874 0.164259
0.817292 0.881122 0.167069
0.871173 0.883371 0.169880
0.925054 0.885619 0.172690
0.124199 0.911453 0.136049
0.178080 0.913701 0.138860
0.231961 0.915950 0.141670
0.285841 0.918198 0.144481
0.339722 0.920447 0.147292
0.393603 0.922695 0.150102
0.447484 0.924944 0.152913
0.501365 0.927192 0.155723
0.555245 0.929441 0.158534
0.609126 0.931689 0.161345
0.663007 0.933937 0.164155
0.716888 0.936186 0.166966
0.770769 0.938434 0.169776
0.824649 0.940683 0.172587
0.878530 0.942931 0.175398
0.932411 0.945180 0.178208
0.131556 0.971014 0.141567
0.185437 0.973262 0.144378
0.239318 0.975511 0.147188
0.293198 0.977759 0.149999
0.347079 0.980008 0.152809
0.400960 0.982256 0.155620
0.454841 0.984504 0.158431
0.508722 0.986753 0.161241
0.562602 0.989001 0.164052
0.616483 0.991250 0.166862
0.670364 0.993498 0.169673
0.724245 0.995747 0.172484
0.778126 0.997995 0.175294
0.832006 1.000000 0.178105
0.885887 1.000000 0.180915
0.939768 1.000000 0.183726
0.022629 0.078457 0.113138
0.076510 0.080706 0.115949
0.130390 0.082954 0.118759
0.184271 0.085203 0.121570
0.238152 0.087451 0.124381
0.292033 0.089700 0.127191
0.345914 0.091948 0.130002
0.399794 0.094197 0.132812
0.453675 0.096445 0.135623
0.507556 0.098694 0.138434
0.561437 0.100942 0.141244
0.615318 0.103191 0.144055
0.669198 0.105439 0.146865
0.723079 0.107688 0.149676
0.776960 0.109936 0.152487
0.830841 0.112184 0.155297
0.029986 0.138018 0.118656
0.083867 0.140267 0.121467
0.137747 0.142515 0.124277
0.191628 0.144764 0.127088
0.245509 0.147012 0.129898
0.299390 0.149261 0.132709
0.353271 0.151509 0.135520
0.407151 0.153758 0.138330
0.461032 0.156006 0.141141
0.514913 0.158255 0.143951
0.568794 0.160503 0.146762
0.622675 0.162751 0.149573
0.676555 0.165000 0.152383
0.730436 0.167248 0.155194
0.784317 0.169497 0.158004
0.838198 0.171745 0.160815
0.037343 0.197579 0.124174
0.091224 0.199828 0.126984
0.145105 0.202076 0.129795
0.198985 0.204325 0.132606
0.252866 0.206573 0.135416
0.306747 0.208821 0.138227
0.360628 0.211070 0.141037
0.414509 0.213318 0.143848
0.468389 0.215567 0.146659
0.522270 0.217815 0.149469
0.576151 0.220064 0.152280
0.630032 0.222312 0.155090
0.683913 0.224561 0.157901
0.737793 0.226809 0.160712
0.791674 0.229058 0.163522
0.845555 0.231306 0.166333
0.044700 0.257140 0.129692
0.098581 0.259388 0.132502
0.152462 0.261637 0.135313
0.206342 0.263885 0.138123
0.260223 0.266134 0.140934
0.314104 0.268382 0.143745
0.367985 0.270631 0.146555
0.421866 0.272879 0.149366
0.475746 0.275128 0.152176
0.529627 0.277376 0.154987
0.583508 0.279625 0.157798
0.637389 0.281873 0.160608
0.691270 0.284122 0.163419
0.745150 0.286370 0.166229
0.799031 0.288619 0.169040
0.852912 0.290867 0.171851
0.052057 0.316701 0.135209
0.105938 0.318949 0.138020
0.159819 0.321198 0.140831
0.213699 0.323446 0.143641
0.267580 0.325695 0.146452
0.321461 0.327943 0.149262
0.375342 0.330192 0.152073
0.429223 0.332440 0.154884
0.483103 0.334689 0.157694
0.536984 0.336937 0.160505
0.590865 0.339186 0.163315
0.644746 0.341434 0.166126
0.698627 0.343683 0.168937
0.752507 0.345931 0.171747
0.806388 0.348180 0.174558
0.860269 0.350428 0.177368
0.059414 0.376262 0.140727
0.113295 0.378510 0.143538
0.167176 0.380759 0.146348
0.221057 0.383007 0.149159
0.274937 0.385256 0.151970
0.328818 0.387504 0.154780
0.382699 0.389753 0.157591
0.436580 0.392001 0.160401
0.490461 0.394250 0.163212
0.544341 0.396498 0.166023
0.598222 0.398747 0.168833
0.652103 0.400995 0.171644
0.705984 0.403244 0.174454
0.759865 0.405492 0.177265
0.813745 0.407741 0.180076
0.867626 0.409989 0.182886
0.066771 0.435823 0.146245
0.120652 0.438071 0.149056
0.174533 0.440320 0.151866
0.228414 0.442568 0.154677
0.282294 0.444817 0.157487
0.336175 0.447065 0.160298
0.390056 0.449314 0.163109
0.443937 0.451562 0.165919
0.497818 0.453811 0.168730
0.551698 0.456059 0.171540
0.605579 0.458308 0.174351
0.659460 0.460556 0.177162
0.713341 0.462804 0.179972
0.767222 0.465053 0.182783
0.821102 0.467301 0.185593
0.874983 0.469550 0.188404
0.074128 0.495384 0.151763
0.128009 0.497632 0.154573
0.181890 0.499881 0.157384
0.235771 0.502129 0.160195
0.289651 0.504378 0.163005
0.343532 0.506626 0.165816
0.397413 0.508875 0.168626
0.451294 0.511123 0.171437
0.505175 0.513371 0.174248
0.559055 0.515620 0.177058
0.612936 0.517868 0.179869
0.666817 0.520117 0.182679
0.720698 0.522365 0.185490
0.774579 0.524614 0.188301
0.828459 0.526862 0.191111
0.882340 0.529111 0.193922
0.081485 0.554945 0.157281
0.135366 0.557193 0.160091
0.189247 0.559441 0.162902
0.243128 0.561690 0.165712
0.297009 0.563938 0.168523
0.350889 0.566187 0.171334
0.404770 0.568435 0.174144
0.458651 0.570684 0.176955
0.512532 0.572932 0.179765
0.566413 0.575181 0.182576
0.620293 0.577429 0.185387
0.674174 0.579678 0.188197
0.728055 0.581926 0.191008
0.781936 0.584175 0.193818
0.835817 0.586423 0.196629
0.889697 0.588672 0.199440
0.088842 0.614505 0.162798
0.142723 0.616754 0.165609
0.196604 0.619002 0.168420
0.250485 0.621251 0.171230
0.304366 0.623499 0.174041
0.358246 0.625748 0.176851
0.412127 0.627996 0.179662
0.466008 0.630245 0.182473
0.519889 0.632493 0.185283
0.573770 0.634742 0.188094
0.627650 0.636990 0.190904
0.681531 0.639239 0.193715
0.735412 0.641487 0.196526
0.789293 0.643736 0.199336
0.843174 0.645984 0.202147
0.897054 0.648233 0.204957
0.096199 0.674066 0.168316
0.150080 0.676315 0.171127
0.203961 0.678563 0.173937
0.257842 0.680812 0.176748
0.311723 0.683060 0.179559
0.365603 0.685309 0.182369
0.419484 0.687557 0.185180
0.473365 0.689806 0.187990
0.527246 0.692054 0.190801
0.581127 0.694303 0.193612
0.635007 0.696551 0.196422
0.688888 0.698800 0.199233
0.742769 0.701048 0.202043
0.796650 0.703297 0.204854
0.850531 0.705545 0.207665
0.904411 0.707794 0.210475
0.103557 0.733627 0.173834
0.157437 0.735876 0.176645
0.211318 0.738124 0.179455
0.265199 0.740373 0.182266
0.319080 0.742621 0.185076
0.372961 0.744870 0.187887
0.426841 0.747118 0.190698
0.480722 0.749367 0.193508
0.534603 0.751615 0.196319
0.588484 0.753864 0.199129
0.642365 0.756112 0.201940
0.696245 0.758361 0.204751
0.750126 0.760609 0.207561
0.804007 0.762857 0.210372
0.857888 0.765106 0.213182
0.911769 0.767354 0.215993
0.110914 0.793188 0.179352
0.164794 0.795437 0.182162
0.218675 0.797685 0.184973
0.272556 0.799934 0.187784
0.326437 0.802182 0.190594
0.380318 0.804431 0.193405
0.434198 0.806679 0.196215
0.488079 0.808928 0.199026
0.541960 0.811176 0.201837
0.595841 0.813424 0.204647
0.649722 0.815673 0.207458
0.703602 0.817921 0.210268
0.757483 0.820170 0.213079
0.811364 0.822418 0.215890
0.865245 0.824667 0.218700
0.919126 0.826915 0.221511
0.118271 0.852749 0.184870
0.172151 0.854998 0.187680
0.226032 0.857246 0.190491
0.279913 0.859495 0.193301
0.333794 0.861743 0.196112
0.387675 0.863991 0.198923
0.441555 0.866240 0.201733
0.495436 0.868488 0.204544
0.549317 0.870737 0.207354
0.603198 0.872985 0.210165
0.657079 0.875234 0.212976
0.710959 0.877482 0.215786
0.764840 0.879731 0.218597
0.818721 0.881979 0.221407
0.872602 0.884228 0.224218
0.926483 0.886476 0.227029
0.125628 0.912310 0.190387
0.179509 0.914558 0.193198
0.233389 0.916807 0.196009
0.287270 0.919055 0.198819
0.341151 0.921304 0.201630
0.395032 0.923552 0.204440
0.448913 0.925801 0.207251
0.502793 0.928049 0.210062
0.556674 0.930298 0.212872
0.610555 0.932546 0.215683
0.664436 0.934795 0.218493
0.718317 0.937043 0.221304
0.772197 0.939292 0.224115
0.826078 0.941540 0.226925
0.879959 0.943789 0.229736
0.933840 0.946037 0.232546
0.132985 0.971871 0.195905
0.186866 0.974119 0.198716
0.240746 0.976368 0.201526
0.294627 0.978616 0.204337
0.348508 0.980865 0.207148
0.402389 0.983113 0.209958
0.456270 0.985362 0.212769
0.510150 0.987610 0.215579
0.564031 0.989859 0.218390
0.617912 0.992107 0.221201
0.671793 0.994356 0.224011
0.725674 0.996604 0.226822
0.779554 0.998853 0.229632
0.833435 1.000000 0.232443
0.887316 1.000000 0.235254
0.941197 1.000000 0.238064
0.024058 0.079315 0.167477
0.077938 0.081563 0.170287
0.131819 0.083812 0.173098
0.185700 0.086060 0.175908
0.239581 0.088308 0.178719
0.293462 0.090557 0.181530
0.347342 0.092805 0.184340
0.401223 0.095054 0.187151
0.455104 0.097302 0.189961
0.508985 0.099551 0.192772
0.562866 0.101799 0.195583
0.616746 0.104048 0.198393
0.670627 0.106296 0.201204
0.724508 0.108545 0.204014
0.778389 0.110793 0.206825
0.832270 0.113042 0.209636
0.031415 0.138875 0.172994
0.085295 0.141124 0.175805
0.139176 0.143372 0.178616
0.193057 0.145621 0.181426
0.246938 0.147869 0.184237
0.300819 0.150118 0.187047
0.354699 0.152366 0.189858
0.408580 0.154615 0.192669
0.462461 0.156863 0.195479
0.516342 0.159112 0.198290
0.570223 0.161360 0.201100
0.624103 0.163609 0.203911
0.677984 0.165857 0.206722
0.731865 0.168106 0.209532
0.785746 0.170354 0.212343
0.839627 0.172603 0.215153
0.038772 0.198436 0.178512
0.092653 0.200685 0.181323
0.146533 0.202933 0.184133
0.200414 0.205182 0.186944
0.254295 0.207430 0.189755
0.308176 0.209679 0.192565
0.362057 0.211927 0.195376
0.415937 0.214176 0.198186
0.469818 0.216424 0.200997
0.523699 0.218673 0.203808
0.577580 0.220921 0.206618
0.631461 0.223170 0.209429
0.685341 0.225418 0.212239
0.739222 0.227667 0.215050
0.793103 0.229915 0.217861
0.846984 0.232164 0.220671
0.046129 0.257997 0.184030
0.100010 0.260246 0.186841
0.153890 0.262494 0.189651
0.207771 0.264743 0.192462
0.261652 0.266991 0.195272
0.315533 0.269240 0.198083
0.369414 0.271488 0.200894
0.423294 0.273737 0.203704
0.477175 0.275985 0.206515
0.531056 0.278234 0.209325
0.584937 0.280482 0.212136
0.638818 0.282731 0.214947
0.692698 0.284979 0.217757
0.746579 0.287228 0.220568
0.800460 0.289476 0.223378
0.854341 0.291724 0.226189
0.053486 0.317558 0.189548
0.107367 0.319807 0.192358
0.161247 0.322055 0.195169
0.215128 0.324304 0.197980
0.269009 0.326552 0.200790
0.322890 0.328801 0.203601
0.376771 0.331049 0.206411
0.430651 0.333298 0.209222
0.484532 0.335546 0.212033
0.538413 0.337795 0.214843
0.592294 0.340043 0.217654
0.646175 0.342291 0.220464
0.700055 0.344540 0.223275
0.753936 0.346788 0.226086
0.807817 0.349037 0.228896
0.861698 0.351285 0.231707
0.060843 0.377119 0.195066
0.114724 0.379368 0.197876
0.168605 0.381616 0.200687
0.222485 0.383865 0.203497
0.276366 0.386113 0.206308
0.330247 0.388361 0.209119
0.384128 0.390610 0.211929
0.438009 0.392858 0.214740
0.491889 0.395107 0.217550
0.545770 0.397355 0.220361
0.599651 0.399604 0.223172
0.653532 0.401852 0.225982
0.707413 0.404101 0.228793
0.761293 0.406349 0.231603
0.815174 0.408598 0.234414
0.869055 0.410846 0.237225
0.068200 0.436680 0.200583
0.122081 0.438928 0.203394
0.175962 0.441177 0.206205
0.229842 0.443425 0.209015
0.283723 0.445674 0.211826
0.337604 0.447922 0.214636
0.391485 0.450171 0.217447
0.445366 0.452419 0.220258
0.499246 0.454668 0.223068
0.553127 0.456916 0.225879
0.607008 0.459165 0.228689
0.660889 0.461413 0.231500
0.714770 0.463662 0.234311
0.768650 0.465910 0.237121
0.822531 0.468159 0.239932
0.876412 0.470407 0.242742
0.075557 0.496241 0.206101
0.129438 0.498489 0.208912
0.183319 0.500738 0.211722
0.237199 0.502986 0.214533
0.291080 0.505235 0.217344
0.344961 0.507483 0.220154
0.398842 0.509732 0.222965
0.452723 0.511980 0.225775
0.506603 0.514229 0.228586
0.560484 0.516477 0.231397
0.614365 0.518726 0.234207
0.668246 0.520974 0.237018
0.722127 0.523223 0.239828
0.776007 0.525471 0.242639
0.829888 0.527720 0.245450
0.883769 0.529968 0.248260
0.082914 0.555802 0.211619
0.136795 0.558050 0.214430
0.190676 0.560299 0.217240
0.244557 0.562547 0.220051
0.298437 0.564796 0.222861
0.352318 0.567044 0.225672
0.406199 0.569293 0.228483
0.460080 0.571541 0.231293
0.513961 0.573790 0.234104
0.567841 0.576038 0.236914
0.621722 0.578287 0.239725
0.675603 0.580535 0.242536
0.729484 0.582784 0.245346
0.783365 0.585032 0.248157
0.837245 0.587281 0.250967
0.891126 0.589529 0.253778
0.090271 0.615363 0.217137
0.144152 0.617611 0.219947
0.198033 0.619860 0.222758
0.251914 0.622108 0.225569
0.305794 0.624357 0.228379
0.359675 0.626605 0.231190
0.413556 0.628854 0.234000
0.467437 0.631102 0.236811
0.521318 0.633351 0.239622
0.575198 0.635599 0.242432
0.629079 0.637848 0.245243
0.682960 0.640096 0.248053
0.736841 0.642344 0.250864
0.790722 0.644593 0.253675
0.844602 0.646841 0.256485
0.898483 0.649090 0.259296
0.097628 0.674924 0.222655
0.151509 0.677172 0.225465
0.205390 0.679421 0.228276
0.259271 0.681669 0.231086
0.313151 0.683918 0.233897
0.367032 0.686166 0.236708
0.420913 0.688415 0.239518
0.474794 0.690663 0.242329
0.528675 0.692911 0.245139
0.582555 0.695160 0.247950
0.636436 0.697408 0.250761
0.690317 0.699657 0.253571
0.744198 0.701905 0.256382
0.798079 0.704154 0.259192
0.851959 0.706402 0.262003
0.905840 0.708651 0.264814
0.104985 0.734485 0.228172
0.158866 0.736733 0.230983
0.212747 0.738981 0.233794
0.266628 0.741230 0.236604
0.320509 0.743478 0.239415
0.374389 0.745727 0.242225
0.428270 0.747975 0.245036
0.482151 0.750224 0.247847
0.536032 0.752472 0.250657
0.589913 0.754721 0.253468
0.643793 0.756969 0.256278
0.697674 0.759218 0.259089
0.751555 0.761466 0.261900
0.805436 0.763715 0.264710
0.859317 0.765963 0.267521
0.913197 0.768212 0.270331
0.112342 0.794045 0.233690
0.166223 0.796294 0.236501
0.220104 0.798542 0.239311
0.273985 0.800791 0.242122
0.327866 0.803039 0.244933
0.381746 0.805288 0.247743
0.435627 0.807536 0.250554
0.489508 0.809785 0.253364
0.543389 0.812033 0.256175
0.597270 0.814282 0.258986
0.651150 0.816530 0.261796
0.705031 0.818779 0.264607
0.758912 0.821027 0.267417
0.812793 0.823276 0.270228
0.866674 0.825524 0.273039
0.920554 0.827773 0.275849
0.119699 0.853606 0.239208
0.173580 0.855855 0.242019
0.227461 0.858103 0.244829
0.281342 0.860352 0.247640
0.335223 0.862600 0.250450
0.389103 0.864849 0.253261
0.442984 0.867097 0.256072
0.496865 0.869346 0.258882
0.550746 0.871594 0.261693
0.604627 0.873843 0.264503
0.658507 0.876091 0.267314
0.712388 0.878340 0.270125
0.766269 0.880588 0.272935
0.820150 0.882837 0.275746
0.874031 0.885085 0.278556
0.927911 0.887334 0.281367
0.127057 0.913167 0.244726
0.180937 0.915416 0.247536
0.234818 0.917664 0.250347
0.288699 0.919913 0.253158
0.342580 0.922161 0.255968
0.396461 0.924410 0.258779
0.450341 0.926658 0.261589
0.504222 0.928907 0.264400
0.558103 0.931155 0.267211
0.611984 0.933404 0.270021
0.665865 0.935652 0.272832
0.719745 0.937901 0.275642
0.773626 0.940149 0.278453
0.827507 0.942397 0.281264
0.881388 0.944646 0.284074
0.935269 0.946894 0.286885
0.134414 0.972728 0.250244
0.188294 0.974977 0.253054
0.242175 0.977225 0.255865
0.296056 0.979474 0.258675
0.349937 0.981722 0.261486
0.403818 0.983971 0.264297
0.457698 0.986219 0.267107
0.511579 0.988468 0.269918
0.565460 0.990716 0.272728
0.619341 0.992964 0.275539
0.673222 0.995213 0.278350
0.727102 0.997461 0.281160
0.780983 0.999710 0.283971
0.834864 1.000000 0.286781
0.888745 1.000000 0.289592
0.942626 1.000000 0.292403
0.025486 0.080172 0.221815
0.079367 0.082420 0.224625
0.133248 0.084669 0.227436
0.187129 0.086917 0.230247
0.241010 0.089166 0.233057
0.294890 0.091414 0.235868
0.348771 0.093663 0.238678
0.402652 0.095911 0.241489
0.456533 0.098160 0.244300
0.510414 0.100408 0.247110
0.564294 0.102657 0.249921
0.618175 0.104905 0.252731
0.672056 0.107154 0.255542
0.725937 0.109402 0.258353
0.779818 0.111651 0.261163
0.833698 0.113899 0.263974
0.032843 0.139733 0.227333
0.086724 0.141981 0.230143
0.140605 0.144230 0.232954
0.194486 0.146478 0.235764
0.248367 0.148727 0.238575
0.302247 0.150975 0.241386
0.356128 0.153224 0.244196
0.410009 0.155472 0.247007
0.463890 0.157721 0.249817
0.517771 0.159969 0.252628
0.571651 0.162218 0.255439
0.625532 0.164466 0.258249
0.679413 0.166715 0.261060
0.733294 0.168963 0.263870
0.787175 0.171211 0.266681
0.841055 0.173460 0.269492
0.040201 0.199294 0.232850
0.094081 0.201542 0.235661
0.147962 0.203791 0.238472
0.201843 0.206039 0.241282
0.255724 0.208288 0.244093
0.309605 0.210536 0.246903
0.363485 0.212785 0.249714
0.417366 0.215033 0.252525
0.471247 0.217281 0.255335
0.525128 0.219530 0.258146
0.579009 0.221778 0.260956
0.632889 0.224027 0.263767
0.686770 0.226275 0.266578
0.740651 0.228524 0.269388
0.794532 0.230772 0.272199
0.848413 0.233021 0.275009
0.047558 0.258855 0.238368
0.101438 0.261103 0.241179
0.155319 0.263352 0.243989
0.209200 0.265600 0.246800
0.263081 0.267848 0.249611
0.316962 0.270097 0.252421
0.370842 0.272345 0.255232
0.424723 0.274594 0.258042
0.478604 0.276842 0.260853
0.532485 0.279091 0.263664
0.586366 0.281339 0.266474
0.640246 0.283588 0.269285
0.694127 0.285836 0.272095
0.748008 0.288085 0.274906
0.801889 0.290333 0.277717
0.855770 0.292582 0.280527
0.054915 0.318415 0.243886
0.108795 0.320664 0.246697
0.162676 0.322912 0.249507
0.216557 0.325161 0.252318
0.270438 0.327409 0.255128
0.324319 0.329658 0.257939
0.378199 0.331906 0.260750
0.432080 0.334155 0.263560
0.485961 0.336403 0.266371
0.539842 0.338652 0.269181
0.593723 0.340900 0.271992
0.647603 0.343149 0.274803
0.701484 0.345397 0.277613
0.755365 0.347646 0.280424
0.809246 0.349894 0.283234
0.863127 0.352143 0.286045
0.062272 0.377976 0.249404
0.116153 0.380225 0.252214
0.170033 0.382473 0.255025
0.223914 0.384722 0.257836
0.277795 0.386970 0.260646
0.331676 0.389219 0.263457
0.385557 0.391467 0.266267
0.439437 0.393716 0.269078
0.493318 0.395964 0.271889
0.547199 0.398213 0.274699
0.601080 0.400461 0.277510
0.654961 0.402710 0.280320
0.708841 0.404958 0.283131
0.762722 0.407207 0.285942
0.816603 0.409455 0.288752
0.870484 0.411704 0.291563
0.069629 0.437537 0.254922
0.123510 0.439786 0.257732
0.177390 0.442034 0.260543
0.231271 0.444283 0.263353
0.285152 0.446531 0.266164
0.339033 0.448780 0.268975
0.392914 0.451028 0.271785
0.446794 0.453277 0.274596
0.500675 0.455525 0.277406
0.554556 0.457774 0.280217
0.608437 0.460022 0.283028
0.662318 0.462271 0.285838
0.716198 0.464519 0.288649
0.770079 0.466768 0.291459
0.823960 0.469016 0.294270
0.877841 0.471264 0.297081
0.076986 0.497098 0.260439
0.130867 0.499347 0.263250
0.184747 0.501595 0.266061
0.238628 0.503844 0.268871
0.292509 0.506092 0.271682
0.346390 0.508341 0.274492
0.400271 0.510589 0.277303
