entry/src/main/resources/rawfile/filters/Lowsun.cube
TITLE "Lowsun - Original look 1.0 (Standard/sRGB base)"
LUT_3D_SIZE 16
0.005316 0.012816 0.024704
0.071127 0.008765 0.012071
0.125799 0.010251 0.013726
0.185053 0.012297 0.015981
0.245712 0.014983 0.017449
0.306356 0.019338 0.018104
0.367863 0.024558 0.015179
0.426590 0.043557 0.015028
0.484980 0.068498 0.015750
0.543572 0.095530 0.019014
0.603256 0.122927 0.024020
0.664773 0.149812 0.030638
0.728428 0.176257 0.040484
0.794706 0.201891 0.053832
0.861214 0.227547 0.069698
0.924309 0.254298 0.085751
0.002085 0.068585 0.018487
0.055124 0.070241 0.022776
0.118328 0.070561 0.019801
0.186149 0.068026 0.006649
0.246766 0.069359 0.008661
0.306691 0.072876 0.012294
0.366575 0.079119 0.014322
0.425939 0.089886 0.015700
0.485116 0.105254 0.017014
0.544806 0.123961 0.018945
0.605108 0.145667 0.023630
0.666975 0.168679 0.030412
0.730932 0.192217 0.040374
0.797423 0.215691 0.053826
0.863519 0.239671 0.069372
0.926299 0.264886 0.085095
0.007416 0.125792 0.023465
0.067192 0.124987 0.028466
0.116842 0.128186 0.034754
0.176119 0.130518 0.032789
0.244460 0.128606 0.015771
0.305277 0.131130 0.011519
0.366136 0.134617 0.013926
0.426478 0.141118 0.016691
0.486300 0.151516 0.018835
0.547051 0.164447 0.019498
0.608381 0.180490 0.023246
0.670816 0.199071 0.030419
0.735302 0.218877 0.040538
0.801986 0.239390 0.054004
0.867304 0.260901 0.068865
0.929581 0.283691 0.083993
0.025162 0.184915 0.021954
0.083080 0.183540 0.026926
0.135621 0.183252 0.037823
0.183125 0.187351 0.041415
0.240902 0.190267 0.031284
0.307226 0.189439 0.024118
0.368332 0.192571 0.018901
0.428486 0.197893 0.020071
0.491383 0.202923 0.022166
0.554674 0.210295 0.022899
0.616994 0.222071 0.025278
0.679230 0.237800 0.032577
0.743440 0.255177 0.042786
0.809213 0.273340 0.055579
0.873051 0.292194 0.069210
0.934523 0.312044 0.083406
0.073133 0.242892 0.019117
0.112828 0.242015 0.020866
0.160015 0.241146 0.025683
0.208912 0.242062 0.034214
0.255620 0.246754 0.033129
0.310220 0.250911 0.026910
0.374280 0.251723 0.026411
0.436767 0.254659 0.026148
0.497031 0.261109 0.025590
0.559850 0.267889 0.027330
0.625582 0.274498 0.031414
0.692062 0.283296 0.038542
0.757552 0.296432 0.049857
0.821235 0.312063 0.061401
0.882607 0.328977 0.073294
0.942299 0.346796 0.085942
0.133051 0.300226 0.020138
0.158933 0.299706 0.020981
0.196113 0.299101 0.022928
0.241049 0.299162 0.026864
0.286943 0.301543 0.031674
0.331934 0.307324 0.032281
0.383233 0.313370 0.030002
0.445231 0.316198 0.030906
0.509092 0.319518 0.032310
0.571040 0.326148 0.035167
0.633652 0.334813 0.040053
0.699778 0.343277 0.044647
0.767131 0.351285 0.054883
0.832622 0.359866 0.069010
0.894867 0.370965 0.082133
0.954065 0.385066 0.094415
0.193631 0.358699 0.023337
0.211904 0.358438 0.023955
0.240882 0.358141 0.025266
0.279597 0.358196 0.027835
0.323030 0.359521 0.031983
0.366968 0.363484 0.036514
0.410633 0.370708 0.038354
0.459705 0.378707 0.037964
0.520183 0.383609 0.040340
0.584757 0.388151 0.044529
0.649572 0.394458 0.048902
0.711892 0.403172 0.055665
0.774848 0.411235 0.059902
0.837602 0.418968 0.070325
0.900421 0.426197 0.084753
0.962618 0.433828 0.101294
0.252409 0.419687 0.028672
0.266331 0.419615 0.029371
0.289514 0.419608 0.030553
0.322491 0.419901 0.032779
0.362059 0.421022 0.036506
0.404686 0.423869 0.041839
0.447560 0.429547 0.047270
0.490578 0.438377 0.050558
0.538696 0.448215 0.052017
0.597652 0.454794 0.055277
0.661653 0.459021 0.060129
0.725623 0.463194 0.063246
0.786813 0.469196 0.067990
0.846488 0.476467 0.075122
0.906046 0.484120 0.086752
0.966307 0.491644 0.100518
0.306938 0.484619 0.037023
0.318017 0.484755 0.037333
0.337327 0.485000 0.038560
0.366117 0.485501 0.041594
0.401984 0.486711 0.045610
0.442441 0.489162 0.050959
0.484884 0.493474 0.057538
0.527240 0.500123 0.063600
0.569779 0.508959 0.066842
0.616505 0.517901 0.067539
0.672251 0.523761 0.069129
0.734144 0.526900 0.072944
0.796407 0.530030 0.076291
0.858071 0.533839 0.077799
0.916386 0.540415 0.088625
0.974508 0.547981 0.104600
0.358041 0.552776 0.053832
0.367253 0.552942 0.053673
0.383487 0.553240 0.053607
0.408296 0.553731 0.054062
0.440673 0.554486 0.055849
0.478972 0.555632 0.060749
0.520265 0.557819 0.066692
0.562340 0.561680 0.072746
0.603863 0.567750 0.077698
0.645509 0.575768 0.080075
0.690723 0.583991 0.080441
0.743725 0.589849 0.081451
0.803705 0.592913 0.084830
0.865032 0.595798 0.088350
0.926939 0.598995 0.089685
0.986567 0.604508 0.101399
0.409071 0.617789 0.071415
0.416975 0.617848 0.071208
0.430992 0.617967 0.070893
0.452567 0.618216 0.070391
0.481112 0.618668 0.070005
0.515511 0.619422 0.070626
0.554212 0.620689 0.073392
0.595353 0.622871 0.079254
0.636717 0.626757 0.085490
0.677362 0.632795 0.090166
0.718266 0.640615 0.092457
0.762444 0.648785 0.093041
0.813573 0.655199 0.093793
0.872356 0.658875 0.096399
0.933832 0.662165 0.100203
0.993154 0.668311 0.136804
0.459050 0.680126 0.088725
0.465819 0.680162 0.088444
0.477924 0.680237 0.087992
0.496844 0.680387 0.087418
0.522295 0.680672 0.086919
0.553386 0.681218 0.086627
0.588882 0.682222 0.086743
0.627523 0.683919 0.088236
0.667889 0.686714 0.091857
0.708517 0.691150 0.097013
0.748737 0.697574 0.101801
0.789433 0.705726 0.104372
0.833379 0.714487 0.105228
0.884264 0.722388 0.106853
0.943967 0.728475 0.111982
0.994851 0.739367 0.221663
0.507209 0.741563 0.107674
0.513078 0.741616 0.107347
0.523639 0.741721 0.106802
0.540312 0.741912 0.106058
0.563042 0.742237 0.105284
0.591304 0.742779 0.104733
0.624222 0.743678 0.104701
0.660667 0.745163 0.105332
0.699432 0.747577 0.106694
0.739455 0.751345 0.109485
0.779953 0.757060 0.113560
0.820797 0.765085 0.118200
0.862993 0.775236 0.122340
0.908743 0.786367 0.126412
0.960803 0.796706 0.131399
0.996517 0.811587 0.318633
0.553440 0.803733 0.130240
0.558609 0.803835 0.129877
0.567960 0.804032 0.129266
0.582850 0.804383 0.128411
0.603393 0.804949 0.127475
0.629320 0.805825 0.126712
0.660056 0.807148 0.126439
0.694831 0.809140 0.127009
0.732764 0.812115 0.128775
0.772790 0.816430 0.131854
0.813875 0.822437 0.136044
0.855352 0.830378 0.141219
0.897233 0.840171 0.147047
0.940335 0.851258 0.153527
0.986355 0.862447 0.162430
0.998035 0.879616 0.452027
0.599365 0.871005 0.161927
0.604023 0.871242 0.161559
0.612485 0.871682 0.160938
0.626040 0.872413 0.160064
0.644899 0.873488 0.159100
0.668945 0.874970 0.158300
0.697788 0.876942 0.157993
0.730894 0.879488 0.158472
0.767580 0.882740 0.160045
0.806923 0.886868 0.162998
0.848001 0.892003 0.168363
0.889855 0.898310 0.177045
0.931613 0.905933 0.188159
0.972774 0.914755 0.203608
0.997001 0.925352 0.388854
0.999159 0.939064 0.606612
0.644773 0.943364 0.211080
0.649009 0.943626 0.210551
0.656740 0.944101 0.209668
0.669214 0.944858 0.208458
0.686740 0.945910 0.207196
0.709347 0.947256 0.206312
0.736795 0.948898 0.206371
0.768601 0.950845 0.208046
0.804102 0.953135 0.212150
0.842333 0.955842 0.219569
0.881766 0.959194 0.231774
0.920684 0.963516 0.250455
0.954139 0.970070 0.287161
0.982827 0.978346 0.338145
0.998640 0.984165 0.526483
0.999796 0.986201 0.760815
0.000165 0.012860 0.082997
0.065896 0.004596 0.095169
0.125132 0.005732 0.090792
0.185670 0.008789 0.081655
0.246507 0.013161 0.072766
0.307047 0.018228 0.069417
0.368450 0.023774 0.065889
0.431035 0.030023 0.059161
0.495358 0.035713 0.045924
0.559331 0.049540 0.030006
0.617632 0.088151 0.031828
0.677273 0.123426 0.038093
0.739325 0.155274 0.048037
0.804217 0.184655 0.061538
0.869336 0.213420 0.077891
0.931162 0.242893 0.094298
0.001057 0.067193 0.083337
0.049967 0.069279 0.089998
0.116728 0.069504 0.086739
0.181512 0.069756 0.081724
0.244746 0.069964 0.078515
0.308640 0.068831 0.073487
0.373866 0.065206 0.064111
0.440218 0.058950 0.047826
0.503113 0.064358 0.032494
0.562105 0.086367 0.027215
0.620017 0.116048 0.030785
0.679796 0.144981 0.037705
0.742096 0.172634 0.047857
0.807158 0.199214 0.061498
0.871847 0.225925 0.077467
0.933355 0.253607 0.093494
0.003194 0.125034 0.090061
0.049778 0.127578 0.087311
0.113466 0.128390 0.091447
0.177744 0.129256 0.083595
0.247866 0.126249 0.065805
0.310815 0.126069 0.062812
0.374917 0.125117 0.056788
0.440700 0.122789 0.042014
0.502707 0.127981 0.032108
0.562979 0.140342 0.027127
0.622727 0.158536 0.029188
0.683351 0.180017 0.036753
0.746365 0.202163 0.047287
0.811748 0.224662 0.061094
0.875772 0.248149 0.076363
0.936859 0.272872 0.091805
0.010819 0.185584 0.087355
0.064906 0.186167 0.082704
0.129734 0.184554 0.088566
0.180660 0.187908 0.091500
0.240863 0.189982 0.085001
0.310689 0.187673 0.065297
0.377334 0.186434 0.044326
0.441133 0.187173 0.038549
0.504463 0.190254 0.033485
0.566256 0.197997 0.029416
0.627552 0.210091 0.029412
0.689100 0.226088 0.036805
0.752836 0.243592 0.047688
0.818032 0.262056 0.061031
0.881054 0.281700 0.075107
0.941631 0.302626 0.089656
0.041233 0.246244 0.070067
0.094863 0.245091 0.070187
0.151744 0.243250 0.074454
0.205739 0.243088 0.082627
0.254007 0.247450 0.081318
0.312199 0.250438 0.066070
0.380015 0.249191 0.052981
0.444400 0.250441 0.041075
0.506815 0.254394 0.034273
0.570996 0.258817 0.035004
0.636368 0.264710 0.038038
0.701253 0.274422 0.043000
0.765131 0.288837 0.053534
0.827968 0.304993 0.065042
0.888870 0.322114 0.077116
0.948206 0.340098 0.090082
0.104004 0.305274 0.043349
0.138451 0.304282 0.044047
0.184009 0.302787 0.046849
0.235621 0.301561 0.053837
0.285327 0.302822 0.061484
0.332508 0.307945 0.056499
0.386924 0.312645 0.045209
0.451378 0.313797 0.042518
0.515995 0.316123 0.040873
0.577786 0.322282 0.043325
0.641354 0.329601 0.047090
0.708407 0.336521 0.051202
0.775886 0.343629 0.060464
0.840118 0.352875 0.074032
0.900801 0.365278 0.085902
0.959030 0.380223 0.097524
0.174655 0.363168 0.032945
0.196480 0.362605 0.033567
0.229991 0.361771 0.035075
0.273342 0.361011 0.038428
0.320551 0.361367 0.044220
0.366940 0.364480 0.049806
0.412052 0.371105 0.049973
0.462822 0.378243 0.046978
0.525066 0.381955 0.048373
0.590404 0.385658 0.051497
0.654994 0.391701 0.055898
0.717478 0.399858 0.062446
0.781112 0.406930 0.065124
0.844415 0.413680 0.075144
0.907173 0.420436 0.090419
0.968654 0.428344 0.107097
0.239871 0.423239 0.035175
0.255339 0.423006 0.035791
0.280869 0.422688 0.037085
0.316644 0.422496 0.039638
0.358910 0.422990 0.044003
0.403740 0.425160 0.050084
0.448081 0.430268 0.056052
0.491972 0.438696 0.058831
0.541127 0.447990 0.059121
0.601516 0.453621 0.061948
0.666125 0.457195 0.066291
0.730358 0.460880 0.068610
0.791104 0.466869 0.074245
0.851292 0.473483 0.079687
0.911160 0.480582 0.090711
0.971588 0.487616 0.105333
0.297122 0.487652 0.041909
0.309242 0.487643 0.042574
0.330135 0.487643 0.044357
0.360694 0.487848 0.047437
0.398399 0.488673 0.051443
0.440633 0.490640 0.057248
0.484502 0.494448 0.064514
0.527813 0.500677 0.071032
0.570956 0.509202 0.073856
0.618417 0.517737 0.073569
0.675254 0.522914 0.074604
0.737744 0.525518 0.078103
0.800408 0.528175 0.080687
0.861883 0.531870 0.082678
0.920221 0.538226 0.092954
0.978458 0.545507 0.108356
0.349599 0.555431 0.057745
0.359392 0.555521 0.057586
0.376615 0.555673 0.057611
0.402707 0.555955 0.058006
0.436832 0.556326 0.060776
0.476628 0.557093 0.066137
0.519160 0.558902 0.072255
0.562239 0.562387 0.078694
0.604438 0.568155 0.083809
0.646541 0.575940 0.085783
0.692298 0.583867 0.085426
0.746128 0.589224 0.085975
0.806674 0.591844 0.089138
0.868301 0.594384 0.092639
0.930430 0.597278 0.092990
0.989397 0.603016 0.108275
0.402116 0.620014 0.075232
0.410369 0.620030 0.074947
0.424950 0.620077 0.074425
0.447355 0.620203 0.073656
0.476990 0.620453 0.073213
0.512592 0.620935 0.073974
0.552593 0.621828 0.077719
0.594745 0.623671 0.084268
0.636804 0.627286 0.090651
0.677917 0.633113 0.095215
0.719173 0.640757 0.097201
0.763765 0.648703 0.097317
0.815526 0.654746 0.097926
0.874837 0.658042 0.100715
0.936618 0.661052 0.103898
0.993266 0.668364 0.158920
0.453194 0.682035 0.092311
0.460194 0.682042 0.091966
0.472698 0.682063 0.091403
0.492213 0.682124 0.090671
0.518409 0.682282 0.089977
0.550308 0.682670 0.089378
0.586695 0.683460 0.089411
0.626229 0.684899 0.091099
0.667432 0.687399 0.095500
0.708704 0.691569 0.101638
0.749302 0.697818 0.106685
0.790266 0.705835 0.109099
0.834526 0.714440 0.109449
0.885894 0.722092 0.110358
0.946139 0.727854 0.114815
0.994924 0.739459 0.235853
0.502178 0.743229 0.111150
0.508203 0.743263 0.110767
0.519040 0.743331 0.110124
0.536132 0.743462 0.109238
0.559407 0.743699 0.108292
0.588302 0.744122 0.107559
0.621902 0.744872 0.107361
0.659012 0.746192 0.107761
0.698427 0.748415 0.109038
0.739051 0.751980 0.112042
0.780049 0.757503 0.116626
0.821210 0.765404 0.121199
0.863657 0.775446 0.125180
0.909687 0.786439 0.129076
0.962151 0.796554 0.133923
0.996566 0.811692 0.328041
0.549033 0.805210 0.133802
0.554311 0.805300 0.133387
0.563858 0.805474 0.132686
0.579049 0.805785 0.131698
0.599994 0.806293 0.130599
0.626403 0.807089 0.129660
0.657676 0.808310 0.129219
0.693012 0.810179 0.129656
0.731499 0.813013 0.131337
0.772028 0.817181 0.134304
0.813545 0.823044 0.138370
0.855394 0.830838 0.143743
0.897549 0.840507 0.149746
0.940863 0.851484 0.156288
0.987078 0.862546 0.165709
0.998051 0.879759 0.457357
0.595472 0.872339 0.166025
0.600206 0.872569 0.165605
0.608802 0.872995 0.164892
0.622569 0.873700 0.163882
0.641717 0.874737 0.162746
0.666120 0.876164 0.161759
0.695376 0.878062 0.161268
0.728934 0.880514 0.161584
0.766085 0.883652 0.163037
0.805882 0.887651 0.165935
0.847381 0.892646 0.171387
0.889581 0.898821 0.180134
0.931604 0.906324 0.191409
0.972917 0.915028 0.208284
0.997003 0.925565 0.393327
0.999162 0.939221 0.609441
0.641495 0.944462 0.216643
0.645774 0.944722 0.216045
0.653586 0.945191 0.215043
0.666195 0.945936 0.213659
0.683915 0.946966 0.212189
0.706777 0.948277 0.211091
0.734536 0.949866 0.210967
0.766696 0.951739 0.212531
0.802574 0.953935 0.216641
0.841177 0.956531 0.224243
0.880936 0.959761 0.236931
0.920063 0.963984 0.256115
0.953587 0.970423 0.294561
0.982352 0.978595 0.345783
0.998622 0.984397 0.527983
0.999798 0.986296 0.762709
0.000197 0.018853 0.116489
0.061413 0.002931 0.152610
0.120590 0.005692 0.151187
0.181667 0.008029 0.150316
0.243552 0.011247 0.147932
0.306193 0.016115 0.137666
0.369129 0.022128 0.124182
0.432219 0.028953 0.113223
0.496572 0.035198 0.102512
0.561314 0.046216 0.091341
0.626469 0.062509 0.078945
0.692320 0.082810 0.065814
0.755275 0.117759 0.067154
0.818564 0.154722 0.079282
0.881206 0.190834 0.096658
0.940832 0.225914 0.113706
0.001355 0.067410 0.135103
0.048550 0.065379 0.154347
0.115270 0.066535 0.151681
0.180663 0.066099 0.150440
0.245657 0.065549 0.143691
0.310538 0.064920 0.131446
0.375870 0.062076 0.119171
0.441761 0.057122 0.106667
0.506749 0.056475 0.093778
0.572391 0.058289 0.077915
0.636438 0.072801 0.063347
0.697783 0.102772 0.059427
0.759079 0.136840 0.065331
0.821911 0.170843 0.079100
0.884159 0.203776 0.095925
0.943501 0.236469 0.112466
0.002929 0.124787 0.142264
0.031219 0.128650 0.150683
0.109986 0.128265 0.148606
0.176117 0.128577 0.146342
0.242693 0.128186 0.139364
0.308265 0.127330 0.132428
0.374759 0.125018 0.123102
0.442401 0.120806 0.110449
0.511429 0.114074 0.092420
0.582505 0.102741 0.063988
0.645075 0.114588 0.051091
0.703721 0.142192 0.054998
0.764396 0.170402 0.064234
0.827376 0.198179 0.078330
0.888973 0.226503 0.094161
0.947904 0.255433 0.109951
0.006548 0.184941 0.148639
0.026871 0.189690 0.145976
0.114790 0.187636 0.144715
0.177757 0.188323 0.146962
0.241667 0.189415 0.138410
0.311389 0.187418 0.124075
0.376975 0.186648 0.117341
0.444053 0.184823 0.107424
0.514720 0.179656 0.085817
0.584577 0.175366 0.058737
0.648518 0.181611 0.046179
0.709089 0.198249 0.050668
0.770936 0.218127 0.061755
0.834104 0.239170 0.075803
0.895023 0.261750 0.090398
0.953628 0.285628 0.105356
0.018653 0.247157 0.140341
0.060386 0.248953 0.133634
0.135302 0.246693 0.132917
0.199965 0.244828 0.137234
0.251460 0.248348 0.137452
0.312124 0.250418 0.128263
0.380406 0.249350 0.115963
0.447846 0.248761 0.100063
0.520075 0.244497 0.074703
0.588523 0.243384 0.060503
0.653122 0.248539 0.053640
0.716418 0.258782 0.052373
0.779154 0.273602 0.062097
0.841129 0.289937 0.074416
0.901226 0.307439 0.087183
0.959583 0.326268 0.100896
0.067453 0.309165 0.114338
0.112800 0.308253 0.112888
0.168228 0.306360 0.112586
0.227655 0.304114 0.115874
0.281960 0.304231 0.122196
0.330590 0.309039 0.118497
0.388815 0.312481 0.101823
0.457772 0.311332 0.086925
0.525360 0.311474 0.071359
0.589364 0.315176 0.067170
0.655668 0.319098 0.066133
0.724078 0.323397 0.067406
0.790813 0.329962 0.071782
0.852126 0.341413 0.082544
0.910806 0.355462 0.092844
0.967923 0.371254 0.104142
0.139956 0.369569 0.078346
0.168738 0.368702 0.077812
0.210516 0.367218 0.077940
0.262008 0.365288 0.080830
0.315564 0.364118 0.088448
0.365540 0.366021 0.096024
0.412872 0.371978 0.089638
0.467460 0.377563 0.074820
0.533136 0.379118 0.070693
0.599919 0.381353 0.069591
0.663925 0.387056 0.074422
0.727683 0.393500 0.077952
0.792879 0.398378 0.078032
0.857224 0.403206 0.086315
0.919156 0.409815 0.102489
0.977977 0.419815 0.118433
0.212644 0.429865 0.055592
0.231864 0.429327 0.055938
0.262664 0.428449 0.056934
0.304442 0.427357 0.059479
0.352274 0.426650 0.064750
0.401443 0.427513 0.073110
0.448452 0.431583 0.080933
0.493949 0.439338 0.081211
0.545273 0.447588 0.076984
0.608260 0.451506 0.078158
0.674048 0.453858 0.080578
0.738509 0.456832 0.081437
0.798732 0.462613 0.088202
0.860189 0.467771 0.089176
0.920839 0.473622 0.099340
0.980890 0.480272 0.118092
0.277052 0.493285 0.055276
0.291327 0.493027 0.056378
0.315218 0.492665 0.058189
0.349365 0.492353 0.060813
0.391003 0.492397 0.065266
0.436825 0.493419 0.072310
0.483472 0.496248 0.081546
0.528551 0.501698 0.089367
0.572816 0.509675 0.090707
0.621762 0.517438 0.087407
0.680704 0.521310 0.086897
0.744226 0.522966 0.089379
0.807688 0.524721 0.089918
0.868447 0.528454 0.093779
0.927325 0.534058 0.101981
0.985250 0.541163 0.118993
0.332450 0.560433 0.066917
0.343470 0.560383 0.066713
0.362646 0.560293 0.066567
0.391819 0.560058 0.068050
0.429261 0.559757 0.072280
0.471832 0.559870 0.077807
0.516842 0.560936 0.084612
0.561861 0.563698 0.092133
0.605321 0.568907 0.097634
0.648282 0.576271 0.098452
0.695109 0.583635 0.096185
0.750515 0.588048 0.095584
0.812074 0.589860 0.098176
0.874315 0.591735 0.100804
0.936617 0.594202 0.100658
0.990820 0.602440 0.142826
0.388201 0.624216 0.083342
0.397122 0.624164 0.082763
0.412859 0.624080 0.081800
0.437027 0.623955 0.080669
0.468885 0.623811 0.080193
0.507025 0.623718 0.081897
0.549483 0.623920 0.087514
0.593425 0.625183 0.094642
0.636806 0.628289 0.101348
0.678836 0.633705 0.106006
0.720753 0.641023 0.107233
0.766142 0.648553 0.106121
0.819115 0.653891 0.105977
0.879368 0.656501 0.108925
0.941662 0.659006 0.111977
0.993478 0.668461 0.192649
0.441738 0.685608 0.099818
0.449192 0.685563 0.099322
0.462482 0.685488 0.098504
0.483164 0.685388 0.097403
0.510780 0.685325 0.096138
0.544289 0.685410 0.094979
0.582470 0.685775 0.095068
0.623852 0.686668 0.097873
0.666639 0.688606 0.104101
0.708978 0.692341 0.111284
0.750238 0.698291 0.116365
0.791708 0.706059 0.118372
0.836588 0.714354 0.118185
0.888885 0.721517 0.118268
0.950096 0.726692 0.121719
0.995051 0.739634 0.259648
0.492475 0.746331 0.118300
0.498802 0.746331 0.117789
0.510170 0.746334 0.116929
0.528071 0.746356 0.115725
0.552394 0.746433 0.114393
0.582509 0.746639 0.113259
0.617395 0.747123 0.112593
0.655791 0.748130 0.112530
0.696510 0.749967 0.113979
0.738322 0.753125 0.117818
0.780218 0.758304 0.123262
0.822019 0.765936 0.128712
0.864902 0.775787 0.132379
0.911419 0.786554 0.134900
0.964646 0.796258 0.138915
0.996646 0.811883 0.344712
0.540639 0.807943 0.141051
0.546123 0.808012 0.140522
0.556037 0.808146 0.139624
0.571801 0.808389 0.138345
0.593507 0.808794 0.136887
0.620831 0.809446 0.135563
0.653123 0.810478 0.134761
0.689528 0.812119 0.134907
0.729057 0.814693 0.136333
0.770537 0.818588 0.139020
0.812907 0.824162 0.143163
0.855461 0.831674 0.149135
0.898115 0.841117 0.155474
0.941812 0.851889 0.162324
0.987752 0.862822 0.181219
0.998082 0.880024 0.466950
0.588166 0.874783 0.174354
0.593035 0.875001 0.173819
0.601876 0.875404 0.172904
0.616032 0.876068 0.171594
0.635715 0.877039 0.170084
0.660784 0.878371 0.168690
0.690812 0.880136 0.167802
0.725218 0.882416 0.167766
0.763244 0.885345 0.168959
0.803896 0.889105 0.171735
0.846183 0.893840 0.177334
0.889025 0.899776 0.185971
0.931556 0.907031 0.198382
0.973111 0.915523 0.218118
0.996999 0.925944 0.401648
0.999163 0.939501 0.614747
0.635554 0.946407 0.228081
0.639902 0.946666 0.227328
0.647845 0.947131 0.226058
0.660676 0.947864 0.224287
0.678729 0.948864 0.222352
0.702039 0.950119 0.220780
0.730356 0.951618 0.220250
0.763160 0.953363 0.221560
0.799731 0.955389 0.225668
0.839019 0.957780 0.233647
0.879379 0.960783 0.247339
0.918863 0.964830 0.267346
0.952546 0.971041 0.308787
0.981535 0.979087 0.357939
0.998575 0.984815 0.530999
0.999801 0.986470 0.766189
0.000289 0.028909 0.157971
0.057447 0.004018 0.207994
0.118404 0.005278 0.208687
0.178504 0.009231 0.209419
0.240519 0.012506 0.209478
0.303214 0.015788 0.208065
0.366461 0.020900 0.202752
0.431373 0.027238 0.188811
0.497372 0.033562 0.170965
0.562919 0.045120 0.155397
0.628386 0.061848 0.142842
0.694596 0.081401 0.132620
0.761260 0.105340 0.126248
0.827076 0.137158 0.128778
0.888241 0.178321 0.142497
0.945820 0.218458 0.157835
0.001448 0.069689 0.186951
0.047838 0.059839 0.219300
0.116287 0.060360 0.217178
0.178253 0.064907 0.212258
0.242786 0.064234 0.211397
0.308924 0.060259 0.208662
0.375722 0.055738 0.198383
0.442696 0.052416 0.180248
0.508367 0.053820 0.161682
0.574199 0.057179 0.145543
0.638558 0.071664 0.133470
0.703244 0.091729 0.124280
0.768476 0.116338 0.119588
0.832301 0.150037 0.125722
0.891973 0.190264 0.141195
0.949224 0.227814 0.156251
0.003551 0.125300 0.195485
0.028009 0.127967 0.209790
0.108381 0.126057 0.213059
0.175062 0.126751 0.211164
0.241720 0.125849 0.209141
0.309068 0.123993 0.202138
0.376706 0.121806 0.188550
0.444935 0.118105 0.172104
0.513868 0.112135 0.155305
0.584529 0.101731 0.136500
0.653292 0.098102 0.118783
0.716520 0.115414 0.110732
0.778745 0.141938 0.111236
0.839677 0.176038 0.123246
0.898574 0.210680 0.138161
0.955304 0.244213 0.152700
0.006647 0.185001 0.202186
0.020691 0.188949 0.209978
0.100714 0.189371 0.208918
0.174055 0.188871 0.206138
0.241094 0.188803 0.202120
0.309314 0.187935 0.193250
0.377212 0.186474 0.183324
0.445874 0.183895 0.171445
0.515844 0.179660 0.157010
0.587372 0.173281 0.138915
0.661046 0.163223 0.114842
0.729179 0.165581 0.099395
0.789701 0.188154 0.105663
0.849956 0.214470 0.118505
0.908164 0.241856 0.131779
0.964225 0.270175 0.145756
0.013160 0.246830 0.204516
0.027678 0.250834 0.203053
0.105890 0.251240 0.200103
0.186200 0.248635 0.197339
0.248801 0.249205 0.197855
0.312169 0.250554 0.189631
0.379929 0.249986 0.180347
0.449494 0.248066 0.169600
0.522309 0.243471 0.152819
0.595340 0.238139 0.131200
0.667247 0.234151 0.108290
0.737435 0.233798 0.090627
0.801434 0.245490 0.093756
0.860944 0.264261 0.106803
0.918659 0.284541 0.119284
0.973031 0.308782 0.136501
0.033340 0.310969 0.191310
0.068015 0.312749 0.185765
0.139592 0.311401 0.182572
0.211774 0.308547 0.180479
0.276223 0.306559 0.183838
0.327943 0.310433 0.182834
0.388870 0.312799 0.172801
0.457656 0.312050 0.162357
0.524786 0.312571 0.153238
0.595304 0.311592 0.141749
0.668117 0.309558 0.127225
0.741152 0.308528 0.108202
0.809675 0.311788 0.093272
0.869320 0.323946 0.099490
0.926563 0.338756 0.109947
0.979484 0.358947 0.131206
0.099419 0.374249 0.162345
0.136402 0.373551 0.160674
0.186849 0.372068 0.158593
0.246495 0.369699 0.157473
0.307357 0.367334 0.160626
0.361900 0.367946 0.166920
0.410426 0.373607 0.163756
0.468265 0.378070 0.149737
0.537196 0.378049 0.140898
0.605180 0.379539 0.133214
0.670047 0.384184 0.134614
0.739508 0.385714 0.125043
0.809362 0.385421 0.116028
0.876144 0.386696 0.112031
0.935034 0.395379 0.122067
0.982802 0.416088 0.157884
0.176119 0.436616 0.129541
0.200196 0.435976 0.128554
0.237554 0.434807 0.127409
0.286805 0.433019 0.127510
0.341778 0.431070 0.131614
0.396432 0.430416 0.141104
