entry/src/main/resources/rawfile/filters/Lowsun.cube
TITLE "Lowsun - Original look 1.0 (Standard/sRGB base)"
LUT_3D_SIZE 6
0.005316 0.012816 0.024704
0.185053 0.012297 0.015981
0.367863 0.024558 0.015179
0.543572 0.095530 0.019014
0.728428 0.176257 0.040484
0.924309 0.254298 0.085751
0.025162 0.184915 0.021954
0.183125 0.187351 0.041415
0.368332 0.192571 0.018901
0.554674 0.210295 0.022899
0.743440 0.255177 0.042786
0.934523 0.312044 0.083406
0.193631 0.358699 0.023337
0.279597 0.358196 0.027835
0.410633 0.370708 0.038354
0.584757 0.388151 0.044529
0.774848 0.411235 0.059902
0.962618 0.433828 0.101294
0.358041 0.552776 0.053832
0.408296 0.553731 0.054062
0.520265 0.557819 0.066692
0.645509 0.575768 0.080075
0.803705 0.592913 0.084830
0.986567 0.604508 0.101399
0.507209 0.741563 0.107674
0.540312 0.741912 0.106058
0.624222 0.743678 0.104701
0.739455 0.751345 0.109485
0.862993 0.775236 0.122340
0.996517 0.811587 0.318633
0.644773 0.943364 0.211080
0.669214 0.944858 0.208458
0.736795 0.948898 0.206371
0.842333 0.955842 0.219569
0.954139 0.970070 0.287161
0.999796 0.986201 0.760815
0.000289 0.028909 0.157971
0.178504 0.009231 0.209419
0.366461 0.020900 0.202752
0.562919 0.045120 0.155397
0.761260 0.105340 0.126248
0.945820 0.218458 0.157835
0.006647 0.185001 0.202186
0.174055 0.188871 0.206138
0.377212 0.186474 0.183324
0.587372 0.173281 0.138915
0.789701 0.188154 0.105663
0.964225 0.270175 0.145756
0.099419 0.374249 0.162345
0.246495 0.369699 0.157473
0.410426 0.373607 0.163756
0.605180 0.379539 0.133214
0.809362 0.385421 0.116028
0.982802 0.416088 0.157884
0.299947 0.568653 0.091082
0.372528 0.566596 0.095857
0.512310 0.564177 0.115997
0.650162 0.576920 0.129762
0.820447 0.586688 0.117399
0.990719 0.602892 0.197161
0.475422 0.751453 0.132766
0.513864 0.751178 0.128614
0.609356 0.750933 0.122438
0.737108 0.754934 0.130840
0.866812 0.776292 0.149289
0.996759 0.812192 0.370358
0.626446 0.949264 0.250906
0.652039 0.950759 0.245464
0.723573 0.954353 0.238312
0.835444 0.959736 0.251802
0.950812 0.972014 0.331927
0.999805 0.986752 0.771861
0.000895 0.074966 0.306036
0.176346 0.013606 0.382560
0.363967 0.029622 0.382106
0.561112 0.055114 0.370944
0.763367 0.110446 0.357869
0.952147 0.217488 0.337523
0.010811 0.188267 0.368707
0.175588 0.183119 0.398389
0.375017 0.187256 0.381522
0.588323 0.172508 0.369222
0.794764 0.188730 0.342378
0.969779 0.271246 0.325690
0.055434 0.378428 0.372060
0.201515 0.380261 0.371044
0.401849 0.380100 0.364644
0.609289 0.382105 0.346493
0.818334 0.383047 0.326540
0.986409 0.417569 0.336922
0.185611 0.586337 0.350002
0.290382 0.585033 0.346016
0.477769 0.578131 0.339789
0.642213 0.582352 0.350636
0.825569 0.586074 0.337134
0.990640 0.604444 0.382856
0.381337 0.772774 0.305048
0.430643 0.772912 0.292807
0.562078 0.768481 0.282152
0.724965 0.762970 0.310276
0.864970 0.780812 0.330627
0.996949 0.814080 0.490931
0.573896 0.963866 0.376860
0.603451 0.965129 0.372135
0.685655 0.967701 0.363208
0.813285 0.970085 0.367327
0.940536 0.975900 0.472053
0.999825 0.988330 0.803647
0.002513 0.121859 0.465870
0.176351 0.040017 0.553177
0.367261 0.054981 0.553053
0.560491 0.102561 0.539569
0.757159 0.163260 0.541387
0.942315 0.246180 0.552124
0.012233 0.195017 0.546680
0.180453 0.176392 0.588320
0.385215 0.176487 0.578362
0.584355 0.193355 0.554852
0.781423 0.227816 0.552757
0.962100 0.287460 0.554276
0.094356 0.381135 0.554455
0.210890 0.386311 0.546431
0.406360 0.383056 0.562645
0.606560 0.389831 0.558129
0.817555 0.384742 0.559655
0.986933 0.420147 0.548776
0.163151 0.590975 0.561812
0.265808 0.591071 0.561197
0.439189 0.590873 0.558867
0.629108 0.589980 0.558033
0.830710 0.586970 0.533362
0.992674 0.609590 0.544711
0.245198 0.790824 0.539667
0.326244 0.789850 0.538398
0.485363 0.787273 0.531829
0.687397 0.779084 0.525682
0.854994 0.788733 0.547345
0.997161 0.818485 0.640449
0.462808 0.987303 0.557216
0.500831 0.988507 0.553761
0.602939 0.990676 0.543961
0.775481 0.983623 0.564931
0.921178 0.983244 0.638991
0.999869 0.991058 0.857380
0.007412 0.160295 0.644724
0.179735 0.125855 0.691935
0.369635 0.134252 0.697585
0.560954 0.171333 0.692141
0.748720 0.235266 0.697699
0.930114 0.300092 0.707124
0.049338 0.221127 0.700919
0.196120 0.216013 0.715475
0.385585 0.217024 0.722726
0.580765 0.236412 0.717424
0.768222 0.282946 0.715214
0.947861 0.333433 0.716434
0.121072 0.389359 0.737015
0.206174 0.394859 0.743840
0.412397 0.387842 0.763559
0.615606 0.389753 0.765323
0.810616 0.400486 0.749001
0.983087 0.433802 0.733967
0.190537 0.593238 0.755764
0.288862 0.592855 0.751632
0.435544 0.599609 0.735261
0.632711 0.591761 0.754723
0.824919 0.592639 0.743871
0.993232 0.614586 0.746723
0.243689 0.792775 0.746744
0.318779 0.792614 0.746397
0.468930 0.792383 0.745788
0.650173 0.793532 0.747015
0.838352 0.799756 0.764080
0.997845 0.827380 0.788913
0.419697 0.995643 0.776347
0.465232 0.995862 0.778031
0.577807 0.996062 0.781844
0.727808 0.996598 0.788800
0.881692 0.996760 0.817852
0.999932 0.995028 0.926094
0.062627 0.230992 0.780454
0.197733 0.226752 0.796088
0.377058 0.229602 0.815170
0.564016 0.254010 0.828672
0.747327 0.300902 0.840082
0.920408 0.359737 0.845381
0.117507 0.285377 0.806950
0.223001 0.282850 0.821146
0.393595 0.284285 0.841680
0.579962 0.302108 0.856598
0.763032 0.337448 0.860104
0.935205 0.387768 0.858947
0.192905 0.417949 0.869296
0.270574 0.417377 0.882702
0.425772 0.416173 0.908429
0.612219 0.420019 0.916755
0.799111 0.433568 0.907718
0.972727 0.466034 0.893618
0.238601 0.598696 0.928129
0.309084 0.598723 0.931248
0.453697 0.598227 0.939615
0.633687 0.594727 0.953282
0.830081 0.592078 0.949877
0.993565 0.629560 0.921454
0.248397 0.795395 0.947379
0.325268 0.795259 0.946389
0.481688 0.795081 0.942054
0.665062 0.797542 0.937267
0.845817 0.804295 0.962832
0.998151 0.840217 0.941858
0.462004 0.996501 0.956706
0.502759 0.996627 0.957286
0.602761 0.997033 0.959529
0.732504 0.998051 0.975610
0.870943 0.999331 0.997414
1.000000 1.000000 1.000000
