entry/src/main/resources/rawfile/filters/Matinee.cube
TITLE "Matinee - Original look 1.0 (Standard/sRGB base)"
LUT_3D_SIZE 16
0.000000 0.000000 0.000000
0.006772 0.000344 0.000013
0.040440 0.002183 0.000146
0.104785 0.006605 0.000946
0.165447 0.011652 0.007612
0.223908 0.028030 0.032947
0.289439 0.044664 0.059774
0.362576 0.053669 0.066749
0.434854 0.071855 0.059908
0.505569 0.096064 0.036924
0.568677 0.135877 0.035863
0.635942 0.166230 0.048493
0.704456 0.193264 0.067659
0.771802 0.221634 0.088971
0.837393 0.251381 0.112492
0.901178 0.282948 0.138688
0.006505 0.013571 0.000205
0.020813 0.019123 0.000558
0.066361 0.026923 0.001397
0.122630 0.031578 0.001097
0.184663 0.033588 0.003583
0.241754 0.049743 0.030162
0.300953 0.069336 0.062224
0.371980 0.078805 0.068088
0.443566 0.093342 0.057442
0.511430 0.117441 0.038165
0.574521 0.151583 0.039055
0.641458 0.178932 0.053326
0.708947 0.205123 0.072777
0.775309 0.232771 0.094429
0.840022 0.262010 0.118432
0.903141 0.292916 0.144533
0.028665 0.066230 0.006004
0.049297 0.070682 0.012990
0.073805 0.081212 0.020696
0.119852 0.091041 0.036383
0.189633 0.093825 0.019638
0.258117 0.097772 0.005863
0.325989 0.101562 0.011047
0.395427 0.106746 0.026116
0.461656 0.121448 0.036420
0.524160 0.146303 0.040359
0.587333 0.173390 0.047700
0.652574 0.198295 0.064614
0.717683 0.224191 0.084741
0.781765 0.251589 0.107075
0.844604 0.280538 0.131609
0.907015 0.309835 0.155437
0.048174 0.129179 0.048005
0.068952 0.132355 0.059296
0.092640 0.140072 0.072869
0.123632 0.152871 0.081439
0.178879 0.162429 0.090458
0.252345 0.166515 0.075052
0.333471 0.166747 0.021069
0.402089 0.173393 0.017296
0.470928 0.180872 0.023245
0.539063 0.191739 0.037754
0.605145 0.207623 0.058260
0.668993 0.228134 0.081891
0.730841 0.252974 0.106896
0.791794 0.279621 0.131057
0.852879 0.306857 0.154028
0.914472 0.333746 0.173227
0.074284 0.197167 0.091674
0.095723 0.199070 0.097624
0.123835 0.203528 0.105604
0.155756 0.212728 0.109499
0.197101 0.225117 0.101371
0.262066 0.232512 0.088756
0.336037 0.236266 0.072140
0.411420 0.238848 0.035379
0.480602 0.245327 0.029961
0.549881 0.252722 0.039223
0.617935 0.262180 0.059142
0.684291 0.274764 0.084777
0.746614 0.292916 0.117107
0.806392 0.315321 0.148773
0.865998 0.339352 0.175337
0.926566 0.363194 0.192767
0.134440 0.265295 0.088939
0.152546 0.266389 0.091932
0.179374 0.268905 0.096056
0.212452 0.274303 0.097938
0.248345 0.283770 0.089301
0.292591 0.295102 0.063404
0.354871 0.301744 0.046624
0.422733 0.306774 0.045687
0.490028 0.312978 0.051032
0.559346 0.318759 0.052738
0.628504 0.325375 0.062359
0.695168 0.334496 0.085462
0.759929 0.346166 0.113125
0.821552 0.362002 0.146861
0.881668 0.380450 0.178700
0.941686 0.399877 0.202159
0.214202 0.330996 0.047779
0.227178 0.331801 0.050855
0.248098 0.333579 0.055999
0.276224 0.337291 0.062940
0.307597 0.344208 0.067330
0.340338 0.355077 0.063794
0.379173 0.367689 0.058190
0.435001 0.376189 0.060159
0.500739 0.381709 0.068427
0.567685 0.387535 0.077347
0.636199 0.393028 0.082058
0.704759 0.398964 0.090829
0.770350 0.407509 0.114765
0.833243 0.418896 0.144982
0.894267 0.432550 0.174993
0.954769 0.447009 0.200549
0.282337 0.398201 0.049253
0.291401 0.399163 0.052108
0.306898 0.401018 0.057948
0.329382 0.404338 0.068230
0.356510 0.409842 0.081580
0.385816 0.418479 0.092090
0.417205 0.430436 0.092293
0.455971 0.443263 0.085804
0.511315 0.451763 0.086090
0.577313 0.456579 0.093905
0.644239 0.461652 0.101734
0.711264 0.467178 0.113028
0.777887 0.473345 0.126708
0.843374 0.480477 0.144353
0.905187 0.490208 0.170987
0.965108 0.501332 0.197071
0.336166 0.468352 0.076095
0.343839 0.469165 0.077766
0.357238 0.470703 0.081399
0.377357 0.473353 0.088728
0.402765 0.477524 0.101036
0.431198 0.483887 0.116172
0.460886 0.493255 0.125026
0.492802 0.505465 0.121210
0.532311 0.517974 0.112198
0.587088 0.526367 0.111129
0.652964 0.530736 0.117808
0.719931 0.534958 0.123465
0.786142 0.539713 0.131299
0.850559 0.545410 0.143270
0.914073 0.551328 0.162454
0.974364 0.559425 0.193526
0.390860 0.537245 0.115313
0.397439 0.537910 0.116835
0.409029 0.539182 0.119578
0.426723 0.541391 0.124188
0.449752 0.544810 0.131871
0.476601 0.549859 0.143090
0.505488 0.557178 0.153717
0.535562 0.567187 0.158052
0.568731 0.579241 0.151057
0.610070 0.590794 0.138003
0.665100 0.598303 0.130157
0.730427 0.601725 0.129082
0.795872 0.604975 0.131357
0.859820 0.609004 0.137544
0.922592 0.614063 0.146004
0.982915 0.620978 0.175500
0.447051 0.604756 0.158286
0.452855 0.605268 0.159892
0.463179 0.606245 0.162731
0.479166 0.607941 0.167033
0.500330 0.610616 0.171960
0.525692 0.614592 0.176348
0.554069 0.620208 0.179393
0.584326 0.627808 0.179287
0.616107 0.637518 0.172588
0.650864 0.648539 0.159343
0.692182 0.658844 0.146890
0.744598 0.665861 0.139249
0.806521 0.669350 0.138477
0.869499 0.672863 0.142591
0.931985 0.677412 0.150880
0.988579 0.685806 0.197832
0.510153 0.669405 0.173757
0.515304 0.669781 0.174531
0.524523 0.670498 0.175914
0.538941 0.671743 0.178040
0.558311 0.673687 0.180739
0.581900 0.676563 0.183547
0.608659 0.680682 0.185571
0.637459 0.686415 0.185101
0.667464 0.694076 0.180902
0.698556 0.703643 0.173588
0.732121 0.714446 0.164939
0.771521 0.724944 0.157407
0.820866 0.732998 0.154511
0.880135 0.737990 0.158842
0.942220 0.743293 0.169637
0.992072 0.755184 0.266866
0.576187 0.730744 0.171510
0.580600 0.731047 0.172119
0.588540 0.731626 0.173243
0.601057 0.732635 0.175079
0.618067 0.734219 0.177676
0.639084 0.736578 0.180970
0.663316 0.739984 0.184698
0.689808 0.744774 0.188308
0.717642 0.751344 0.190969
0.746210 0.759981 0.191917
0.775726 0.770634 0.191110
0.807855 0.782749 0.189630
0.846051 0.795199 0.189930
0.894218 0.806178 0.195848
0.952868 0.814463 0.212557
0.994793 0.827397 0.356415
0.638098 0.791797 0.180728
0.641850 0.792118 0.181597
0.648630 0.792727 0.183223
0.659393 0.793776 0.185954
0.674168 0.795397 0.190011
0.692660 0.797766 0.195616
0.714307 0.801115 0.202945
0.738370 0.805759 0.212066
0.764148 0.812203 0.222946
0.790934 0.820867 0.234450
0.818444 0.831974 0.245707
0.847128 0.845339 0.256376
0.878537 0.860056 0.267051
0.915268 0.874381 0.282321
0.959856 0.886170 0.307015
0.996441 0.896144 0.442613
0.692562 0.857307 0.217233
0.695861 0.857714 0.218874
0.701846 0.858480 0.221975
0.711413 0.859774 0.227290
0.724662 0.861727 0.235288
0.741397 0.864524 0.245914
0.761198 0.868372 0.259122
0.783465 0.873515 0.274581
0.807505 0.880221 0.291649
0.832613 0.888652 0.310439
0.858184 0.898809 0.331108
0.883949 0.910534 0.352620
0.910208 0.923290 0.374260
0.937102 0.936265 0.398346
0.967917 0.947495 0.420571
0.997660 0.954646 0.516005
0.741736 0.929308 0.302210
0.744703 0.929696 0.304415
0.750089 0.930417 0.308473
0.758711 0.931614 0.315109
0.770679 0.933369 0.324591
0.785865 0.935770 0.337039
0.803926 0.938912 0.352368
0.824326 0.942899 0.370227
0.846402 0.947842 0.389995
0.868622 0.953969 0.412731
0.890362 0.961232 0.436743
0.912120 0.969232 0.457835
0.934639 0.977804 0.473807
0.959361 0.987244 0.484959
0.987170 0.996646 0.491294
0.999655 0.996326 0.708513
0.000084 0.000004 0.002851
0.009923 0.000093 0.009742
0.047788 0.000506 0.017626
0.111614 0.002663 0.031452
0.167555 0.009341 0.048983
0.226323 0.024381 0.072843
0.291709 0.040590 0.091978
0.365004 0.049433 0.095351
0.437083 0.068726 0.087568
0.510332 0.087752 0.063263
0.577432 0.121212 0.049180
0.643372 0.154919 0.060509
0.709806 0.185776 0.080806
0.775101 0.217579 0.103504
0.838796 0.250260 0.128234
0.901826 0.282875 0.153216
0.000501 0.017175 0.016564
0.021518 0.021120 0.021356
0.068325 0.027910 0.028003
0.118864 0.035551 0.038409
0.170915 0.049397 0.059915
0.229412 0.065181 0.083954
0.295391 0.077496 0.098998
0.370788 0.082311 0.096367
0.444730 0.093358 0.082474
0.515896 0.111481 0.059431
0.581790 0.141321 0.050817
0.647541 0.170808 0.064967
0.713242 0.199849 0.085791
0.777745 0.230294 0.108951
0.840928 0.261709 0.133689
0.903739 0.292960 0.157957
0.011995 0.071839 0.034698
0.043081 0.073288 0.043816
0.072915 0.081906 0.057342
0.126218 0.088615 0.062267
0.200555 0.087432 0.039368
0.257140 0.098188 0.063926
0.315521 0.111910 0.090249
0.384680 0.120962 0.095296
0.459069 0.126900 0.076676
0.526631 0.144826 0.059284
0.591025 0.170113 0.058533
0.655407 0.196011 0.076008
0.719354 0.223342 0.097563
0.782341 0.252055 0.120908
0.844881 0.281246 0.144503
0.907355 0.310322 0.166790
0.030757 0.132542 0.078105
0.060852 0.134483 0.087865
0.090978 0.140583 0.102204
0.123249 0.152875 0.111422
0.180150 0.161801 0.119043
0.264418 0.160822 0.075066
0.344978 0.159081 0.035265
0.413248 0.163673 0.039562
0.481341 0.170222 0.048395
0.546139 0.184486 0.059564
0.607651 0.205873 0.078748
0.668491 0.230137 0.101053
0.729636 0.255825 0.122433
0.790838 0.282062 0.143287
0.852191 0.308842 0.164267
0.914054 0.335287 0.182057
0.060545 0.199442 0.115680
0.087811 0.200797 0.121169
0.120918 0.204371 0.129495
0.155314 0.212883 0.134976
0.197050 0.225204 0.128773
0.262839 0.232313 0.118828
0.338627 0.235290 0.100023
0.418795 0.234786 0.053419
0.489860 0.238876 0.045990
0.559284 0.244974 0.054556
0.624671 0.256134 0.079084
0.686046 0.273457 0.111384
0.745688 0.294469 0.141196
0.805137 0.317394 0.166341
0.864749 0.341528 0.188334
0.925593 0.365150 0.202344
0.126098 0.267234 0.113480
0.146572 0.268044 0.116231
0.176131 0.270070 0.120500
0.211416 0.274881 0.123746
0.248086 0.284081 0.118296
0.292379 0.295467 0.098578
0.356284 0.301675 0.079741
0.426090 0.305754 0.071573
0.495129 0.310582 0.070899
0.566289 0.314629 0.066503
0.635480 0.320503 0.076027
0.699922 0.330866 0.103972
0.761435 0.345071 0.136804
0.821718 0.362072 0.168630
0.881224 0.381157 0.196854
0.941104 0.400884 0.215930
0.207404 0.333249 0.075210
0.221778 0.333770 0.078998
0.244551 0.335094 0.085478
0.274437 0.338272 0.093916
0.306898 0.344785 0.099851
0.339949 0.355590 0.096728
0.379417 0.368226 0.084140
0.436941 0.376024 0.082254
0.503321 0.381017 0.090139
0.570648 0.386367 0.098353
0.640757 0.390649 0.096709
0.709953 0.395794 0.102895
0.773213 0.405629 0.133181
0.834277 0.418237 0.165255
0.895004 0.432071 0.192639
0.955248 0.446725 0.216056
0.275439 0.400853 0.063879
0.285479 0.401573 0.068370
0.302511 0.402982 0.077538
0.326803 0.405655 0.092899
0.355283 0.410577 0.109857
0.385250 0.418907 0.121223
0.416789 0.430825 0.121312
0.455946 0.443696 0.110121
0.512573 0.451708 0.107065
0.578949 0.456211 0.114822
0.646211 0.460971 0.121591
0.714002 0.465930 0.128986
0.781372 0.471457 0.138950
0.845282 0.479355 0.161267
0.906089 0.489663 0.188324
0.965835 0.500862 0.212473
0.330499 0.470540 0.088671
0.338735 0.471218 0.091147
0.353100 0.472488 0.096716
0.374569 0.474674 0.108151
0.401285 0.478274 0.125713
0.430454 0.484288 0.142121
0.460448 0.493515 0.150895
0.492360 0.505729 0.147976
0.532178 0.518314 0.134563
0.587970 0.526380 0.129478
0.654411 0.530427 0.134780
0.722065 0.534246 0.137193
0.788888 0.538554 0.142052
0.853292 0.544042 0.154592
0.915814 0.550321 0.177958
0.975003 0.559066 0.209297
0.386877 0.538755 0.130066
0.393709 0.539368 0.131551
0.405744 0.540540 0.134392
0.424124 0.542558 0.139746
0.447965 0.545702 0.148867
0.475533 0.550470 0.161212
0.504920 0.557567 0.172628
0.535233 0.567466 0.177323
0.568479 0.579525 0.170200
0.610236 0.591087 0.152708
0.666266 0.598274 0.140457
0.732365 0.601294 0.137489
0.798334 0.604180 0.138172
0.862558 0.607915 0.143854
0.925275 0.612827 0.153519
0.983104 0.620887 0.195331
0.444124 0.605861 0.171914
0.450069 0.606348 0.173362
0.460638 0.607277 0.175934
0.476976 0.608903 0.179723
0.498558 0.611496 0.183833
0.524427 0.615338 0.187866
0.553316 0.620778 0.191331
0.583962 0.628221 0.191962
0.615959 0.637848 0.185744
0.650915 0.648874 0.170427
0.692670 0.659104 0.154288
0.745808 0.665821 0.144904
0.808340 0.668972 0.143465
0.871631 0.672230 0.147619
0.934257 0.676586 0.156456
0.988817 0.685797 0.213130
0.507783 0.670341 0.185925
0.513027 0.670699 0.186626
0.522411 0.671383 0.187884
0.537078 0.672573 0.189833
0.556769 0.674439 0.192338
0.580721 0.677216 0.194993
0.607839 0.681233 0.196730
0.636969 0.686865 0.196100
0.667235 0.694445 0.191691
0.698549 0.703981 0.182845
0.732318 0.714752 0.172558
0.772006 0.725163 0.163645
0.821861 0.732998 0.159874
0.881589 0.737738 0.164055
0.943890 0.742873 0.175226
0.992225 0.755249 0.278490
0.573981 0.731689 0.181014
0.578471 0.731975 0.181626
0.586547 0.732522 0.182759
0.599271 0.733479 0.184620
0.616549 0.734991 0.187269
0.637873 0.737261 0.190648
0.662424 0.740567 0.194475
0.689217 0.745257 0.198136
0.717310 0.751739 0.200672
0.746079 0.760315 0.201180
0.775740 0.770936 0.199626
0.807992 0.783034 0.197270
0.846377 0.795433 0.196866
0.894873 0.806269 0.202660
0.953753 0.814388 0.220283
0.994883 0.827472 0.365112
0.636080 0.792718 0.188181
0.639893 0.793024 0.189094
0.646781 0.793604 0.190804
0.657711 0.794606 0.193686
0.672705 0.796162 0.197990
0.691453 0.798446 0.203973
0.713370 0.801697 0.211847
0.737692 0.806238 0.221611
0.763691 0.812602 0.232615
0.790651 0.821204 0.244003
0.818278 0.832269 0.255110
0.847016 0.845612 0.265586
0.878448 0.860313 0.276029
0.915243 0.874597 0.290916
0.960013 0.886284 0.314936
0.996498 0.896173 0.449354
0.690897 0.858064 0.225942
0.694246 0.858455 0.227703
0.700319 0.859191 0.231011
0.710007 0.860447 0.236466
0.723396 0.862363 0.244312
0.740297 0.865114 0.254716
0.760282 0.868909 0.267622
0.782738 0.873992 0.282706
0.806964 0.880634 0.299430
0.832239 0.888996 0.317940
0.857941 0.899090 0.338295
0.883788 0.910765 0.359455
0.910071 0.923488 0.380719
0.936965 0.936433 0.404358
0.967846 0.947608 0.426039
0.997688 0.954676 0.520755
0.740296 0.929931 0.309663
0.743290 0.930312 0.311814
0.748726 0.931021 0.315777
0.757425 0.932197 0.322261
0.769498 0.933923 0.331537
0.784815 0.936284 0.343733
0.803025 0.939379 0.358778
0.823587 0.943308 0.376334
0.845822 0.948188 0.395807
0.868160 0.954256 0.418309
0.890027 0.961452 0.442002
0.911894 0.969389 0.462765
0.934501 0.977926 0.478472
0.959276 0.987348 0.489393
0.987105 0.996734 0.495533
0.999659 0.996350 0.711222
0.000606 0.000071 0.020455
0.013398 0.000229 0.037184
0.053677 0.001601 0.053948
0.111946 0.004913 0.076082
0.168052 0.008975 0.101094
0.227789 0.018971 0.130468
0.294083 0.030088 0.150553
0.367816 0.038448 0.152102
0.440620 0.059583 0.140671
0.513669 0.081276 0.119085
0.583803 0.109935 0.101267
0.649672 0.145079 0.105177
0.713561 0.181144 0.121296
0.777193 0.215854 0.139577
0.840336 0.249408 0.159087
0.903191 0.282237 0.179464
0.001599 0.018663 0.056048
0.023748 0.023642 0.065227
0.067364 0.030964 0.073595
0.117607 0.036955 0.091613
0.172383 0.046598 0.115609
0.232045 0.059467 0.138992
0.298765 0.070518 0.150691
0.374472 0.075244 0.145838
0.448629 0.087023 0.130376
0.519304 0.107091 0.110563
0.588045 0.132404 0.096966
0.652736 0.164194 0.105928
0.716227 0.197046 0.123289
0.779488 0.229378 0.142231
0.842368 0.261170 0.162110
0.905028 0.292548 0.182401
0.004154 0.074662 0.083164
0.027330 0.078088 0.090661
0.071661 0.083124 0.102161
0.121511 0.091141 0.116720
0.178345 0.100498 0.131526
0.237855 0.111453 0.146544
0.306199 0.120386 0.149882
0.382070 0.125344 0.139638
0.460223 0.127741 0.116819
0.529046 0.144147 0.100023
0.595157 0.166683 0.095822
0.658231 0.194288 0.110900
0.721059 0.223037 0.129435
0.783679 0.252054 0.148832
0.846095 0.281253 0.168875
0.908480 0.310303 0.188258
0.005638 0.136765 0.121631
0.029024 0.140298 0.127927
0.082945 0.143022 0.139647
0.123263 0.152765 0.152049
0.187555 0.159412 0.148292
0.270402 0.159350 0.115421
0.335563 0.166276 0.123799
0.402545 0.173921 0.127942
0.474293 0.179693 0.116318
0.544681 0.189086 0.101430
0.606388 0.210333 0.110430
0.667497 0.234042 0.127217
0.729111 0.258857 0.144996
0.790673 0.284364 0.163462
0.852283 0.310576 0.182630
0.914384 0.336528 0.198815
0.025377 0.203821 0.151766
0.062269 0.205176 0.155285
0.111632 0.206945 0.162687
0.154596 0.213311 0.170978
0.197462 0.225253 0.167649
0.264701 0.231866 0.159322
0.346458 0.232242 0.127622
0.423701 0.232614 0.104282
0.493645 0.236688 0.105756
0.563341 0.242193 0.109515
0.625891 0.256048 0.127516
0.684250 0.276657 0.151031
0.743438 0.298440 0.170349
0.802989 0.321435 0.188360
0.862944 0.345231 0.205746
0.924383 0.368207 0.216255
0.104527 0.271407 0.148680
0.131482 0.271721 0.150692
0.167963 0.272781 0.154625
0.208932 0.276221 0.159545
0.247929 0.284598 0.158181
0.292267 0.296016 0.144048
0.357026 0.301881 0.131859
0.427134 0.305811 0.125931
0.498522 0.309218 0.119983
0.571360 0.311798 0.113778
0.641119 0.316680 0.119802
0.702675 0.329029 0.146979
0.762084 0.344968 0.175681
0.820970 0.363333 0.202071
0.879799 0.383312 0.223537
0.939791 0.403269 0.235376
0.195181 0.336794 0.119627
0.211751 0.337020 0.122352
0.237586 0.337796 0.127550
0.270764 0.340149 0.135492
0.305601 0.345837 0.142995
0.339294 0.356320 0.143571
0.378698 0.368990 0.135722
0.437455 0.376266 0.134730
0.503931 0.381150 0.140785
0.571914 0.386080 0.145195
0.645167 0.388423 0.134601
0.715104 0.392716 0.137859
0.775564 0.404215 0.169856
0.835898 0.417238 0.197533
0.896100 0.431425 0.221412
0.955726 0.446644 0.241159
0.264953 0.404355 0.108222
0.276658 0.404676 0.113821
0.295881 0.405535 0.123014
0.322471 0.407589 0.136065
0.352981 0.411866 0.150786
0.384268 0.419671 0.162027
0.416085 0.431436 0.163808
0.455203 0.444340 0.155791
0.512990 0.451859 0.153704
0.579377 0.456310 0.159981
0.646411 0.461112 0.166504
0.716090 0.465061 0.165713
0.785615 0.469184 0.167070
0.847359 0.478195 0.192506
0.907668 0.488713 0.216519
0.967116 0.500038 0.238026
0.321433 0.473679 0.123901
0.330754 0.474081 0.127778
0.346825 0.474871 0.135573
0.370293 0.476435 0.148591
0.398647 0.479512 0.164549
0.429034 0.485106 0.178909
0.459724 0.494038 0.187612
0.491666 0.506196 0.186801
0.531369 0.518817 0.177260
0.587988 0.526565 0.173066
0.654688 0.530503 0.176379
0.723272 0.533946 0.173590
0.791792 0.537379 0.170143
0.856624 0.542371 0.181055
0.917593 0.549300 0.207895
0.976090 0.558465 0.235441
0.379537 0.541374 0.157222
0.386821 0.541905 0.158544
0.399684 0.542897 0.161473
0.419339 0.544578 0.167619
0.444686 0.547236 0.178270
0.473616 0.551482 0.192241
0.503926 0.558168 0.204841
0.534655 0.567864 0.210352
0.567941 0.579943 0.203763
0.609947 0.591530 0.186217
0.667391 0.598318 0.169135
0.734908 0.600751 0.160311
0.802159 0.602944 0.155159
0.867166 0.606064 0.157766
0.929497 0.610861 0.170939
0.983420 0.620716 0.227547
0.438406 0.607959 0.194386
0.444618 0.608401 0.195572
0.455630 0.609257 0.197561
0.472602 0.610781 0.200250
0.495067 0.613180 0.203619
0.522004 0.616704 0.208084
0.551917 0.621760 0.213150
0.583292 0.628888 0.215524
0.615652 0.638369 0.210318
0.650786 0.649390 0.194735
0.693284 0.659556 0.172048
0.747857 0.665757 0.157465
0.811532 0.668300 0.154091
0.875453 0.671081 0.157595
0.938237 0.675128 0.167875
0.989234 0.685793 0.238498
0.503204 0.672111 0.206300
0.508626 0.672435 0.206882
0.518324 0.673057 0.207936
0.533470 0.674146 0.209597
0.553775 0.675866 0.211781
0.578407 0.678473 0.213928
0.606217 0.682305 0.215025
0.636002 0.687729 0.214296
0.666775 0.695122 0.210482
0.698409 0.704562 0.201599
0.732538 0.715307 0.188066
0.772789 0.725573 0.176118
0.823611 0.733000 0.170606
0.884155 0.737293 0.174549
0.946783 0.742149 0.186716
0.992495 0.755375 0.298505
0.570063 0.733286 0.200436
0.574682 0.733545 0.201003
0.582985 0.734042 0.202061
0.596059 0.734918 0.203817
0.613791 0.736316 0.206346
0.635643 0.738442 0.209614
0.660752 0.741581 0.213375
0.688082 0.746095 0.217052
0.716630 0.752420 0.219601
0.745735 0.760884 0.219946
0.775625 0.771453 0.217513
0.808091 0.783539 0.213411
0.846820 0.795863 0.211383
0.895905 0.806449 0.216847
0.955105 0.814303 0.236253
0.995044 0.827612 0.380465
0.632452 0.794301 0.204071
0.636374 0.794578 0.205068
0.643455 0.795106 0.206941
0.654683 0.796025 0.210102
0.670064 0.797463 0.214827
0.689259 0.799604 0.221309
0.711635 0.802703 0.229432
0.736405 0.807105 0.238968
0.762817 0.813341 0.249597
0.790113 0.821829 0.260647
0.817966 0.832815 0.271473
0.846810 0.846115 0.281650
0.878284 0.860787 0.291725
0.915202 0.874995 0.305940
0.960317 0.886491 0.328859
0.996600 0.896229 0.461409
0.687888 0.859388 0.242753
0.691307 0.859763 0.244458
0.697501 0.860471 0.247611
0.707377 0.861683 0.252799
0.721016 0.863539 0.260263
0.738219 0.866212 0.270147
0.758544 0.869914 0.282444
0.781360 0.874885 0.296924
0.805939 0.881404 0.313097
0.831534 0.889636 0.331162
0.857485 0.899612 0.351009
0.883491 0.911192 0.371590
0.909823 0.923852 0.392225
0.936717 0.936742 0.415100
0.967722 0.947814 0.435836
0.997740 0.954729 0.529380
0.737587 0.931091 0.322844
0.740631 0.931460 0.324906
0.746158 0.932146 0.328706
0.755002 0.933284 0.334934
0.767273 0.934955 0.343863
0.782835 0.937245 0.355631
0.801327 0.940249 0.370190
0.822192 0.944073 0.387229
0.844723 0.948837 0.406203
0.867290 0.954790 0.428300
0.889400 0.961862 0.451439
0.911476 0.969679 0.471627
0.934250 0.978152 0.486873
0.959123 0.987541 0.497389
0.986988 0.996895 0.503187
0.999668 0.996395 0.716165
0.002151 0.000405 0.065732
0.017481 0.000684 0.083513
0.063118 0.002431 0.105300
0.111085 0.010204 0.121475
0.164528 0.016601 0.149707
0.227890 0.019363 0.181871
0.295840 0.024011 0.204578
0.368053 0.033079 0.214193
0.441599 0.052830 0.209646
0.515648 0.074456 0.193428
0.586496 0.103926 0.178798
0.652504 0.140252 0.178544
0.716509 0.177102 0.185781
0.780027 0.212561 0.195727
0.842980 0.246784 0.207968
0.905618 0.280134 0.222110
0.006765 0.022167 0.103481
0.027429 0.026698 0.115044
0.071086 0.030943 0.125758
0.115207 0.042864 0.138472
0.169426 0.051881 0.165512
0.232965 0.057406 0.192516
0.301113 0.063743 0.209602
0.376800 0.066311 0.213090
0.450988 0.079039 0.202706
0.522252 0.100399 0.185392
0.591198 0.127078 0.172987
0.655847 0.159933 0.175616
0.719285 0.193560 0.184081
0.782335 0.226575 0.195088
0.844977 0.258956 0.208210
0.907411 0.290765 0.222742
0.003969 0.076371 0.132961
0.032080 0.078388 0.140809
0.072009 0.083971 0.153732
0.119734 0.092964 0.168039
0.176363 0.100698 0.188882
0.240218 0.107427 0.205638
0.309672 0.114419 0.212645
0.385834 0.118725 0.205902
0.464032 0.121404 0.186792
0.533115 0.138876 0.170106
0.598757 0.162886 0.164246
0.661534 0.191309 0.171615
0.724099 0.220680 0.182449
0.786414 0.250193 0.195270
0.848555 0.279802 0.209791
0.910728 0.309112 0.224459
0.005335 0.137948 0.169519
0.016163 0.142291 0.180039
0.063268 0.147087 0.190194
0.123151 0.153102 0.199386
0.183653 0.160313 0.207804
0.252053 0.167178 0.207912
0.322579 0.174192 0.203855
0.398007 0.178914 0.188817
0.473707 0.182862 0.169187
0.546683 0.189881 0.153381
0.609095 0.210152 0.158686
0.669992 0.233883 0.171171
0.731443 0.258650 0.184879
0.792824 0.284163 0.199677
0.854257 0.310401 0.215564
0.916263 0.336303 0.228823
0.008139 0.205870 0.200188
0.016030 0.210427 0.204292
0.072521 0.213962 0.208604
0.147304 0.216057 0.213849
0.198848 0.225233 0.215646
0.270157 0.230638 0.203145
0.350568 0.231752 0.177640
0.419502 0.236516 0.176599
0.488138 0.242940 0.173534
0.556791 0.250723 0.170206
0.623065 0.261924 0.171929
0.682423 0.281795 0.185115
0.742033 0.303049 0.199365
0.802179 0.325225 0.214250
0.862650 0.348221 0.229454
0.924636 0.370399 0.238114
0.051554 0.278148 0.197540
0.088319 0.278995 0.197134
0.143678 0.279058 0.197998
0.200412 0.279872 0.202022
0.247787 0.285577 0.205701
0.292652 0.296735 0.196848
0.358410 0.302182 0.188537
0.430057 0.305345 0.181514
0.501893 0.308262 0.178339
0.571316 0.312612 0.182245
0.640703 0.317845 0.186612
0.703330 0.329547 0.200830
0.760302 0.347959 0.221500
0.818151 0.367716 0.238790
0.877093 0.388011 0.251485
0.937934 0.407480 0.255822
0.167117 0.343446 0.171245
0.188736 0.343285 0.172588
0.221367 0.343231 0.175893
0.261995 0.344085 0.182766
0.302743 0.347926 0.192272
0.338624 0.357400 0.197312
0.377885 0.370072 0.193124
0.437966 0.376723 0.193929
0.504632 0.381465 0.198669
0.574571 0.385349 0.198213
0.647766 0.387482 0.192147
0.717487 0.391558 0.196155
0.778756 0.402352 0.217856
0.837615 0.416389 0.241670
0.896462 0.431769 0.260921
0.955523 0.447826 0.272774
0.246129 0.409770 0.165056
0.259962 0.409843 0.168446
0.282610 0.410163 0.174849
0.313591 0.411272 0.185336
0.348380 0.414314 0.198929
0.382636 0.420990 0.211258
