entry/src/main/resources/rawfile/filters/Matinee.cube
TITLE "Matinee - Original look 1.0 (Standard/sRGB base)"
LUT_3D_SIZE 6
0.000000 0.000000 0.000000
0.104785 0.006605 0.000946
0.289439 0.044664 0.059774
0.505569 0.096064 0.036924
0.704456 0.193264 0.067659
0.901178 0.282948 0.138688
0.048174 0.129179 0.048005
0.123632 0.152871 0.081439
0.333471 0.166747 0.021069
0.539063 0.191739 0.037754
0.730841 0.252974 0.106896
0.914472 0.333746 0.173227
0.214202 0.330996 0.047779
0.276224 0.337291 0.062940
0.379173 0.367689 0.058190
0.567685 0.387535 0.077347
0.770350 0.407509 0.114765
0.954769 0.447009 0.200549
0.390860 0.537245 0.115313
0.426723 0.541391 0.124188
0.505488 0.557178 0.153717
0.610070 0.590794 0.138003
0.795872 0.604975 0.131357
0.982915 0.620978 0.175500
0.576187 0.730744 0.171510
0.601057 0.732635 0.175079
0.663316 0.739984 0.184698
0.746210 0.759981 0.191917
0.846051 0.795199 0.189930
0.994793 0.827397 0.356415
0.741736 0.929308 0.302210
0.758711 0.931614 0.315109
0.803926 0.938912 0.352368
0.868622 0.953969 0.412731
0.934639 0.977804 0.473807
0.999655 0.996326 0.708513
0.002151 0.000405 0.065732
0.111085 0.010204 0.121475
0.295840 0.024011 0.204578
0.515648 0.074456 0.193428
0.716509 0.177102 0.185781
0.905618 0.280134 0.222110
0.005335 0.137948 0.169519
0.123151 0.153102 0.199386
0.322579 0.174192 0.203855
0.546683 0.189881 0.153381
0.731443 0.258650 0.184879
0.916263 0.336303 0.228823
0.167117 0.343446 0.171245
0.261995 0.344085 0.182766
0.377885 0.370072 0.193124
0.574571 0.385349 0.198213
0.778756 0.402352 0.217856
0.955523 0.447826 0.272774
0.366255 0.545754 0.195685
0.411160 0.547758 0.208673
0.502313 0.559125 0.248524
0.609121 0.592135 0.236061
0.804716 0.602230 0.199732
0.983942 0.620411 0.271901
0.563372 0.735902 0.229944
0.590509 0.737306 0.232601
0.657797 0.743310 0.240895
0.745109 0.761860 0.246817
0.847129 0.796569 0.238733
0.995295 0.827851 0.404047
0.732977 0.933030 0.343157
0.750877 0.935103 0.354516
0.798429 0.941710 0.387934
0.865810 0.955688 0.443965
0.933844 0.978527 0.500155
0.999682 0.996469 0.724140
0.016888 0.007823 0.243947
0.124847 0.008995 0.295337
0.295616 0.047036 0.360049
0.514335 0.101628 0.362740
0.718734 0.179216 0.389072
0.910307 0.272781 0.424320
0.016402 0.137474 0.346472
0.132817 0.149813 0.372146
0.323180 0.182370 0.367896
0.547204 0.195147 0.368589
0.736324 0.254620 0.396020
0.924121 0.327802 0.417114
0.084163 0.358258 0.362470
0.204491 0.362945 0.363570
0.375868 0.375293 0.374895
0.574249 0.390258 0.379243
0.777942 0.409445 0.376442
0.959182 0.453452 0.373995
0.251137 0.571250 0.371359
0.334251 0.569874 0.374754
0.484168 0.568792 0.398044
0.607106 0.594988 0.407239
0.805534 0.603096 0.393103
0.988080 0.618945 0.429678
0.511947 0.753151 0.356529
0.546689 0.753568 0.354730
0.634152 0.755068 0.359836
0.741047 0.766071 0.389765
0.846521 0.800375 0.380924
0.996422 0.829439 0.515637
0.701625 0.945151 0.441169
0.722672 0.946549 0.449414
0.778325 0.951068 0.474757
0.855497 0.961516 0.521452
0.931502 0.980986 0.565842
0.999758 0.996889 0.767535
0.043786 0.024022 0.437563
0.136001 0.027069 0.481291
0.320020 0.059530 0.521891
0.509624 0.166521 0.506504
0.707110 0.229418 0.549120
0.910805 0.289472 0.586164
0.070184 0.143200 0.519512
0.158887 0.156339 0.539766
0.347903 0.182676 0.540563
0.531498 0.240972 0.528571
0.724900 0.288360 0.562376
0.924951 0.338455 0.588872
0.088349 0.364649 0.556339
0.234778 0.365067 0.550366
0.381286 0.380873 0.564582
0.565128 0.404682 0.564305
0.774146 0.415831 0.589594
0.963127 0.451920 0.584718
0.206226 0.580117 0.578049
0.283340 0.582253 0.580268
0.430660 0.588679 0.585522
0.607964 0.598974 0.588426
0.809742 0.605962 0.567312
0.990922 0.626544 0.558987
0.353627 0.786390 0.550236
0.407090 0.786956 0.545170
0.551197 0.782693 0.540064
0.722710 0.777529 0.557782
0.843227 0.805543 0.578330
0.996785 0.833043 0.667002
0.617968 0.970541 0.588019
0.645908 0.971146 0.591536
0.719519 0.972860 0.602633
0.827357 0.973792 0.645460
0.927396 0.982638 0.698876
0.999840 0.997601 0.837325
0.089526 0.075711 0.627577
0.167986 0.089458 0.653486
0.341645 0.131042 0.669476
0.527650 0.198608 0.675529
0.702588 0.283637 0.694987
0.895499 0.346066 0.730374
0.131968 0.193375 0.649435
0.200378 0.206104 0.662398
0.359597 0.226641 0.685863
0.543694 0.265723 0.698794
0.716477 0.334134 0.710238
0.908907 0.386476 0.734856
0.216001 0.371610 0.705112
0.278195 0.377266 0.709931
0.390788 0.392937 0.744230
0.579549 0.407902 0.757062
0.755705 0.450567 0.744533
0.946790 0.483519 0.742399
0.179578 0.589989 0.768556
0.263743 0.590873 0.777519
0.453185 0.589630 0.772259
0.613722 0.603434 0.772316
0.800558 0.618816 0.747698
0.990647 0.632714 0.756766
0.358101 0.789761 0.747129
0.407910 0.790452 0.746880
0.521836 0.793082 0.747403
0.671901 0.799508 0.752949
0.840342 0.813037 0.774315
0.997353 0.840832 0.816555
0.496015 0.995233 0.803527
0.531508 0.995697 0.805548
0.621218 0.996736 0.812110
0.752472 0.996337 0.818937
0.909984 0.990565 0.839670
0.999931 0.998611 0.921319
0.151895 0.184125 0.764178
0.214935 0.195775 0.779563
0.356824 0.211364 0.822777
0.543156 0.243715 0.850106
0.719655 0.315461 0.858656
0.896164 0.393925 0.862284
0.190866 0.258466 0.782011
0.243654 0.266269 0.798496
0.370414 0.279632 0.842598
0.554322 0.304155 0.867326
0.731566 0.361035 0.872837
0.907395 0.429675 0.866735
0.270273 0.402009 0.842737
0.314247 0.408116 0.850437
0.409879 0.422771 0.885710
0.581483 0.438048 0.910455
0.765907 0.470455 0.901072
0.938158 0.519772 0.879651
0.321712 0.587797 0.927789
0.381511 0.588727 0.925637
0.493186 0.596483 0.925213
0.622353 0.611539 0.947258
0.815160 0.619893 0.936945
0.984418 0.654825 0.918394
0.376933 0.797243 0.916197
0.409546 0.799396 0.922963
0.503369 0.803538 0.943036
0.686180 0.802679 0.951003
0.841072 0.820819 0.974996
0.996550 0.850626 0.976940
0.521552 0.996394 0.980640
0.553062 0.996583 0.983126
0.632912 0.997065 0.989374
0.748665 0.997961 0.995852
0.886026 0.999294 0.998761
1.000000 1.000000 1.000000
