entry/src/main/resources/rawfile/filters/Meridian.cube
TITLE "Meridian - Original look 1.0 (Standard/sRGB base)"
LUT_3D_SIZE 16
0.000000 0.000000 0.000000
0.077134 0.006091 0.002513
0.147923 0.014924 0.003020
0.219686 0.027626 0.004290
0.290282 0.046692 0.007145
0.359510 0.068429 0.012240
0.428493 0.088861 0.017559
0.496938 0.108903 0.023677
0.564932 0.128760 0.030768
0.632647 0.148508 0.038877
0.700255 0.168218 0.047566
0.767901 0.187999 0.056367
0.835557 0.208283 0.066078
0.903292 0.229313 0.077096
0.970073 0.250704 0.089098
0.990494 0.338624 0.206371
0.027353 0.077988 0.004606
0.084482 0.084126 0.010334
0.156186 0.086186 0.007741
0.228606 0.089433 0.011331
0.301185 0.093935 0.015450
0.369992 0.104316 0.021174
0.436620 0.119256 0.027887
0.503743 0.134668 0.032605
0.570646 0.151165 0.038589
0.637658 0.168364 0.045747
0.704570 0.185903 0.053285
0.771686 0.203827 0.061177
0.839001 0.222420 0.069989
0.906463 0.242019 0.080378
0.972734 0.262062 0.091818
0.990688 0.349217 0.212529
0.072535 0.148693 0.005343
0.111516 0.152217 0.007001
0.161118 0.157943 0.012142
0.231183 0.159839 0.013539
0.302384 0.162212 0.020297
0.373084 0.165489 0.029525
0.442735 0.170514 0.041604
0.511018 0.177948 0.053703
0.580808 0.187781 0.059612
0.649821 0.200654 0.064659
0.716010 0.214301 0.068802
0.781884 0.229336 0.073877
0.847916 0.245454 0.080086
0.914058 0.262920 0.088395
0.977864 0.282317 0.101063
0.991056 0.368157 0.225316
0.117041 0.219166 0.012001
0.145425 0.221236 0.013417
0.184065 0.225597 0.015963
0.235231 0.231196 0.025160
0.303326 0.233160 0.028939
0.375062 0.234251 0.030283
0.444493 0.236910 0.045025
0.514417 0.242326 0.062242
0.591175 0.253270 0.082192
0.664732 0.261083 0.094118
0.734515 0.267696 0.100475
0.801476 0.275088 0.103123
0.866605 0.284447 0.104807
0.930435 0.296141 0.107798
0.981536 0.324150 0.142824
0.991760 0.399390 0.251564
0.161230 0.288261 0.023660
0.182706 0.289622 0.025943
0.214685 0.292513 0.029326
0.255978 0.297697 0.032951
0.307563 0.303285 0.047733
0.373723 0.305560 0.056966
0.445729 0.306274 0.049460
0.518369 0.311103 0.066673
0.596976 0.323903 0.095445
0.672364 0.332410 0.111726
0.747715 0.340754 0.125892
0.820238 0.347196 0.136857
0.887839 0.350246 0.141428
0.950924 0.351667 0.140522
0.985650 0.383824 0.198878
0.992821 0.443780 0.291143
0.204285 0.356676 0.036293
0.221300 0.357632 0.039424
0.248321 0.359585 0.045275
0.284556 0.363275 0.053050
0.327335 0.368972 0.058577
0.378847 0.374622 0.078859
0.442600 0.377540 0.097137
0.515239 0.378311 0.076713
0.586248 0.381883 0.089926
0.669463 0.397150 0.118102
0.752125 0.411059 0.140352
0.825473 0.416993 0.151740
0.896124 0.421000 0.160335
0.962035 0.421721 0.164851
0.988441 0.451991 0.243523
0.993954 0.497443 0.330994
0.246912 0.424662 0.050213
0.260714 0.425422 0.052713
0.283587 0.426921 0.057432
0.315796 0.429644 0.065248
0.354464 0.434016 0.075523
0.398443 0.440018 0.085044
0.449785 0.445735 0.114004
0.511147 0.449452 0.141405
0.584064 0.450740 0.112732
0.655014 0.452712 0.112876
0.732214 0.461436 0.128413
0.820976 0.480148 0.156137
0.893606 0.485065 0.166509
0.958753 0.483796 0.168621
0.989025 0.507448 0.252964
0.994634 0.548073 0.353155
0.289494 0.492575 0.064250
0.300980 0.493212 0.066271
0.320543 0.494446 0.070069
0.349077 0.496634 0.076413
0.384466 0.500105 0.085433
0.424744 0.505141 0.096188
0.469811 0.511484 0.106943
0.521375 0.517286 0.144008
0.581257 0.521623 0.179447
0.653099 0.523479 0.152365
0.725521 0.523883 0.132707
0.794696 0.525674 0.139304
0.874214 0.536144 0.155829
0.950352 0.543892 0.169479
0.988660 0.558161 0.246395
0.994873 0.592229 0.360106
0.332307 0.560812 0.078490
0.342076 0.561372 0.080185
0.359029 0.562441 0.083358
0.384391 0.564298 0.088661
0.416740 0.567188 0.096359
0.454293 0.571380 0.106262
0.495789 0.576934 0.117082
0.541572 0.583233 0.127758
0.593000 0.588389 0.166998
0.651084 0.591783 0.204785
0.719873 0.592697 0.183189
0.791644 0.591574 0.151355
0.858577 0.591137 0.152481
0.926833 0.592646 0.158850
0.986001 0.605580 0.221025
0.995118 0.638494 0.365932
0.375177 0.629128 0.092783
0.383584 0.629568 0.094202
0.398350 0.630395 0.096843
0.420820 0.631799 0.101228
0.450043 0.633923 0.107582
0.484547 0.636930 0.115899
0.522915 0.640963 0.125622
0.564471 0.645972 0.135310
0.610089 0.651322 0.146017
0.660755 0.655378 0.184623
0.717154 0.657769 0.223521
0.783068 0.657966 0.208812
0.853574 0.655960 0.170382
0.919815 0.654338 0.164144
0.981802 0.654153 0.180067
0.995035 0.680178 0.355460
0.415928 0.694381 0.105380
0.423200 0.694684 0.106531
0.436091 0.695254 0.108679
0.455969 0.696228 0.112240
0.482255 0.697711 0.117399
0.513838 0.699836 0.124227
0.549455 0.702742 0.132515
0.588110 0.706515 0.141537
0.629627 0.711034 0.149928
0.675027 0.715576 0.161098
0.724974 0.718819 0.197808
0.779983 0.720457 0.238123
0.843486 0.720151 0.229935
0.912453 0.717709 0.189268
0.978361 0.715250 0.174801
0.995516 0.732912 0.365182
0.454592 0.756387 0.117018
0.460927 0.756604 0.117847
0.472238 0.757015 0.119419
0.489877 0.757713 0.122106
0.513542 0.758776 0.126166
0.542428 0.760304 0.131720
0.575482 0.762420 0.138668
0.611700 0.765240 0.146610
0.650475 0.768807 0.154769
0.691930 0.772917 0.162025
0.737064 0.776845 0.173558
0.786450 0.779521 0.207938
0.840362 0.780662 0.249347
0.901920 0.780058 0.247449
0.969346 0.777508 0.207535
0.996104 0.787903 0.379905
0.491736 0.815682 0.129059
0.497299 0.815846 0.129636
0.507286 0.816156 0.130729
0.522991 0.816683 0.132596
0.544298 0.817488 0.135431
0.570662 0.818644 0.139437
0.601270 0.820245 0.144775
0.635232 0.822393 0.151396
0.671815 0.825188 0.158838
0.710651 0.828620 0.166159
0.752041 0.832437 0.172585
0.796976 0.835955 0.184401
0.845972 0.838298 0.216334
0.899095 0.839197 0.258016
0.959156 0.838494 0.262292
0.996363 0.843259 0.397869
0.527748 0.872860 0.141734
0.532675 0.872991 0.142137
0.541558 0.873237 0.142901
0.555621 0.873658 0.144206
0.574875 0.874300 0.146194
0.598958 0.875224 0.149017
0.627255 0.876503 0.152818
0.659027 0.878227 0.157676
0.693590 0.880492 0.163534
0.730400 0.883352 0.170044
0.769289 0.886746 0.176504
0.810698 0.890420 0.182354
0.855550 0.893736 0.194477
0.904349 0.895995 0.224596
0.956105 0.897168 0.282375
0.996357 0.899813 0.430168
0.563006 0.928513 0.155190
0.567406 0.928626 0.155475
0.575365 0.928838 0.156016
0.588034 0.929198 0.156941
0.605508 0.929747 0.158351
0.627567 0.930533 0.160364
0.653751 0.931619 0.163102
0.683465 0.933080 0.166660
0.716111 0.935005 0.171074
0.751116 0.937469 0.176215
0.788145 0.940512 0.182019
0.827468 0.944101 0.192850
0.869413 0.947867 0.216198
0.913610 0.950843 0.279063
0.957483 0.953018 0.375950
0.996543 0.955279 0.492841
0.597888 0.983238 0.169537
0.601849 0.983343 0.169749
0.609033 0.983540 0.170148
0.620521 0.983878 0.170831
0.636489 0.984406 0.171957
0.656896 0.985164 0.174161
0.681485 0.986198 0.178262
0.709852 0.987555 0.185448
0.741577 0.989252 0.197826
0.776228 0.991203 0.219449
0.813579 0.993005 0.259617
0.852843 0.994309 0.322702
0.891672 0.996074 0.386079
0.929637 0.997809 0.457145
0.965367 0.998952 0.543692
0.995925 0.999597 0.645747
0.000124 0.004257 0.071735
0.078151 0.007099 0.077294
0.151746 0.011626 0.083250
0.227945 0.013471 0.085810
0.301212 0.023090 0.081873
0.370686 0.044607 0.074952
0.441037 0.063083 0.066777
0.511309 0.079408 0.058530
0.579251 0.099909 0.055435
0.645854 0.122476 0.057240
0.712133 0.145292 0.061625
0.778464 0.168015 0.067786
0.844914 0.190929 0.075833
0.911547 0.214327 0.085861
0.976639 0.239088 0.099180
0.990562 0.339043 0.220034
0.009753 0.082946 0.082585
0.084791 0.084615 0.084765
0.157473 0.085492 0.085005
0.234467 0.085156 0.076060
0.307032 0.089061 0.068963
0.373677 0.101554 0.069147
0.440631 0.115368 0.070105
0.510729 0.125301 0.065659
0.579862 0.137161 0.062291
0.647227 0.152696 0.063325
0.713942 0.170202 0.066959
0.780524 0.188907 0.072388
0.847178 0.208611 0.079554
0.913880 0.229557 0.088956
0.977295 0.254721 0.106144
0.990749 0.349665 0.225258
0.036292 0.155423 0.074688
0.095646 0.156556 0.084302
0.159489 0.158650 0.086778
0.232915 0.159155 0.085758
0.303660 0.161368 0.090626
0.376114 0.163090 0.089929
0.444196 0.169854 0.091465
0.511105 0.179150 0.092923
0.581239 0.186580 0.087953
0.650686 0.195236 0.083044
0.718405 0.206647 0.081630
0.785243 0.220695 0.083858
0.851978 0.236520 0.088518
0.918552 0.254184 0.096009
0.978484 0.280729 0.120065
0.991074 0.368121 0.235422
0.094178 0.224621 0.062316
0.134566 0.224925 0.066460
0.180515 0.227379 0.076055
0.234793 0.231636 0.088982
0.306521 0.231990 0.085482
0.377408 0.233113 0.089706
0.446146 0.235736 0.100804
0.516483 0.240878 0.110144
0.589682 0.251892 0.124838
0.660388 0.257745 0.126939
0.729284 0.263125 0.124049
0.797342 0.269349 0.118625
0.864288 0.278100 0.114890
0.929811 0.289871 0.115106
0.981084 0.320303 0.150460
0.991652 0.397413 0.256233
0.146323 0.292170 0.066823
0.172610 0.292863 0.069287
0.209740 0.294718 0.073682
0.254503 0.298922 0.078741
0.307662 0.303643 0.095474
0.376694 0.304647 0.096430
0.450549 0.304285 0.087426
0.523548 0.311842 0.111122
0.598595 0.323832 0.135824
0.672460 0.332308 0.149771
0.746284 0.339307 0.159312
0.816233 0.343654 0.164304
0.882511 0.345682 0.163324
0.946609 0.346852 0.156994
0.984755 0.377846 0.203668
0.992633 0.440023 0.293287
0.192547 0.359883 0.070577
0.212740 0.360287 0.075782
0.243423 0.361456 0.083958
0.282343 0.364485 0.091309
0.326579 0.369793 0.094614
0.379043 0.374902 0.114286
0.444696 0.377034 0.124552
0.519126 0.376797 0.103465
0.590932 0.382445 0.123873
0.674045 0.400656 0.157247
0.752373 0.411122 0.172774
0.825554 0.416909 0.181974
0.895546 0.420329 0.188282
0.960279 0.419724 0.189509
0.987979 0.447560 0.253719
0.993809 0.493774 0.335731
0.236230 0.427652 0.073293
0.251995 0.428088 0.077118
0.277647 0.429026 0.084475
0.312826 0.430960 0.096745
0.353443 0.434660 0.110610
0.398064 0.440469 0.117935
0.449898 0.445930 0.142624
0.512419 0.449217 0.162868
0.586277 0.449995 0.136390
0.656906 0.452411 0.142072
0.736973 0.464894 0.163348
0.823636 0.482439 0.187831
0.893579 0.484917 0.193668
0.958794 0.483547 0.194659
0.989024 0.507061 0.269331
0.994620 0.547255 0.362565
0.280194 0.495222 0.080926
0.292856 0.495678 0.083620
0.314226 0.496589 0.088780
0.344986 0.498279 0.097651
0.382434 0.501149 0.110448
0.424043 0.505656 0.125364
0.469554 0.511750 0.137844
0.521248 0.517389 0.171568
0.581768 0.521542 0.199969
0.654167 0.523152 0.173991
0.726523 0.523456 0.158540
0.796970 0.525934 0.164431
0.878122 0.538465 0.183756
0.951535 0.544002 0.193850
0.988672 0.557960 0.263186
0.994885 0.592095 0.370088
0.324318 0.563119 0.091559
0.334830 0.563568 0.093627
0.352973 0.564439 0.097537
0.379907 0.565986 0.104176
0.413914 0.568469 0.114028
0.452883 0.572214 0.126952
0.495247 0.577393 0.140770
0.541356 0.583478 0.153245
0.592796 0.588436 0.192129
0.651190 0.591719 0.224671
0.720471 0.592486 0.202382
0.792925 0.591032 0.170955
0.860212 0.590318 0.170780
0.929982 0.592639 0.177125
0.986680 0.606713 0.241764
0.995132 0.638419 0.375632
0.368244 0.631127 0.103494
0.377143 0.631494 0.105136
0.392721 0.632190 0.108210
0.416311 0.633386 0.113357
0.446797 0.635232 0.120909
0.482510 0.637914 0.130934
0.521845 0.641620 0.142749
0.563995 0.646374 0.154318
0.609894 0.651551 0.166404
0.660560 0.655401 0.206774
0.717166 0.657707 0.241547
0.783479 0.657795 0.225619
0.854880 0.655428 0.185690
0.921583 0.653505 0.178178
0.982136 0.654130 0.201065
0.995069 0.680452 0.366057
0.409805 0.696120 0.114180
0.417417 0.696374 0.115474
0.430880 0.696856 0.117882
0.451573 0.697689 0.121887
0.478820 0.698982 0.127733
0.511391 0.700875 0.135537
0.547900 0.703531 0.145078
0.587245 0.707070 0.155459
0.629203 0.711410 0.164877
0.674866 0.715798 0.177300
0.724801 0.718837 0.217347
0.779943 0.720398 0.254726
0.843762 0.720013 0.245065
0.913622 0.717249 0.201928
0.979753 0.714622 0.187890
0.995529 0.732849 0.374533
0.449104 0.757929 0.124075
0.455681 0.758113 0.125002
0.467408 0.758461 0.126764
0.485659 0.759058 0.129787
0.510069 0.759984 0.134316
0.539754 0.761344 0.140492
0.573580 0.763271 0.148197
0.610468 0.765898 0.157027
0.649757 0.769293 0.166044
0.691565 0.773269 0.173843
0.736947 0.777061 0.186421
0.786324 0.779546 0.224853
0.840293 0.780608 0.264848
0.902099 0.779946 0.261361
0.970332 0.777134 0.218569
0.996126 0.787839 0.388666
0.486816 0.817056 0.134831
0.492552 0.817197 0.135457
0.502839 0.817463 0.136644
0.518993 0.817922 0.138680
0.540870 0.818630 0.141786
0.567875 0.819662 0.146201
0.599141 0.821117 0.152111
0.633716 0.823109 0.159400
0.670817 0.825752 0.167485
0.710051 0.829052 0.175344
0.751736 0.832762 0.182066
0.796903 0.836162 0.194724
0.845921 0.838340 0.230386
0.899012 0.839151 0.272631
0.959268 0.838405 0.275273
0.996401 0.843198 0.405980
0.523342 0.874086 0.146615
0.528395 0.874200 0.147041
0.537499 0.874416 0.147850
0.551898 0.874788 0.149238
0.571586 0.875362 0.151360
0.596172 0.876196 0.154388
0.625004 0.877369 0.158487
0.657305 0.878973 0.163751
0.692354 0.881111 0.170119
0.729576 0.883848 0.177170
0.768789 0.887134 0.184071
0.810450 0.890719 0.190093
0.855515 0.893932 0.202906
0.904366 0.896051 0.236270
0.955997 0.897138 0.295694
0.996376 0.899769 0.437643
0.559059 0.929611 0.159449
0.563552 0.929711 0.159744
0.571677 0.929901 0.160304
0.584600 0.930227 0.161265
0.602409 0.930725 0.162737
0.624863 0.931446 0.164851
0.651480 0.932453 0.167739
0.681637 0.933822 0.171511
0.714710 0.935647 0.176206
0.750101 0.938010 0.181684
0.787463 0.940957 0.187894
0.827078 0.944439 0.199717
0.869249 0.948063 0.225331
0.913495 0.950850 0.291512
0.957362 0.952994 0.385538
0.996544 0.955246 0.498883
0.594349 0.984225 0.173371
0.598380 0.984321 0.173584
0.605690 0.984502 0.173987
0.617373 0.984815 0.174681
0.633606 0.985306 0.175856
0.654343 0.986012 0.178192
0.679311 0.986978 0.182555
0.708097 0.988245 0.190237
0.740275 0.989821 0.203566
0.775430 0.991590 0.227154
0.813387 0.993073 0.271425
0.852843 0.994253 0.333763
0.891659 0.996034 0.394597
0.929618 0.997793 0.463454
0.965377 0.998948 0.548162
0.996002 0.999596 0.648685
0.000341 0.011598 0.137586
0.078540 0.012097 0.142919
0.152533 0.014537 0.151393
0.227835 0.015250 0.156505
0.300233 0.024850 0.158960
0.370098 0.042674 0.161843
0.441253 0.058166 0.160818
0.512333 0.073576 0.153589
0.582725 0.089553 0.143562
0.652574 0.105593 0.133340
0.722194 0.121441 0.123538
0.791738 0.137374 0.114272
0.859261 0.159088 0.110779
0.925332 0.185179 0.113681
0.978700 0.235749 0.146470
0.990697 0.339566 0.245318
0.005153 0.084907 0.156158
0.084991 0.085510 0.155325
0.158287 0.085178 0.158122
0.234715 0.083776 0.159146
0.306993 0.087002 0.158895
0.374645 0.097993 0.158589
0.442244 0.111371 0.155072
0.512576 0.121485 0.147429
0.582644 0.132151 0.139040
0.652396 0.143422 0.130910
0.722069 0.155106 0.122998
0.791703 0.167485 0.115394
0.859738 0.184436 0.112378
0.926269 0.206068 0.115308
0.979157 0.252184 0.149455
0.990873 0.350269 0.248928
0.010717 0.158259 0.157669
0.086261 0.158646 0.158789
0.159036 0.158994 0.159020
0.233280 0.158803 0.158967
0.308691 0.158388 0.152724
0.380572 0.160555 0.145874
0.446143 0.169517 0.144762
0.511992 0.179885 0.144335
0.581676 0.187020 0.139723
0.651515 0.194558 0.134573
0.721352 0.202758 0.129123
0.791285 0.211680 0.123332
0.860570 0.222963 0.119387
0.928087 0.238777 0.120850
0.979946 0.279299 0.156745
0.991176 0.368818 0.256333
0.047886 0.230451 0.146174
0.108299 0.230050 0.149386
0.167978 0.230477 0.157845
0.232898 0.232194 0.160407
0.306039 0.232186 0.158477
0.376408 0.233493 0.161496
0.448083 0.234584 0.160290
0.516975 0.240463 0.161650
0.583948 0.249145 0.164092
0.652991 0.254339 0.159104
0.722322 0.260078 0.153347
0.791943 0.266578 0.147418
0.861928 0.273952 0.141476
0.931004 0.283187 0.137334
0.981104 0.317757 0.173138
0.991630 0.396640 0.270341
0.119583 0.297156 0.136923
0.154950 0.297094 0.137649
0.201769 0.297295 0.141586
0.251591 0.299991 0.150178
0.307026 0.303945 0.160891
0.378310 0.304167 0.157881
0.450484 0.305262 0.159452
0.526550 0.315303 0.177644
0.600119 0.322201 0.187150
0.669439 0.329518 0.197370
0.738751 0.333126 0.198330
0.805692 0.335602 0.194868
0.872204 0.338551 0.188617
0.938318 0.341698 0.179985
0.983255 0.369862 0.211897
0.992371 0.435259 0.298342
0.179260 0.362730 0.139412
0.201975 0.362982 0.141022
0.236047 0.363807 0.143697
0.278910 0.366038 0.147869
0.325469 0.370623 0.151935
0.379083 0.375261 0.166185
0.447536 0.376357 0.168251
0.522446 0.376273 0.158176
0.598871 0.386829 0.180887
0.679482 0.403684 0.207954
0.752558 0.411025 0.219187
0.824638 0.415843 0.225406
0.892021 0.417050 0.227215
0.954273 0.414383 0.223125
0.986816 0.438408 0.266397
0.993514 0.487197 0.341728
0.226326 0.429941 0.138007
0.244258 0.430036 0.141434
0.272667 0.430461 0.147515
0.310203 0.431912 0.155847
0.352092 0.435426 0.162705
0.397399 0.441147 0.165609
0.450156 0.446307 0.183153
0.514955 0.448757 0.194880
0.589743 0.448833 0.174323
0.661016 0.453574 0.188513
0.745811 0.472559 0.217551
0.825700 0.484107 0.232437
0.893522 0.484658 0.234772
0.958552 0.483133 0.234705
0.988934 0.505615 0.295330
0.994528 0.544321 0.376667
0.269680 0.497856 0.133818
0.284174 0.497995 0.137333
0.308141 0.498386 0.143657
0.341672 0.499407 0.153448
0.381168 0.501668 0.165804
0.423651 0.505872 0.177976
0.469178 0.512065 0.184946
0.521309 0.517667 0.208492
0.583246 0.521344 0.229026
0.656628 0.522414 0.205194
0.727053 0.523332 0.202801
0.800274 0.528856 0.212090
0.883170 0.542951 0.230341
0.951778 0.544071 0.233618
0.988691 0.557602 0.290961
0.994906 0.591859 0.387481
0.312775 0.566172 0.130199
0.324733 0.566376 0.133326
0.345153 0.566806 0.139285
0.374914 0.567697 0.149098
0.411437 0.569467 0.161943
0.452014 0.572648 0.176224
0.494958 0.577539 0.189354
0.540997 0.583605 0.199385
0.592468 0.588521 0.230461
0.651491 0.591599 0.255968
0.721587 0.592099 0.233027
0.793298 0.590776 0.211190
0.860607 0.590125 0.211301
0.933145 0.594751 0.218877
0.987309 0.608473 0.275857
0.995155 0.638247 0.392504
0.356779 0.634213 0.131851
0.366697 0.634414 0.134225
0.383929 0.634813 0.138661
0.409739 0.635547 0.146083
0.442613 0.636788 0.156920
0.480409 0.638809 0.170899
0.521025 0.642002 0.185436
0.563624 0.646504 0.197659
0.609503 0.651638 0.208272
0.660205 0.655424 0.242248
0.717227 0.657590 0.270890
0.784259 0.657479 0.253062
0.855723 0.654997 0.219228
0.922672 0.652884 0.211954
0.982542 0.654490 0.236392
0.995129 0.680933 0.384482
0.398913 0.699047 0.135239
0.407212 0.699198 0.136911
0.421829 0.699494 0.140052
0.444157 0.700027 0.145350
0.473319 0.700906 0.153248
0.507809 0.702295 0.163942
0.545926 0.704429 0.176866
0.586330 0.707533 0.190402
0.628727 0.711635 0.201432
0.674482 0.715917 0.213784
0.724449 0.718832 0.250374
0.779892 0.720288 0.282165
0.844296 0.719756 0.270166
0.914815 0.716714 0.229059
0.980390 0.714230 0.220265
0.995554 0.732738 0.390946
0.439032 0.760636 0.140037
0.446095 0.760750 0.141215
0.458654 0.760971 0.143452
0.478111 0.761367 0.147254
0.503982 0.762015 0.152933
0.535214 0.763032 0.160658
0.570513 0.764570 0.170419
0.608633 0.766802 0.181725
0.648765 0.769869 0.193028
0.691022 0.773638 0.202126
0.736618 0.777255 0.216235
0.785998 0.779541 0.255478
0.840182 0.780509 0.290749
0.902450 0.779740 0.284727
0.971518 0.776633 0.241623
0.996163 0.787728 0.404122
0.477650 0.819522 0.147255
0.483725 0.819617 0.147998
0.494603 0.819800 0.149412
0.511640 0.820124 0.151857
0.534630 0.820640 0.155629
0.562883 0.821425 0.161053
0.595410 0.822590 0.168290
0.631138 0.824274 0.177120
0.669178 0.826625 0.186770
0.709087 0.829681 0.195992
0.751214 0.833216 0.203424
0.796669 0.836423 0.218048
0.845655 0.838352 0.258201
0.898868 0.839066 0.297285
0.959489 0.838242 0.297292
0.996468 0.843089 0.420354
0.515099 0.876310 0.156779
0.520396 0.876393 0.157258
0.529928 0.876552 0.158171
0.544977 0.876830 0.159748
0.565503 0.877272 0.162179
0.591056 0.877935 0.165684
0.620912 0.878901 0.170480
0.654221 0.880269 0.176703
0.690184 0.882160 0.184271
0.728156 0.884664 0.192547
0.767928 0.887759 0.200329
0.810000 0.891194 0.206712
0.855379 0.894226 0.221154
0.904209 0.896098 0.260607
0.955803 0.897081 0.318491
0.996410 0.899691 0.450941
0.551674 0.931613 0.168113
0.556346 0.931691 0.168429
0.564788 0.931840 0.169031
0.578198 0.932098 0.170073
0.596647 0.932502 0.171685
0.619855 0.933100 0.174021
0.647294 0.933956 0.177247
0.678291 0.935151 0.181498
0.712167 0.936786 0.186829
0.748279 0.938955 0.193074
0.786255 0.941719 0.200230
0.826403 0.944987 0.214349
0.868961 0.948314 0.245134
0.913266 0.950832 0.314120
0.957147 0.952949 0.402388
0.996546 0.955187 0.509747
0.587740 0.986028 0.181035
0.591904 0.986108 0.181252
0.599452 0.986259 0.181666
0.611507 0.986526 0.182385
0.628246 0.986948 0.183676
0.649611 0.987555 0.186300
0.675309 0.988387 0.191234
0.704908 0.989475 0.200003
0.737983 0.990799 0.215455
0.774184 0.992166 0.243600
0.813258 0.993048 0.294562
0.852851 0.994149 0.352995
0.891641 0.995959 0.409683
0.929585 0.997763 0.474768
0.965396 0.998941 0.556264
0.996140 0.999596 0.654058
0.000732 0.023283 0.200554
0.079561 0.022857 0.209193
0.152795 0.020876 0.219323
0.227303 0.020730 0.226279
0.299229 0.030746 0.228592
0.370181 0.044927 0.230763
0.441083 0.058706 0.233060
0.511535 0.072536 0.235370
0.581906 0.086396 0.235441
0.652412 0.100729 0.230236
0.722807 0.115843 0.221070
0.792940 0.131713 0.210656
0.862343 0.149908 0.201134
0.930533 0.172104 0.194469
0.979909 0.233373 0.215800
0.990924 0.339719 0.287213
0.004626 0.086479 0.228694
0.086906 0.085641 0.229176
0.158752 0.085123 0.233044
0.233485 0.085428 0.233319
0.304732 0.090590 0.231787
0.373027 0.100612 0.231852
0.441670 0.110956 0.233741
0.512091 0.119068 0.235342
0.582782 0.127850 0.232836
0.653414 0.137879 0.225643
0.723718 0.149229 0.216153
0.793768 0.161662 0.206265
0.863313 0.176098 0.197407
0.931431 0.195027 0.191780
0.980293 0.250457 0.215191
0.991090 0.350588 0.288664
0.008891 0.158873 0.231474
0.081317 0.158055 0.240595
0.158953 0.158704 0.234321
0.233730 0.158325 0.233751
0.308575 0.157439 0.233040
0.380084 0.159209 0.232056
0.446473 0.167029 0.232313
0.513127 0.176408 0.231217
0.583296 0.183082 0.225659
0.653505 0.190552 0.217931
0.723450 0.199048 0.209842
0.793335 0.208430 0.202019
0.863293 0.218776 0.194750
0.932219 0.232111 0.189761
0.980872 0.278638 0.215593
0.991371 0.369414 0.292148
0.020011 0.232067 0.231318
0.082468 0.233290 0.232979
0.159597 0.232428 0.232496
0.232468 0.232423 0.232454
0.305940 0.231950 0.232255
0.381130 0.230909 0.227014
0.453177 0.231866 0.219872
0.518405 0.238732 0.218203
0.583143 0.247604 0.217759
0.652546 0.253336 0.213262
0.722420 0.259381 0.208296
0.792416 0.266175 0.203386
0.862652 0.273776 0.198563
0.932445 0.282116 0.193787
0.981555 0.318262 0.220617
0.991775 0.397512 0.300063
0.056790 0.303700 0.220743
0.110940 0.303826 0.219969
0.176005 0.302875 0.222538
0.239465 0.303030 0.230822
0.304943 0.304519 0.233114
0.378231 0.304170 0.230119
0.451429 0.308112 0.235583
0.526210 0.311847 0.236937
0.593633 0.315072 0.235864
0.656968 0.320470 0.235784
0.724738 0.324127 0.230322
0.793696 0.328637 0.224613
0.863285 0.334105 0.219293
0.932283 0.339410 0.213261
0.982251 0.365959 0.236742
0.992277 0.433387 0.315818
0.140579 0.369111 0.210153
0.171416 0.369094 0.209772
0.216176 0.368926 0.210154
0.270243 0.369000 0.214337
0.322360 0.371792 0.222695
0.378383 0.375634 0.232754
0.449931 0.375958 0.229449
0.527029 0.380684 0.233636
0.607791 0.395829 0.256700
0.681468 0.401818 0.264344
0.748724 0.407298 0.272552
0.815189 0.407840 0.270880
0.878717 0.406525 0.264595
0.941611 0.405466 0.255646
0.984526 0.425701 0.278144
0.993085 0.479240 0.348665
0.207632 0.433580 0.209376
0.228197 0.433550 0.210694
0.260085 0.433781 0.212703
0.301955 0.434751 0.215641
0.348433 0.437263 0.219856
0.396259 0.442160 0.223742
0.450281 0.446821 0.237408
0.518590 0.448079 0.240070
0.594342 0.448144 0.229380
0.672521 0.460191 0.251588
0.756431 0.479906 0.279786
0.825850 0.483931 0.287091
0.892855 0.483773 0.287635
0.956165 0.480795 0.284969
0.988125 0.498506 0.324531
0.994235 0.537099 0.392294
0.257054 0.500485 0.206098
0.273249 0.500450 0.208281
0.299763 0.500516 0.212406
0.336349 0.501022 0.219196
0.378406 0.502771 0.227530
0.422303 0.506766 0.233955
