entry/src/main/resources/rawfile/filters/Meridian.cube
TITLE "Meridian - Original look 1.0 (Standard/sRGB base)"
LUT_3D_SIZE 6
0.000000 0.000000 0.000000
0.219686 0.027626 0.004290
0.428493 0.088861 0.017559
0.632647 0.148508 0.038877
0.835557 0.208283 0.066078
0.990494 0.338624 0.206371
0.117041 0.219166 0.012001
0.235231 0.231196 0.025160
0.444493 0.236910 0.045025
0.664732 0.261083 0.094118
0.866605 0.284447 0.104807
0.991760 0.399390 0.251564
0.246912 0.424662 0.050213
0.315796 0.429644 0.065248
0.449785 0.445735 0.114004
0.655014 0.452712 0.112876
0.893606 0.485065 0.166509
0.994634 0.548073 0.353155
0.375177 0.629128 0.092783
0.420820 0.631799 0.101228
0.522915 0.640963 0.125622
0.660755 0.655378 0.184623
0.853574 0.655960 0.170382
0.995035 0.680178 0.355460
0.491736 0.815682 0.129059
0.522991 0.816683 0.132596
0.601270 0.820245 0.144775
0.710651 0.828620 0.166159
0.845972 0.838298 0.216334
0.996363 0.843259 0.397869
0.597888 0.983238 0.169537
0.620521 0.983878 0.170831
0.681485 0.986198 0.178262
0.776228 0.991203 0.219449
0.891672 0.996074 0.386079
0.995925 0.999597 0.645747
0.000732 0.023283 0.200554
0.227303 0.020730 0.226279
0.441083 0.058706 0.233060
0.652412 0.100729 0.230236
0.862343 0.149908 0.201134
0.990924 0.339719 0.287213
0.020011 0.232067 0.231318
0.232468 0.232423 0.232454
0.453177 0.231866 0.219872
0.652546 0.253336 0.213262
0.862652 0.273776 0.198563
0.991775 0.397512 0.300063
0.207632 0.433580 0.209376
0.301955 0.434751 0.215641
0.450281 0.446821 0.237408
0.672521 0.460191 0.251588
0.892855 0.483773 0.287635
0.994235 0.537099 0.392294
0.346945 0.636467 0.198622
0.404510 0.636964 0.211726
0.520280 0.642230 0.243888
0.659695 0.655455 0.289686
0.856252 0.654598 0.267741
0.995212 0.681520 0.411861
0.463427 0.823098 0.175223
0.500708 0.823185 0.181995
0.590821 0.824227 0.206223
0.708245 0.829985 0.242045
0.845145 0.838317 0.299937
0.996574 0.842923 0.442542
0.576782 0.988907 0.195668
0.601825 0.989252 0.197121
0.668896 0.990571 0.208166
0.773066 0.992576 0.277814
0.891630 0.995833 0.432966
0.996359 0.999596 0.662758
0.001373 0.073095 0.404611
0.227318 0.050418 0.434873
0.441610 0.070520 0.439972
0.652012 0.103741 0.444483
0.860755 0.146521 0.450606
0.991381 0.334800 0.484155
0.021278 0.233833 0.447195
0.234631 0.232418 0.449433
0.445628 0.237684 0.445059
0.653541 0.249900 0.446395
0.864517 0.265869 0.452054
0.992378 0.394218 0.482648
0.070810 0.447080 0.446639
0.221908 0.449093 0.455841
0.447853 0.447842 0.447848
0.669716 0.446410 0.435862
0.864554 0.460733 0.430394
0.993680 0.524611 0.471939
0.271254 0.649094 0.420080
0.355371 0.647677 0.422145
0.506341 0.647412 0.427936
0.659709 0.656491 0.446661
0.867332 0.655309 0.443755
0.995388 0.680382 0.528080
0.419762 0.831006 0.387302
0.467850 0.829741 0.391716
0.576738 0.827419 0.406425
0.705837 0.829790 0.430712
0.842706 0.838015 0.463816
0.997043 0.842240 0.548373
0.550233 0.994115 0.379954
0.578536 0.994153 0.380456
0.654859 0.993962 0.389971
0.770953 0.992551 0.443755
0.891987 0.994990 0.544152
0.997448 0.999605 0.710698
0.003183 0.127760 0.601325
0.226223 0.087641 0.643023
0.441279 0.095851 0.646310
0.651538 0.120557 0.649283
0.858423 0.164945 0.653457
0.991540 0.342634 0.650456
0.026913 0.240169 0.655632
0.238523 0.241737 0.647485
0.443300 0.246880 0.649068
0.654109 0.254571 0.652624
0.864638 0.269865 0.657309
0.992567 0.398405 0.653728
0.076004 0.448229 0.657357
0.228251 0.445476 0.678844
0.448582 0.446942 0.667176
0.661762 0.450538 0.661461
0.863869 0.457356 0.657846
0.994091 0.522528 0.661895
0.149601 0.658907 0.658220
0.242141 0.661631 0.661488
0.435244 0.659841 0.679257
0.655933 0.655928 0.655931
0.869068 0.646090 0.636971
0.995545 0.679998 0.657330
0.290877 0.845987 0.617145
0.365891 0.844305 0.616036
0.519617 0.839186 0.614613
0.689881 0.834443 0.615101
0.841894 0.838379 0.629092
0.997680 0.841911 0.689067
0.526001 0.996236 0.605238
0.557009 0.996156 0.605044
0.639344 0.995720 0.607040
0.763888 0.993692 0.627433
0.893619 0.993539 0.689941
0.998842 0.999653 0.789567
0.007147 0.183694 0.791118
0.223289 0.141163 0.837311
0.437904 0.144486 0.841596
0.646909 0.165684 0.844150
0.851237 0.207757 0.847193
0.991436 0.359146 0.816737
0.030374 0.253859 0.857980
0.231501 0.256051 0.854685
0.442495 0.259831 0.853498
0.653121 0.267961 0.855927
0.858932 0.288176 0.856198
0.992519 0.410738 0.819192
0.075620 0.451181 0.868384
0.252977 0.444867 0.880127
0.453081 0.453558 0.859792
0.657670 0.457315 0.862635
0.862205 0.458088 0.861063
0.994443 0.528565 0.824891
0.146242 0.659398 0.863514
0.242304 0.660041 0.873070
0.450292 0.651794 0.894336
0.653588 0.651947 0.873310
0.858292 0.645829 0.858208
0.995886 0.680087 0.832175
0.197356 0.848803 0.847974
0.272536 0.849608 0.849073
0.429831 0.848801 0.858068
0.621653 0.845107 0.863377
0.836450 0.836445 0.836450
0.998164 0.843881 0.837818
0.499080 0.997620 0.820784
0.531851 0.997617 0.820761
0.617526 0.997549 0.820893
0.744808 0.997102 0.822525
0.886801 0.996727 0.833231
0.999812 0.999690 0.891267
0.016533 0.243455 0.973183
0.222411 0.246640 0.972821
0.428112 0.256015 0.976062
0.628088 0.281133 0.981014
0.819203 0.323280 0.985578
0.991250 0.382667 0.981809
0.093043 0.322681 0.977865
0.241704 0.324923 0.978133
0.436180 0.332789 0.980560
0.632745 0.352688 0.984512
0.821095 0.383146 0.987819
0.992192 0.429421 0.983722
0.193640 0.481055 0.987123
0.291057 0.482894 0.987336
0.459959 0.488554 0.987758
0.643717 0.498450 0.989798
0.825000 0.513325 0.991795
0.994417 0.539039 0.988364
0.296270 0.662177 0.992933
0.359929 0.662609 0.993109
0.495020 0.664091 0.993082
0.659233 0.667461 0.993028
0.829703 0.673325 0.994360
0.996232 0.685027 0.993132
0.383631 0.835563 0.994809
0.428328 0.835589 0.995010
0.534719 0.835810 0.995686
0.678069 0.836652 0.997104
0.837561 0.838891 0.997523
0.998112 0.847685 0.997225
0.505042 0.998052 0.994560
0.536991 0.998069 0.994824
0.620062 0.998130 0.995554
0.740570 0.998542 0.996987
0.875479 0.999359 0.998851
1.000000 1.000000 1.000000
