entry/src/main/resources/rawfile/filters/MoonlitBlue.cube
TITLE "Moonlit Blue"
LUT_3D_SIZE 6
0.000000 0.020000 0.040000
0.140143 0.020000 0.040000
0.304597 0.020000 0.040000
0.479676 0.020000 0.040000
0.662033 0.020000 0.040000
0.850000 0.020000 0.040000
0.000000 0.209791 0.040000
0.140143 0.209791 0.040000
0.304597 0.209791 0.040000
0.479676 0.209791 0.040000
0.662033 0.209791 0.040000
0.850000 0.209791 0.040000
0.000000 0.404882 0.040000
0.140143 0.404882 0.040000
0.304597 0.404882 0.040000
0.479676 0.404882 0.040000
0.662033 0.404882 0.040000
0.850000 0.404882 0.040000
0.000000 0.602023 0.040000
0.140143 0.602023 0.040000
0.304597 0.602023 0.040000
0.479676 0.602023 0.040000
0.662033 0.602023 0.040000
0.850000 0.602023 0.040000
0.000000 0.800509 0.040000
0.140143 0.800509 0.040000
0.304597 0.800509 0.040000
0.479676 0.800509 0.040000
0.662033 0.800509 0.040000
0.850000 0.800509 0.040000
0.000000 1.000000 0.040000
0.140143 1.000000 0.040000
0.304597 1.000000 0.040000
0.479676 1.000000 0.040000
0.662033 1.000000 0.040000
0.850000 1.000000 0.040000
0.000000 0.020000 0.319000
0.140143 0.020000 0.319000
0.304597 0.020000 0.319000
0.479676 0.020000 0.319000
0.662033 0.020000 0.319000
0.850000 0.020000 0.319000
0.000000 0.209791 0.319000
0.140143 0.209791 0.319000
0.304597 0.209791 0.319000
0.479676 0.209791 0.319000
0.662033 0.209791 0.319000
0.850000 0.209791 0.319000
0.000000 0.404882 0.319000
0.140143 0.404882 0.319000
0.304597 0.404882 0.319000
0.479676 0.404882 0.319000
0.662033 0.404882 0.319000
0.850000 0.404882 0.319000
0.000000 0.602023 0.319000
0.140143 0.602023 0.319000
0.304597 0.602023 0.319000
0.479676 0.602023 0.319000
0.662033 0.602023 0.319000
0.850000 0.602023 0.319000
0.000000 0.800509 0.319000
0.140143 0.800509 0.319000
0.304597 0.800509 0.319000
0.479676 0.800509 0.319000
0.662033 0.800509 0.319000
0.850000 0.800509 0.319000
0.000000 1.000000 0.319000
0.140143 1.000000 0.319000
0.304597 1.000000 0.319000
0.479676 1.000000 0.319000
0.662033 1.000000 0.319000
0.850000 1.000000 0.319000
0.000000 0.020000 0.553465
0.140143 0.020000 0.553465
0.304597 0.020000 0.553465
0.479676 0.020000 0.553465
0.662033 0.020000 0.553465
0.850000 0.020000 0.553465
0.000000 0.209791 0.553465
0.140143 0.209791 0.553465
0.304597 0.209791 0.553465
0.479676 0.209791 0.553465
0.662033 0.209791 0.553465
0.850000 0.209791 0.553465
0.000000 0.404882 0.553465
0.140143 0.404882 0.553465
0.304597 0.404882 0.553465
0.479676 0.404882 0.553465
0.662033 0.404882 0.553465
0.850000 0.404882 0.553465
0.000000 0.602023 0.553465
0.140143 0.602023 0.553465
0.304597 0.602023 0.553465
0.479676 0.602023 0.553465
0.662033 0.602023 0.553465
0.850000 0.602023 0.553465
0.000000 0.800509 0.553465
0.140143 0.800509 0.553465
0.304597 0.800509 0.553465
0.479676 0.800509 0.553465
0.662033 0.800509 0.553465
0.850000 0.800509 0.553465
0.000000 1.000000 0.553465
0.140143 1.000000 0.553465
0.304597 1.000000 0.553465
0.479676 1.000000 0.553465
0.662033 1.000000 0.553465
0.850000 1.000000 0.553465
0.000000 0.020000 0.773620
0.140143 0.020000 0.773620
0.304597 0.020000 0.773620
0.479676 0.020000 0.773620
0.662033 0.020000 0.773620
0.850000 0.020000 0.773620
0.000000 0.209791 0.773620
0.140143 0.209791 0.773620
0.304597 0.209791 0.773620
0.479676 0.209791 0.773620
0.662033 0.209791 0.773620
0.850000 0.209791 0.773620
0.000000 0.404882 0.773620
0.140143 0.404882 0.773620
0.304597 0.404882 0.773620
0.479676 0.404882 0.773620
0.662033 0.404882 0.773620
0.850000 0.404882 0.773620
0.000000 0.602023 0.773620
0.140143 0.602023 0.773620
0.304597 0.602023 0.773620
0.479676 0.602023 0.773620
0.662033 0.602023 0.773620
0.850000 0.602023 0.773620
0.000000 0.800509 0.773620
0.140143 0.800509 0.773620
0.304597 0.800509 0.773620
0.479676 0.800509 0.773620
0.662033 0.800509 0.773620
0.850000 0.800509 0.773620
0.000000 1.000000 0.773620
0.140143 1.000000 0.773620
0.304597 1.000000 0.773620
0.479676 1.000000 0.773620
0.662033 1.000000 0.773620
0.850000 1.000000 0.773620
0.000000 0.020000 0.984968
0.140143 0.020000 0.984968
0.304597 0.020000 0.984968
0.479676 0.020000 0.984968
0.662033 0.020000 0.984968
0.850000 0.020000 0.984968
0.000000 0.209791 0.984968
0.140143 0.209791 0.984968
0.304597 0.209791 0.984968
0.479676 0.209791 0.984968
0.662033 0.209791 0.984968
0.850000 0.209791 0.984968
0.000000 0.404882 0.984968
0.140143 0.404882 0.984968
0.304597 0.404882 0.984968
0.479676 0.404882 0.984968
0.662033 0.404882 0.984968
0.850000 0.404882 0.984968
0.000000 0.602023 0.984968
0.140143 0.602023 0.984968
0.304597 0.602023 0.984968
0.479676 0.602023 0.984968
0.662033 0.602023 0.984968
0.850000 0.602023 0.984968
0.000000 0.800509 0.984968
0.140143 0.800509 0.984968
0.304597 0.800509 0.984968
0.479676 0.800509 0.984968
0.662033 0.800509 0.984968
0.850000 0.800509 0.984968
0.000000 1.000000 0.984968
0.140143 1.000000 0.984968
0.304597 1.000000 0.984968
0.479676 1.000000 0.984968
0.662033 1.000000 0.984968
0.850000 1.000000 0.984968
0.000000 0.020000 1.000000
0.140143 0.020000 1.000000
0.304597 0.020000 1.000000
0.479676 0.020000 1.000000
0.662033 0.020000 1.000000
0.850000 0.020000 1.000000
0.000000 0.209791 1.000000
0.140143 0.209791 1.000000
0.304597 0.209791 1.000000
0.479676 0.209791 1.000000
0.662033 0.209791 1.000000
0.850000 0.209791 1.000000
0.000000 0.404882 1.000000
0.140143 0.404882 1.000000
0.304597 0.404882 1.000000
0.479676 0.404882 1.000000
0.662033 0.404882 1.000000
0.850000 0.404882 1.000000
0.000000 0.602023 1.000000
0.140143 0.602023 1.000000
0.304597 0.602023 1.000000
0.479676 0.602023 1.000000
0.662033 0.602023 1.000000
0.850000 0.602023 1.000000
0.000000 0.800509 1.000000
0.140143 0.800509 1.000000
0.304597 0.800509 1.000000
0.479676 0.800509 1.000000
0.662033 0.800509 1.000000
0.850000 0.800509 1.000000
0.000000 1.000000 1.000000
0.140143 1.000000 1.000000
0.304597 1.000000 1.000000
0.479676 1.000000 1.000000
0.662033 1.000000 1.000000
0.850000 1.000000 1.000000
