entry/src/main/resources/rawfile/filters/MoonlitBlue.cube
TITLE "Moonlit Blue"
LUT_3D_SIZE 16
0.000000 0.020000 0.040000
0.040945 0.020000 0.040000
0.088992 0.020000 0.040000
0.140143 0.020000 0.040000
0.193421 0.020000 0.040000
0.248338 0.020000 0.040000
0.304597 0.020000 0.040000
0.361998 0.020000 0.040000
0.420395 0.020000 0.040000
0.479676 0.020000 0.040000
0.539755 0.020000 0.040000
0.600560 0.020000 0.040000
0.662033 0.020000 0.040000
0.724125 0.020000 0.040000
0.786792 0.020000 0.040000
0.850000 0.020000 0.040000
0.000000 0.081889 0.040000
0.040945 0.081889 0.040000
0.088992 0.081889 0.040000
0.140143 0.081889 0.040000
0.193421 0.081889 0.040000
0.248338 0.081889 0.040000
0.304597 0.081889 0.040000
0.361998 0.081889 0.040000
0.420395 0.081889 0.040000
0.479676 0.081889 0.040000
0.539755 0.081889 0.040000
0.600560 0.081889 0.040000
0.662033 0.081889 0.040000
0.724125 0.081889 0.040000
0.786792 0.081889 0.040000
0.850000 0.081889 0.040000
0.000000 0.145506 0.040000
0.040945 0.145506 0.040000
0.088992 0.145506 0.040000
0.140143 0.145506 0.040000
0.193421 0.145506 0.040000
0.248338 0.145506 0.040000
0.304597 0.145506 0.040000
0.361998 0.145506 0.040000
0.420395 0.145506 0.040000
0.479676 0.145506 0.040000
0.539755 0.145506 0.040000
0.600560 0.145506 0.040000
0.662033 0.145506 0.040000
0.724125 0.145506 0.040000
0.786792 0.145506 0.040000
0.850000 0.145506 0.040000
0.000000 0.209791 0.040000
0.040945 0.209791 0.040000
0.088992 0.209791 0.040000
0.140143 0.209791 0.040000
0.193421 0.209791 0.040000
0.248338 0.209791 0.040000
0.304597 0.209791 0.040000
0.361998 0.209791 0.040000
0.420395 0.209791 0.040000
0.479676 0.209791 0.040000
0.539755 0.209791 0.040000
0.600560 0.209791 0.040000
0.662033 0.209791 0.040000
0.724125 0.209791 0.040000
0.786792 0.209791 0.040000
0.850000 0.209791 0.040000
0.000000 0.274515 0.040000
0.040945 0.274515 0.040000
0.088992 0.274515 0.040000
0.140143 0.274515 0.040000
0.193421 0.274515 0.040000
0.248338 0.274515 0.040000
0.304597 0.274515 0.040000
0.361998 0.274515 0.040000
0.420395 0.274515 0.040000
0.479676 0.274515 0.040000
0.539755 0.274515 0.040000
0.600560 0.274515 0.040000
0.662033 0.274515 0.040000
0.724125 0.274515 0.040000
0.786792 0.274515 0.040000
0.850000 0.274515 0.040000
0.000000 0.339567 0.040000
0.040945 0.339567 0.040000
0.088992 0.339567 0.040000
0.140143 0.339567 0.040000
0.193421 0.339567 0.040000
0.248338 0.339567 0.040000
0.304597 0.339567 0.040000
0.361998 0.339567 0.040000
0.420395 0.339567 0.040000
0.479676 0.339567 0.040000
0.539755 0.339567 0.040000
0.600560 0.339567 0.040000
0.662033 0.339567 0.040000
0.724125 0.339567 0.040000
0.786792 0.339567 0.040000
0.850000 0.339567 0.040000
0.000000 0.404882 0.040000
0.040945 0.404882 0.040000
0.088992 0.404882 0.040000
0.140143 0.404882 0.040000
0.193421 0.404882 0.040000
0.248338 0.404882 0.040000
0.304597 0.404882 0.040000
0.361998 0.404882 0.040000
0.420395 0.404882 0.040000
0.479676 0.404882 0.040000
0.539755 0.404882 0.040000
0.600560 0.404882 0.040000
0.662033 0.404882 0.040000
0.724125 0.404882 0.040000
0.786792 0.404882 0.040000
0.850000 0.404882 0.040000
0.000000 0.470415 0.040000
0.040945 0.470415 0.040000
0.088992 0.470415 0.040000
0.140143 0.470415 0.040000
0.193421 0.470415 0.040000
0.248338 0.470415 0.040000
0.304597 0.470415 0.040000
0.361998 0.470415 0.040000
0.420395 0.470415 0.040000
0.479676 0.470415 0.040000
0.539755 0.470415 0.040000
0.600560 0.470415 0.040000
0.662033 0.470415 0.040000
0.724125 0.470415 0.040000
0.786792 0.470415 0.040000
0.850000 0.470415 0.040000
0.000000 0.536137 0.040000
0.040945 0.536137 0.040000
0.088992 0.536137 0.040000
0.140143 0.536137 0.040000
0.193421 0.536137 0.040000
0.248338 0.536137 0.040000
0.304597 0.536137 0.040000
0.361998 0.536137 0.040000
0.420395 0.536137 0.040000
0.479676 0.536137 0.040000
0.539755 0.536137 0.040000
0.600560 0.536137 0.040000
0.662033 0.536137 0.040000
0.724125 0.536137 0.040000
0.786792 0.536137 0.040000
0.850000 0.536137 0.040000
0.000000 0.602023 0.040000
0.040945 0.602023 0.040000
0.088992 0.602023 0.040000
0.140143 0.602023 0.040000
0.193421 0.602023 0.040000
0.248338 0.602023 0.040000
0.304597 0.602023 0.040000
0.361998 0.602023 0.040000
0.420395 0.602023 0.040000
0.479676 0.602023 0.040000
0.539755 0.602023 0.040000
0.600560 0.602023 0.040000
0.662033 0.602023 0.040000
0.724125 0.602023 0.040000
0.786792 0.602023 0.040000
0.850000 0.602023 0.040000
0.000000 0.668057 0.040000
0.040945 0.668057 0.040000
0.088992 0.668057 0.040000
0.140143 0.668057 0.040000
0.193421 0.668057 0.040000
0.248338 0.668057 0.040000
0.304597 0.668057 0.040000
0.361998 0.668057 0.040000
0.420395 0.668057 0.040000
0.479676 0.668057 0.040000
0.539755 0.668057 0.040000
0.600560 0.668057 0.040000
0.662033 0.668057 0.040000
0.724125 0.668057 0.040000
0.786792 0.668057 0.040000
0.850000 0.668057 0.040000
0.000000 0.734223 0.040000
0.040945 0.734223 0.040000
0.088992 0.734223 0.040000
0.140143 0.734223 0.040000
0.193421 0.734223 0.040000
0.248338 0.734223 0.040000
0.304597 0.734223 0.040000
0.361998 0.734223 0.040000
0.420395 0.734223 0.040000
0.479676 0.734223 0.040000
0.539755 0.734223 0.040000
0.600560 0.734223 0.040000
0.662033 0.734223 0.040000
0.724125 0.734223 0.040000
0.786792 0.734223 0.040000
0.850000 0.734223 0.040000
0.000000 0.800509 0.040000
0.040945 0.800509 0.040000
0.088992 0.800509 0.040000
0.140143 0.800509 0.040000
0.193421 0.800509 0.040000
0.248338 0.800509 0.040000
0.304597 0.800509 0.040000
0.361998 0.800509 0.040000
0.420395 0.800509 0.040000
0.479676 0.800509 0.040000
0.539755 0.800509 0.040000
0.600560 0.800509 0.040000
0.662033 0.800509 0.040000
0.724125 0.800509 0.040000
0.786792 0.800509 0.040000
0.850000 0.800509 0.040000
0.000000 0.866906 0.040000
0.040945 0.866906 0.040000
0.088992 0.866906 0.040000
0.140143 0.866906 0.040000
0.193421 0.866906 0.040000
0.248338 0.866906 0.040000
0.304597 0.866906 0.040000
0.361998 0.866906 0.040000
0.420395 0.866906 0.040000
0.479676 0.866906 0.040000
0.539755 0.866906 0.040000
0.600560 0.866906 0.040000
0.662033 0.866906 0.040000
0.724125 0.866906 0.040000
0.786792 0.866906 0.040000
0.850000 0.866906 0.040000
0.000000 0.933405 0.040000
0.040945 0.933405 0.040000
0.088992 0.933405 0.040000
0.140143 0.933405 0.040000
0.193421 0.933405 0.040000
0.248338 0.933405 0.040000
0.304597 0.933405 0.040000
0.361998 0.933405 0.040000
0.420395 0.933405 0.040000
0.479676 0.933405 0.040000
0.539755 0.933405 0.040000
0.600560 0.933405 0.040000
0.662033 0.933405 0.040000
0.724125 0.933405 0.040000
0.786792 0.933405 0.040000
0.850000 0.933405 0.040000
0.000000 1.000000 0.040000
0.040945 1.000000 0.040000
0.088992 1.000000 0.040000
0.140143 1.000000 0.040000
0.193421 1.000000 0.040000
0.248338 1.000000 0.040000
0.304597 1.000000 0.040000
0.361998 1.000000 0.040000
0.420395 1.000000 0.040000
0.479676 1.000000 0.040000
0.539755 1.000000 0.040000
0.600560 1.000000 0.040000
0.662033 1.000000 0.040000
0.724125 1.000000 0.040000
0.786792 1.000000 0.040000
0.850000 1.000000 0.040000
0.000000 0.020000 0.146105
0.040945 0.020000 0.146105
0.088992 0.020000 0.146105
0.140143 0.020000 0.146105
0.193421 0.020000 0.146105
0.248338 0.020000 0.146105
0.304597 0.020000 0.146105
0.361998 0.020000 0.146105
0.420395 0.020000 0.146105
0.479676 0.020000 0.146105
0.539755 0.020000 0.146105
0.600560 0.020000 0.146105
0.662033 0.020000 0.146105
0.724125 0.020000 0.146105
0.786792 0.020000 0.146105
0.850000 0.020000 0.146105
0.000000 0.081889 0.146105
0.040945 0.081889 0.146105
0.088992 0.081889 0.146105
0.140143 0.081889 0.146105
0.193421 0.081889 0.146105
0.248338 0.081889 0.146105
0.304597 0.081889 0.146105
0.361998 0.081889 0.146105
0.420395 0.081889 0.146105
0.479676 0.081889 0.146105
0.539755 0.081889 0.146105
0.600560 0.081889 0.146105
0.662033 0.081889 0.146105
0.724125 0.081889 0.146105
0.786792 0.081889 0.146105
0.850000 0.081889 0.146105
0.000000 0.145506 0.146105
0.040945 0.145506 0.146105
0.088992 0.145506 0.146105
0.140143 0.145506 0.146105
0.193421 0.145506 0.146105
0.248338 0.145506 0.146105
0.304597 0.145506 0.146105
0.361998 0.145506 0.146105
0.420395 0.145506 0.146105
0.479676 0.145506 0.146105
0.539755 0.145506 0.146105
0.600560 0.145506 0.146105
0.662033 0.145506 0.146105
0.724125 0.145506 0.146105
0.786792 0.145506 0.146105
0.850000 0.145506 0.146105
0.000000 0.209791 0.146105
0.040945 0.209791 0.146105
0.088992 0.209791 0.146105
0.140143 0.209791 0.146105
0.193421 0.209791 0.146105
0.248338 0.209791 0.146105
0.304597 0.209791 0.146105
0.361998 0.209791 0.146105
0.420395 0.209791 0.146105
0.479676 0.209791 0.146105
0.539755 0.209791 0.146105
0.600560 0.209791 0.146105
0.662033 0.209791 0.146105
0.724125 0.209791 0.146105
0.786792 0.209791 0.146105
0.850000 0.209791 0.146105
0.000000 0.274515 0.146105
0.040945 0.274515 0.146105
0.088992 0.274515 0.146105
0.140143 0.274515 0.146105
0.193421 0.274515 0.146105
0.248338 0.274515 0.146105
0.304597 0.274515 0.146105
0.361998 0.274515 0.146105
0.420395 0.274515 0.146105
0.479676 0.274515 0.146105
0.539755 0.274515 0.146105
0.600560 0.274515 0.146105
0.662033 0.274515 0.146105
0.724125 0.274515 0.146105
0.786792 0.274515 0.146105
0.850000 0.274515 0.146105
0.000000 0.339567 0.146105
0.040945 0.339567 0.146105
0.088992 0.339567 0.146105
0.140143 0.339567 0.146105
0.193421 0.339567 0.146105
0.248338 0.339567 0.146105
0.304597 0.339567 0.146105
0.361998 0.339567 0.146105
0.420395 0.339567 0.146105
0.479676 0.339567 0.146105
0.539755 0.339567 0.146105
0.600560 0.339567 0.146105
0.662033 0.339567 0.146105
0.724125 0.339567 0.146105
0.786792 0.339567 0.146105
0.850000 0.339567 0.146105
0.000000 0.404882 0.146105
0.040945 0.404882 0.146105
0.088992 0.404882 0.146105
0.140143 0.404882 0.146105
0.193421 0.404882 0.146105
0.248338 0.404882 0.146105
0.304597 0.404882 0.146105
0.361998 0.404882 0.146105
0.420395 0.404882 0.146105
0.479676 0.404882 0.146105
0.539755 0.404882 0.146105
0.600560 0.404882 0.146105
0.662033 0.404882 0.146105
0.724125 0.404882 0.146105
0.786792 0.404882 0.146105
0.850000 0.404882 0.146105
0.000000 0.470415 0.146105
0.040945 0.470415 0.146105
0.088992 0.470415 0.146105
0.140143 0.470415 0.146105
0.193421 0.470415 0.146105
0.248338 0.470415 0.146105
0.304597 0.470415 0.146105
0.361998 0.470415 0.146105
0.420395 0.470415 0.146105
0.479676 0.470415 0.146105
0.539755 0.470415 0.146105
0.600560 0.470415 0.146105
0.662033 0.470415 0.146105
0.724125 0.470415 0.146105
0.786792 0.470415 0.146105
0.850000 0.470415 0.146105
0.000000 0.536137 0.146105
0.040945 0.536137 0.146105
0.088992 0.536137 0.146105
0.140143 0.536137 0.146105
0.193421 0.536137 0.146105
0.248338 0.536137 0.146105
0.304597 0.536137 0.146105
0.361998 0.536137 0.146105
0.420395 0.536137 0.146105
0.479676 0.536137 0.146105
0.539755 0.536137 0.146105
0.600560 0.536137 0.146105
0.662033 0.536137 0.146105
0.724125 0.536137 0.146105
0.786792 0.536137 0.146105
0.850000 0.536137 0.146105
0.000000 0.602023 0.146105
0.040945 0.602023 0.146105
0.088992 0.602023 0.146105
0.140143 0.602023 0.146105
0.193421 0.602023 0.146105
0.248338 0.602023 0.146105
0.304597 0.602023 0.146105
0.361998 0.602023 0.146105
0.420395 0.602023 0.146105
0.479676 0.602023 0.146105
0.539755 0.602023 0.146105
0.600560 0.602023 0.146105
0.662033 0.602023 0.146105
0.724125 0.602023 0.146105
0.786792 0.602023 0.146105
0.850000 0.602023 0.146105
0.000000 0.668057 0.146105
0.040945 0.668057 0.146105
0.088992 0.668057 0.146105
0.140143 0.668057 0.146105
0.193421 0.668057 0.146105
0.248338 0.668057 0.146105
0.304597 0.668057 0.146105
0.361998 0.668057 0.146105
0.420395 0.668057 0.146105
0.479676 0.668057 0.146105
0.539755 0.668057 0.146105
0.600560 0.668057 0.146105
0.662033 0.668057 0.146105
0.724125 0.668057 0.146105
0.786792 0.668057 0.146105
0.850000 0.668057 0.146105
0.000000 0.734223 0.146105
0.040945 0.734223 0.146105
0.088992 0.734223 0.146105
0.140143 0.734223 0.146105
0.193421 0.734223 0.146105
0.248338 0.734223 0.146105
0.304597 0.734223 0.146105
0.361998 0.734223 0.146105
0.420395 0.734223 0.146105
0.479676 0.734223 0.146105
0.539755 0.734223 0.146105
0.600560 0.734223 0.146105
0.662033 0.734223 0.146105
0.724125 0.734223 0.146105
0.786792 0.734223 0.146105
0.850000 0.734223 0.146105
0.000000 0.800509 0.146105
0.040945 0.800509 0.146105
0.088992 0.800509 0.146105
0.140143 0.800509 0.146105
0.193421 0.800509 0.146105
0.248338 0.800509 0.146105
0.304597 0.800509 0.146105
0.361998 0.800509 0.146105
0.420395 0.800509 0.146105
0.479676 0.800509 0.146105
0.539755 0.800509 0.146105
0.600560 0.800509 0.146105
0.662033 0.800509 0.146105
0.724125 0.800509 0.146105
0.786792 0.800509 0.146105
0.850000 0.800509 0.146105
0.000000 0.866906 0.146105
0.040945 0.866906 0.146105
0.088992 0.866906 0.146105
0.140143 0.866906 0.146105
0.193421 0.866906 0.146105
0.248338 0.866906 0.146105
0.304597 0.866906 0.146105
0.361998 0.866906 0.146105
0.420395 0.866906 0.146105
0.479676 0.866906 0.146105
0.539755 0.866906 0.146105
0.600560 0.866906 0.146105
0.662033 0.866906 0.146105
0.724125 0.866906 0.146105
0.786792 0.866906 0.146105
0.850000 0.866906 0.146105
0.000000 0.933405 0.146105
0.040945 0.933405 0.146105
0.088992 0.933405 0.146105
0.140143 0.933405 0.146105
0.193421 0.933405 0.146105
0.248338 0.933405 0.146105
0.304597 0.933405 0.146105
0.361998 0.933405 0.146105
0.420395 0.933405 0.146105
0.479676 0.933405 0.146105
0.539755 0.933405 0.146105
0.600560 0.933405 0.146105
0.662033 0.933405 0.146105
0.724125 0.933405 0.146105
0.786792 0.933405 0.146105
0.850000 0.933405 0.146105
0.000000 1.000000 0.146105
0.040945 1.000000 0.146105
0.088992 1.000000 0.146105
0.140143 1.000000 0.146105
0.193421 1.000000 0.146105
0.248338 1.000000 0.146105
0.304597 1.000000 0.146105
0.361998 1.000000 0.146105
0.420395 1.000000 0.146105
0.479676 1.000000 0.146105
0.539755 1.000000 0.146105
0.600560 1.000000 0.146105
0.662033 1.000000 0.146105
0.724125 1.000000 0.146105
0.786792 1.000000 0.146105
0.850000 1.000000 0.146105
0.000000 0.020000 0.235274
0.040945 0.020000 0.235274
0.088992 0.020000 0.235274
0.140143 0.020000 0.235274
0.193421 0.020000 0.235274
0.248338 0.020000 0.235274
0.304597 0.020000 0.235274
0.361998 0.020000 0.235274
0.420395 0.020000 0.235274
0.479676 0.020000 0.235274
0.539755 0.020000 0.235274
0.600560 0.020000 0.235274
0.662033 0.020000 0.235274
0.724125 0.020000 0.235274
0.786792 0.020000 0.235274
0.850000 0.020000 0.235274
0.000000 0.081889 0.235274
0.040945 0.081889 0.235274
0.088992 0.081889 0.235274
0.140143 0.081889 0.235274
0.193421 0.081889 0.235274
0.248338 0.081889 0.235274
0.304597 0.081889 0.235274
0.361998 0.081889 0.235274
0.420395 0.081889 0.235274
0.479676 0.081889 0.235274
0.539755 0.081889 0.235274
0.600560 0.081889 0.235274
0.662033 0.081889 0.235274
0.724125 0.081889 0.235274
0.786792 0.081889 0.235274
0.850000 0.081889 0.235274
0.000000 0.145506 0.235274
0.040945 0.145506 0.235274
0.088992 0.145506 0.235274
0.140143 0.145506 0.235274
0.193421 0.145506 0.235274
0.248338 0.145506 0.235274
0.304597 0.145506 0.235274
0.361998 0.145506 0.235274
0.420395 0.145506 0.235274
0.479676 0.145506 0.235274
0.539755 0.145506 0.235274
0.600560 0.145506 0.235274
0.662033 0.145506 0.235274
0.724125 0.145506 0.235274
0.786792 0.145506 0.235274
0.850000 0.145506 0.235274
0.000000 0.209791 0.235274
0.040945 0.209791 0.235274
0.088992 0.209791 0.235274
0.140143 0.209791 0.235274
0.193421 0.209791 0.235274
0.248338 0.209791 0.235274
0.304597 0.209791 0.235274
0.361998 0.209791 0.235274
0.420395 0.209791 0.235274
0.479676 0.209791 0.235274
0.539755 0.209791 0.235274
0.600560 0.209791 0.235274
0.662033 0.209791 0.235274
0.724125 0.209791 0.235274
0.786792 0.209791 0.235274
0.850000 0.209791 0.235274
0.000000 0.274515 0.235274
0.040945 0.274515 0.235274
0.088992 0.274515 0.235274
0.140143 0.274515 0.235274
0.193421 0.274515 0.235274
0.248338 0.274515 0.235274
0.304597 0.274515 0.235274
0.361998 0.274515 0.235274
0.420395 0.274515 0.235274
0.479676 0.274515 0.235274
0.539755 0.274515 0.235274
0.600560 0.274515 0.235274
0.662033 0.274515 0.235274
0.724125 0.274515 0.235274
0.786792 0.274515 0.235274
0.850000 0.274515 0.235274
0.000000 0.339567 0.235274
0.040945 0.339567 0.235274
0.088992 0.339567 0.235274
0.140143 0.339567 0.235274
0.193421 0.339567 0.235274
0.248338 0.339567 0.235274
0.304597 0.339567 0.235274
0.361998 0.339567 0.235274
0.420395 0.339567 0.235274
0.479676 0.339567 0.235274
0.539755 0.339567 0.235274
0.600560 0.339567 0.235274
0.662033 0.339567 0.235274
0.724125 0.339567 0.235274
0.786792 0.339567 0.235274
0.850000 0.339567 0.235274
0.000000 0.404882 0.235274
0.040945 0.404882 0.235274
0.088992 0.404882 0.235274
0.140143 0.404882 0.235274
0.193421 0.404882 0.235274
0.248338 0.404882 0.235274
0.304597 0.404882 0.235274
0.361998 0.404882 0.235274
0.420395 0.404882 0.235274
0.479676 0.404882 0.235274
0.539755 0.404882 0.235274
0.600560 0.404882 0.235274
0.662033 0.404882 0.235274
0.724125 0.404882 0.235274
0.786792 0.404882 0.235274
0.850000 0.404882 0.235274
0.000000 0.470415 0.235274
0.040945 0.470415 0.235274
0.088992 0.470415 0.235274
0.140143 0.470415 0.235274
0.193421 0.470415 0.235274
0.248338 0.470415 0.235274
0.304597 0.470415 0.235274
0.361998 0.470415 0.235274
0.420395 0.470415 0.235274
0.479676 0.470415 0.235274
0.539755 0.470415 0.235274
0.600560 0.470415 0.235274
0.662033 0.470415 0.235274
0.724125 0.470415 0.235274
0.786792 0.470415 0.235274
0.850000 0.470415 0.235274
0.000000 0.536137 0.235274
0.040945 0.536137 0.235274
0.088992 0.536137 0.235274
0.140143 0.536137 0.235274
0.193421 0.536137 0.235274
0.248338 0.536137 0.235274
0.304597 0.536137 0.235274
0.361998 0.536137 0.235274
0.420395 0.536137 0.235274
0.479676 0.536137 0.235274
0.539755 0.536137 0.235274
0.600560 0.536137 0.235274
0.662033 0.536137 0.235274
0.724125 0.536137 0.235274
0.786792 0.536137 0.235274
0.850000 0.536137 0.235274
0.000000 0.602023 0.235274
0.040945 0.602023 0.235274
0.088992 0.602023 0.235274
0.140143 0.602023 0.235274
0.193421 0.602023 0.235274
0.248338 0.602023 0.235274
0.304597 0.602023 0.235274
0.361998 0.602023 0.235274
0.420395 0.602023 0.235274
0.479676 0.602023 0.235274
0.539755 0.602023 0.235274
0.600560 0.602023 0.235274
0.662033 0.602023 0.235274
0.724125 0.602023 0.235274
0.786792 0.602023 0.235274
0.850000 0.602023 0.235274
0.000000 0.668057 0.235274
0.040945 0.668057 0.235274
0.088992 0.668057 0.235274
0.140143 0.668057 0.235274
0.193421 0.668057 0.235274
0.248338 0.668057 0.235274
0.304597 0.668057 0.235274
0.361998 0.668057 0.235274
0.420395 0.668057 0.235274
0.479676 0.668057 0.235274
0.539755 0.668057 0.235274
0.600560 0.668057 0.235274
0.662033 0.668057 0.235274
0.724125 0.668057 0.235274
0.786792 0.668057 0.235274
0.850000 0.668057 0.235274
0.000000 0.734223 0.235274
0.040945 0.734223 0.235274
0.088992 0.734223 0.235274
0.140143 0.734223 0.235274
0.193421 0.734223 0.235274
0.248338 0.734223 0.235274
0.304597 0.734223 0.235274
0.361998 0.734223 0.235274
0.420395 0.734223 0.235274
0.479676 0.734223 0.235274
0.539755 0.734223 0.235274
0.600560 0.734223 0.235274
0.662033 0.734223 0.235274
0.724125 0.734223 0.235274
0.786792 0.734223 0.235274
0.850000 0.734223 0.235274
0.000000 0.800509 0.235274
0.040945 0.800509 0.235274
0.088992 0.800509 0.235274
0.140143 0.800509 0.235274
0.193421 0.800509 0.235274
0.248338 0.800509 0.235274
0.304597 0.800509 0.235274
0.361998 0.800509 0.235274
0.420395 0.800509 0.235274
0.479676 0.800509 0.235274
0.539755 0.800509 0.235274
0.600560 0.800509 0.235274
0.662033 0.800509 0.235274
0.724125 0.800509 0.235274
0.786792 0.800509 0.235274
0.850000 0.800509 0.235274
0.000000 0.866906 0.235274
0.040945 0.866906 0.235274
0.088992 0.866906 0.235274
0.140143 0.866906 0.235274
0.193421 0.866906 0.235274
0.248338 0.866906 0.235274
0.304597 0.866906 0.235274
0.361998 0.866906 0.235274
0.420395 0.866906 0.235274
0.479676 0.866906 0.235274
0.539755 0.866906 0.235274
0.600560 0.866906 0.235274
0.662033 0.866906 0.235274
0.724125 0.866906 0.235274
0.786792 0.866906 0.235274
0.850000 0.866906 0.235274
0.000000 0.933405 0.235274
0.040945 0.933405 0.235274
0.088992 0.933405 0.235274
0.140143 0.933405 0.235274
0.193421 0.933405 0.235274
0.248338 0.933405 0.235274
0.304597 0.933405 0.235274
0.361998 0.933405 0.235274
0.420395 0.933405 0.235274
0.479676 0.933405 0.235274
0.539755 0.933405 0.235274
0.600560 0.933405 0.235274
0.662033 0.933405 0.235274
0.724125 0.933405 0.235274
0.786792 0.933405 0.235274
0.850000 0.933405 0.235274
0.000000 1.000000 0.235274
0.040945 1.000000 0.235274
0.088992 1.000000 0.235274
0.140143 1.000000 0.235274
0.193421 1.000000 0.235274
0.248338 1.000000 0.235274
0.304597 1.000000 0.235274
0.361998 1.000000 0.235274
0.420395 1.000000 0.235274
0.479676 1.000000 0.235274
0.539755 1.000000 0.235274
0.600560 1.000000 0.235274
0.662033 1.000000 0.235274
0.724125 1.000000 0.235274
0.786792 1.000000 0.235274
0.850000 1.000000 0.235274
0.000000 0.020000 0.319000
0.040945 0.020000 0.319000
0.088992 0.020000 0.319000
0.140143 0.020000 0.319000
0.193421 0.020000 0.319000
0.248338 0.020000 0.319000
0.304597 0.020000 0.319000
0.361998 0.020000 0.319000
0.420395 0.020000 0.319000
0.479676 0.020000 0.319000
0.539755 0.020000 0.319000
0.600560 0.020000 0.319000
0.662033 0.020000 0.319000
0.724125 0.020000 0.319000
0.786792 0.020000 0.319000
0.850000 0.020000 0.319000
0.000000 0.081889 0.319000
0.040945 0.081889 0.319000
0.088992 0.081889 0.319000
0.140143 0.081889 0.319000
0.193421 0.081889 0.319000
0.248338 0.081889 0.319000
0.304597 0.081889 0.319000
0.361998 0.081889 0.319000
0.420395 0.081889 0.319000
0.479676 0.081889 0.319000
0.539755 0.081889 0.319000
0.600560 0.081889 0.319000
0.662033 0.081889 0.319000
0.724125 0.081889 0.319000
0.786792 0.081889 0.319000
0.850000 0.081889 0.319000
0.000000 0.145506 0.319000
0.040945 0.145506 0.319000
0.088992 0.145506 0.319000
0.140143 0.145506 0.319000
0.193421 0.145506 0.319000
0.248338 0.145506 0.319000
0.304597 0.145506 0.319000
0.361998 0.145506 0.319000
0.420395 0.145506 0.319000
0.479676 0.145506 0.319000
0.539755 0.145506 0.319000
0.600560 0.145506 0.319000
0.662033 0.145506 0.319000
0.724125 0.145506 0.319000
0.786792 0.145506 0.319000
0.850000 0.145506 0.319000
0.000000 0.209791 0.319000
0.040945 0.209791 0.319000
0.088992 0.209791 0.319000
0.140143 0.209791 0.319000
0.193421 0.209791 0.319000
0.248338 0.209791 0.319000
0.304597 0.209791 0.319000
0.361998 0.209791 0.319000
0.420395 0.209791 0.319000
0.479676 0.209791 0.319000
0.539755 0.209791 0.319000
0.600560 0.209791 0.319000
0.662033 0.209791 0.319000
0.724125 0.209791 0.319000
0.786792 0.209791 0.319000
0.850000 0.209791 0.319000
0.000000 0.274515 0.319000
0.040945 0.274515 0.319000
0.088992 0.274515 0.319000
0.140143 0.274515 0.319000
0.193421 0.274515 0.319000
0.248338 0.274515 0.319000
0.304597 0.274515 0.319000
0.361998 0.274515 0.319000
0.420395 0.274515 0.319000
0.479676 0.274515 0.319000
0.539755 0.274515 0.319000
0.600560 0.274515 0.319000
0.662033 0.274515 0.319000
0.724125 0.274515 0.319000
0.786792 0.274515 0.319000
0.850000 0.274515 0.319000
0.000000 0.339567 0.319000
0.040945 0.339567 0.319000
0.088992 0.339567 0.319000
0.140143 0.339567 0.319000
0.193421 0.339567 0.319000
0.248338 0.339567 0.319000
0.304597 0.339567 0.319000
0.361998 0.339567 0.319000
0.420395 0.339567 0.319000
0.479676 0.339567 0.319000
0.539755 0.339567 0.319000
0.600560 0.339567 0.319000
0.662033 0.339567 0.319000
0.724125 0.339567 0.319000
0.786792 0.339567 0.319000
0.850000 0.339567 0.319000
0.000000 0.404882 0.319000
0.040945 0.404882 0.319000
0.088992 0.404882 0.319000
0.140143 0.404882 0.319000
0.193421 0.404882 0.319000
0.248338 0.404882 0.319000
0.304597 0.404882 0.319000
0.361998 0.404882 0.319000
0.420395 0.404882 0.319000
0.479676 0.404882 0.319000
0.539755 0.404882 0.319000
0.600560 0.404882 0.319000
0.662033 0.404882 0.319000
0.724125 0.404882 0.319000
0.786792 0.404882 0.319000
0.850000 0.404882 0.319000
0.000000 0.470415 0.319000
0.040945 0.470415 0.319000
0.088992 0.470415 0.319000
0.140143 0.470415 0.319000
0.193421 0.470415 0.319000
0.248338 0.470415 0.319000
0.304597 0.470415 0.319000
