entry/src/main/resources/rawfile/filters/NightMarket.cube
TITLE "NightMarket - Original look 1.0 (Standard/sRGB base)"
LUT_3D_SIZE 6
0.006124 0.036263 0.093566
0.165949 0.062965 0.085436
0.337094 0.090228 0.065773
0.494313 0.137158 0.020689
0.674801 0.230621 0.027955
0.862480 0.309811 0.049162
0.004541 0.184848 0.168291
0.144054 0.198554 0.120299
0.360207 0.182437 0.038507
0.529545 0.192207 0.032585
0.719972 0.262680 0.049522
0.891891 0.338586 0.068432
0.026964 0.347061 0.239534
0.113725 0.361231 0.194472
0.353298 0.362700 0.077106
0.577328 0.353109 0.127456
0.780287 0.403828 0.093188
0.965337 0.416412 0.116981
0.105156 0.554367 0.336723
0.182683 0.563119 0.317294
0.362930 0.578337 0.236960
0.594246 0.582024 0.123862
0.809610 0.606463 0.134557
0.985958 0.599348 0.254381
0.260095 0.785405 0.453680
0.311892 0.789172 0.441781
0.433547 0.799565 0.392984
0.623537 0.808836 0.251285
0.844740 0.807176 0.172846
0.989995 0.799678 0.292427
0.430698 0.952762 0.587255
0.469872 0.953218 0.585885
0.568682 0.954394 0.581870
0.710660 0.955948 0.577550
0.869035 0.958932 0.590255
0.980317 0.982309 0.667973
0.000379 0.064961 0.150321
0.153985 0.044269 0.264394
0.342286 0.059157 0.242809
0.521988 0.075797 0.188146
0.707092 0.194822 0.042816
0.885430 0.287401 0.059252
0.005852 0.187015 0.232939
0.149166 0.191736 0.245980
0.335806 0.196977 0.207694
0.522432 0.207270 0.130455
0.735293 0.254215 0.076011
0.908495 0.325779 0.079225
0.050016 0.346698 0.291193
0.159406 0.353832 0.279457
0.354901 0.362679 0.201273
0.563901 0.365247 0.209590
0.788535 0.399161 0.202860
0.949536 0.434501 0.225451
0.147276 0.552289 0.383043
0.221875 0.558845 0.374744
0.371233 0.576439 0.318102
0.596038 0.582471 0.223213
0.831020 0.594433 0.238274
0.983662 0.604044 0.276810
0.292285 0.782063 0.493059
0.338116 0.785756 0.484228
0.447704 0.796658 0.445674
0.625242 0.808270 0.328547
0.847129 0.807413 0.236203
0.989966 0.799938 0.349435
0.451611 0.949676 0.615266
0.488505 0.950136 0.614461
0.582022 0.951547 0.611647
0.717158 0.954134 0.607049
0.870643 0.958712 0.613926
0.980574 0.982737 0.686023
0.000880 0.122970 0.243336
0.164560 0.021747 0.414477
0.305619 0.093889 0.414364
0.521445 0.067060 0.377612
0.740880 0.111456 0.382192
0.943047 0.162258 0.390515
0.005025 0.202081 0.325227
0.141679 0.184804 0.409147
0.312010 0.203972 0.395030
0.529833 0.192070 0.371139
0.753191 0.226020 0.388884
0.951191 0.258013 0.370611
0.042475 0.355355 0.372072
0.170554 0.359068 0.373704
0.358822 0.363841 0.368923
0.551509 0.382404 0.349496
0.776242 0.422186 0.323869
0.962154 0.438245 0.266274
0.203119 0.553336 0.461539
0.279416 0.555687 0.465679
0.409884 0.568308 0.462916
0.599312 0.583831 0.392275
0.826731 0.598906 0.418288
0.983879 0.606357 0.417170
0.355382 0.776045 0.574194
0.396605 0.778610 0.572272
0.490835 0.788221 0.557875
0.633228 0.805622 0.484877
0.848054 0.807957 0.411326
0.991378 0.798469 0.493533
0.503550 0.942069 0.681036
0.536439 0.942329 0.681843
0.619405 0.943828 0.683067
0.737411 0.948808 0.680847
0.875015 0.958378 0.676804
0.981450 0.984158 0.734959
0.001760 0.181811 0.339503
0.145572 0.040495 0.568214
0.308392 0.095288 0.561309
0.476941 0.156993 0.556922
0.747541 0.125373 0.574023
0.945031 0.181687 0.569396
0.004951 0.235869 0.409064
0.106381 0.191327 0.565545
0.326872 0.196670 0.553421
0.488136 0.242173 0.551235
0.759059 0.235966 0.577351
0.956862 0.258225 0.570645
0.041125 0.366420 0.509016
0.136190 0.375136 0.514229
0.360260 0.370184 0.544231
0.528225 0.402105 0.561357
0.785582 0.414649 0.581619
0.971965 0.422266 0.570929
0.160540 0.571581 0.565423
0.254552 0.573629 0.566530
0.418424 0.579021 0.568978
0.604899 0.586884 0.571205
0.817796 0.614043 0.553883
0.985283 0.619184 0.508024
0.357873 0.785439 0.649045
0.410964 0.785363 0.651905
0.531098 0.785917 0.659863
0.668058 0.795971 0.658272
0.849384 0.809437 0.596895
0.993607 0.798762 0.649158
0.560442 0.936282 0.755947
0.592774 0.935581 0.758815
0.672400 0.935032 0.766550
0.775959 0.940318 0.775305
0.882303 0.958486 0.773168
0.983989 0.987113 0.810574
0.003276 0.247520 0.445987
0.053078 0.120620 0.719033
0.351301 0.075163 0.727380
0.484211 0.209218 0.720508
0.694597 0.260393 0.772829
0.929902 0.243392 0.757689
0.006596 0.289428 0.509083
0.040578 0.241804 0.689271
0.361434 0.195234 0.733913
0.502153 0.278081 0.727974
0.705656 0.327008 0.774355
0.948280 0.290528 0.762732
0.030426 0.412587 0.614585
0.064651 0.414830 0.675224
0.364366 0.397652 0.745919
0.559305 0.422659 0.755017
0.738187 0.465562 0.775176
0.972272 0.431949 0.758614
0.181768 0.596134 0.758336
0.265228 0.600030 0.753342
0.414257 0.612990 0.734135
0.623611 0.608727 0.766340
0.791829 0.633772 0.771905
0.988062 0.615954 0.753058
0.327266 0.803568 0.768541
0.383021 0.804117 0.768807
0.509488 0.805711 0.769806
0.673242 0.808493 0.772677
0.852205 0.813681 0.778488
0.986013 0.813470 0.757824
0.574594 0.945833 0.816392
0.609561 0.944307 0.819222
0.696524 0.940926 0.828313
0.810624 0.940322 0.846356
0.899165 0.958506 0.881684
0.990781 0.991954 0.900559
0.005732 0.307288 0.542290
0.010578 0.276150 0.691748
0.342905 0.139598 0.867115
0.518500 0.194497 0.883270
0.662806 0.314795 0.908998
0.873508 0.357137 0.939382
0.008887 0.341881 0.598684
0.016311 0.318841 0.727958
0.345642 0.226625 0.887987
0.538462 0.256071 0.907274
0.675085 0.367141 0.908945
0.886516 0.393798 0.947144
0.027464 0.448995 0.715584
0.045788 0.446170 0.790102
0.336262 0.415784 0.910644
0.578541 0.411717 0.924316
0.714088 0.479994 0.915336
0.906669 0.506214 0.944130
0.110482 0.615982 0.850882
0.161279 0.621481 0.864459
0.354933 0.625899 0.883446
0.606336 0.606561 0.930473
0.779684 0.625562 0.926695
0.938708 0.655247 0.943394
0.325178 0.789573 0.931096
0.378134 0.790304 0.930923
0.494717 0.794014 0.926466
0.638556 0.805731 0.905104
0.831764 0.801028 0.926767
0.958669 0.836213 0.913960
0.614624 0.951818 0.910350
0.644474 0.951248 0.910067
0.719500 0.950779 0.910444
0.818166 0.955054 0.918061
0.896012 0.974435 0.963839
1.000000 1.000000 1.000000
