entry/src/main/resources/rawfile/filters/NightMarket.cube
TITLE "NightMarket - Original look 1.0 (Standard/sRGB base)"
LUT_3D_SIZE 16
0.006124 0.036263 0.093566
0.047784 0.038611 0.099673
0.100394 0.053104 0.097763
0.165949 0.062965 0.085436
0.227832 0.070941 0.075075
0.282067 0.081723 0.073642
0.337094 0.090228 0.065773
0.393871 0.096325 0.046762
0.447101 0.109959 0.025205
0.494313 0.137158 0.020689
0.543750 0.165934 0.020372
0.600314 0.196032 0.022411
0.674801 0.230621 0.027955
0.758964 0.265343 0.037513
0.827448 0.294304 0.044777
0.862480 0.309811 0.049162
0.000902 0.081775 0.110491
0.018919 0.092538 0.113196
0.111442 0.089894 0.097590
0.199225 0.081196 0.028047
0.250098 0.085898 0.041131
0.293031 0.099239 0.066409
0.341852 0.109964 0.071221
0.396031 0.117189 0.058259
0.451436 0.125739 0.032213
0.499618 0.148968 0.024221
0.549275 0.175732 0.022924
0.606072 0.204504 0.024725
0.681054 0.238103 0.030606
0.765025 0.272376 0.040568
0.832650 0.300729 0.047472
0.867197 0.315558 0.051086
0.002249 0.133278 0.136476
0.007283 0.142837 0.127913
0.086110 0.146418 0.109509
0.161679 0.143890 0.114753
0.246567 0.133412 0.055570
0.309798 0.128420 0.018532
0.363624 0.127930 0.022942
0.413580 0.134214 0.034811
0.463631 0.145470 0.033988
0.512410 0.164546 0.029906
0.562317 0.188737 0.028382
0.619091 0.216292 0.030021
0.694468 0.249360 0.036733
0.777257 0.283709 0.046715
0.842870 0.311558 0.053180
0.875963 0.325524 0.056059
0.004541 0.184848 0.168291
0.007000 0.191214 0.162690
0.043943 0.199687 0.139213
0.144054 0.198554 0.120299
0.216500 0.195199 0.121474
0.291838 0.186948 0.110876
0.360207 0.182437 0.038507
0.417010 0.182713 0.023835
0.473548 0.184873 0.027230
0.529545 0.192207 0.032585
0.584420 0.207476 0.036895
0.643497 0.230642 0.041075
0.719972 0.262680 0.049522
0.800082 0.297022 0.058394
0.862267 0.324593 0.064054
0.891891 0.338586 0.068432
0.008213 0.236202 0.197672
0.010859 0.240964 0.192154
0.027195 0.249228 0.173715
0.121538 0.252405 0.138880
0.207912 0.250024 0.117484
0.274120 0.249037 0.112307
0.352078 0.238917 0.119602
0.418997 0.235842 0.080662
0.476315 0.240961 0.034061
0.536450 0.245147 0.037766
0.599657 0.251097 0.044536
0.668251 0.262710 0.053766
0.751144 0.286537 0.066504
0.831212 0.315165 0.076149
0.890145 0.340740 0.085711
0.915535 0.354179 0.092373
0.014773 0.289733 0.220799
0.018363 0.293604 0.214849
0.032236 0.300502 0.199002
0.106956 0.305891 0.168042
0.198972 0.305979 0.126078
0.278151 0.303566 0.100947
0.343403 0.303429 0.092529
0.416092 0.298236 0.094157
0.494692 0.289064 0.109949
0.549134 0.300853 0.063886
0.609227 0.311749 0.055572
0.681797 0.321876 0.065809
0.769307 0.338896 0.079635
0.854761 0.355847 0.092753
0.917649 0.370285 0.107216
0.943140 0.376703 0.117582
0.026964 0.347061 0.239534
0.032611 0.350355 0.233225
0.050395 0.356070 0.218812
0.113725 0.361231 0.194472
0.194199 0.364128 0.156371
0.277803 0.363949 0.104489
0.353298 0.362700 0.077106
0.417656 0.364796 0.073776
0.484717 0.366823 0.077784
0.577328 0.353109 0.127456
0.635136 0.366464 0.124101
0.697509 0.385209 0.087294
0.780287 0.403828 0.093188
0.864923 0.418652 0.105420
0.932075 0.424419 0.113809
0.965337 0.416412 0.116981
0.048750 0.409572 0.259033
0.056610 0.412411 0.252995
0.077650 0.417087 0.240860
0.134280 0.421488 0.223514
0.201557 0.425887 0.195341
0.276116 0.429409 0.149647
0.356963 0.430322 0.094632
0.430127 0.431701 0.084254
0.494567 0.437458 0.092724
0.561229 0.443840 0.101570
0.650259 0.435918 0.134042
0.730706 0.435645 0.172759
0.799854 0.462683 0.144819
0.873917 0.484563 0.123326
0.939562 0.489024 0.126476
0.972708 0.477055 0.127621
0.075478 0.478614 0.290733
0.084190 0.481099 0.285998
0.106339 0.485057 0.277458
0.155590 0.489323 0.266263
0.213455 0.494678 0.247701
0.279342 0.500611 0.216407
0.355437 0.505234 0.169385
0.437324 0.506979 0.118746
0.511298 0.508854 0.110347
0.576992 0.513564 0.114608
0.643168 0.518418 0.118454
0.724248 0.518796 0.129349
0.838491 0.510341 0.190590
0.902415 0.535048 0.203297
0.949344 0.551920 0.172628
0.979143 0.539942 0.141951
0.105156 0.554367 0.336723
0.114749 0.556423 0.332817
0.138134 0.559532 0.326280
0.182683 0.563119 0.317294
0.235043 0.567853 0.301945
0.294523 0.573324 0.276502
0.362930 0.578337 0.236960
0.440569 0.581203 0.182138
0.521855 0.581235 0.131168
0.594246 0.582024 0.123862
0.659070 0.585505 0.126173
0.727309 0.591892 0.129276
0.809610 0.606463 0.134557
0.932633 0.590457 0.185870
0.984325 0.596649 0.246681
0.985958 0.599348 0.254381
0.146163 0.628691 0.375155
0.158409 0.629988 0.372217
0.183897 0.631832 0.367637
0.220961 0.634631 0.359686
0.266057 0.638504 0.346347
0.318399 0.643206 0.324999
0.378732 0.648053 0.292183
0.448212 0.651815 0.244436
0.525929 0.653101 0.181728
0.605276 0.651749 0.138748
0.675263 0.651961 0.133920
0.741878 0.657591 0.136895
0.820776 0.673157 0.142646
0.898748 0.687214 0.149502
0.978742 0.674474 0.225523
0.994094 0.657035 0.361619
0.201041 0.702475 0.411744
0.213197 0.703242 0.409691
0.233875 0.704655 0.405687
0.264223 0.706951 0.398515
0.302807 0.710172 0.386830
0.348675 0.714207 0.368662
0.401892 0.718679 0.341291
0.463346 0.722801 0.301398
0.533737 0.725377 0.245736
0.611090 0.725319 0.179225
0.688081 0.723138 0.148788
0.757049 0.724283 0.146702
0.832773 0.739072 0.153363
0.908540 0.753615 0.162150
0.967866 0.754498 0.173023
0.992318 0.731879 0.264176
0.260095 0.785405 0.453680
0.269594 0.786042 0.451818
0.286377 0.787230 0.448190
0.311892 0.789172 0.441781
0.345362 0.791927 0.431543
0.385994 0.795459 0.415974
0.433547 0.799565 0.392984
0.488509 0.803765 0.359872
0.551847 0.807210 0.313382
0.623537 0.808836 0.251285
0.700926 0.807780 0.189249
0.776295 0.805398 0.167390
0.844740 0.807176 0.172846
0.914836 0.820112 0.225889
0.966149 0.821835 0.287543
0.989995 0.799678 0.292427
0.304737 0.866679 0.498466
0.312697 0.867230 0.496855
0.327073 0.868269 0.493709
0.349351 0.869977 0.488200
0.379106 0.872421 0.479518
0.415705 0.875608 0.466531
0.458782 0.879440 0.447683
0.508993 0.883519 0.421368
0.568863 0.886735 0.388008
0.637944 0.888185 0.349721
0.713763 0.887210 0.315705
0.790833 0.884187 0.307432
0.860976 0.881448 0.341904
0.918450 0.883169 0.408901
0.961763 0.885079 0.463812
0.983963 0.862862 0.430637
0.350002 0.929093 0.544796
0.358072 0.929382 0.543895
0.372793 0.929905 0.542189
0.395970 0.930718 0.539345
0.427462 0.931787 0.535184
0.466667 0.933026 0.529564
0.512806 0.934299 0.522450
0.565084 0.935410 0.514071
0.622755 0.936109 0.505237
0.684744 0.936153 0.497883
0.749329 0.935477 0.495368
0.813905 0.934425 0.502171
0.874963 0.933990 0.522006
0.928949 0.935777 0.554690
0.969109 0.942350 0.596245
0.986487 0.920188 0.565529
0.430698 0.952762 0.587255
0.437678 0.952842 0.587023
0.450196 0.952987 0.586593
0.469872 0.953218 0.585885
0.496597 0.953534 0.584864
0.529803 0.953931 0.583515
0.568682 0.954394 0.581870
0.612352 0.954900 0.580062
0.659984 0.955422 0.578410
0.710660 0.955948 0.577550
0.763315 0.956529 0.578459
0.816669 0.957367 0.582341
0.869035 0.958932 0.590255
0.914437 0.963004 0.608588
0.949899 0.971027 0.637973
0.980317 0.982309 0.667973
0.000275 0.040677 0.111855
0.041116 0.023298 0.170413
0.107222 0.034763 0.163459
0.171612 0.045779 0.153324
0.232434 0.059556 0.128661
0.284761 0.078260 0.101031
0.338983 0.089030 0.086461
0.395256 0.095881 0.068434
0.453092 0.101800 0.038286
0.501740 0.127517 0.025127
0.550351 0.158324 0.022948
0.606136 0.189951 0.024380
0.680106 0.225476 0.029865
0.763849 0.260755 0.039685
0.831860 0.290169 0.046706
0.866501 0.306056 0.050799
0.001084 0.082324 0.136219
0.035222 0.086347 0.150965
0.101038 0.091547 0.147325
0.167670 0.096935 0.130728
0.224414 0.104106 0.122838
0.279728 0.111393 0.113224
0.336115 0.116909 0.101306
0.393882 0.121136 0.082943
0.453348 0.124540 0.053015
0.505992 0.141615 0.030186
0.555385 0.169196 0.026024
0.611645 0.198975 0.027002
0.686235 0.233247 0.032798
0.769815 0.267981 0.042880
0.836979 0.296752 0.049562
0.871160 0.311917 0.052840
0.002967 0.132765 0.160178
0.011912 0.139131 0.168749
0.088409 0.143405 0.151161
0.170071 0.139799 0.136421
0.247119 0.133625 0.089314
0.296956 0.137577 0.096519
0.345700 0.144408 0.102176
0.398800 0.150732 0.094872
0.456506 0.155450 0.072139
0.513613 0.164865 0.041821
0.564731 0.187623 0.032877
0.621871 0.214732 0.032759
0.697633 0.247328 0.039236
0.780601 0.281299 0.049076
0.846186 0.308980 0.055351
0.879229 0.322854 0.057870
0.005685 0.184089 0.188378
0.009590 0.189538 0.188980
0.051425 0.197012 0.173505
0.144951 0.197096 0.152456
0.217462 0.193661 0.152342
0.298498 0.184565 0.109403
0.364757 0.179668 0.063533
0.422803 0.177625 0.057195
0.477465 0.181390 0.058853
0.532125 0.190508 0.053045
0.585507 0.207955 0.046871
0.643687 0.232395 0.046223
0.720157 0.264479 0.053033
0.800500 0.298342 0.060958
0.862986 0.325342 0.066006
0.892945 0.338765 0.069894
0.009674 0.235698 0.213415
0.013249 0.240111 0.210689
0.034406 0.247557 0.198125
0.123789 0.251128 0.167229
0.208455 0.249316 0.145280
0.276875 0.247191 0.140796
0.355213 0.237054 0.142331
0.420824 0.235857 0.086356
0.483276 0.236000 0.051995
0.544519 0.238407 0.053738
0.606732 0.244764 0.058543
0.672749 0.259019 0.065295
0.752988 0.285945 0.075183
0.831534 0.316371 0.081482
0.889500 0.343011 0.089916
0.914788 0.356460 0.095420
0.016834 0.289440 0.233695
0.021381 0.293131 0.229320
0.039566 0.299512 0.217120
0.113172 0.304467 0.191487
0.199720 0.305447 0.152257
0.278534 0.303284 0.128672
0.343705 0.303225 0.121344
0.416872 0.297959 0.123346
0.491755 0.291858 0.123550
0.551243 0.300323 0.073011
0.615533 0.307388 0.069192
0.688180 0.316898 0.078914
0.775057 0.333965 0.092378
0.858743 0.352441 0.104653
0.917750 0.371046 0.121789
0.941022 0.379994 0.131452
0.030226 0.346897 0.250674
0.037165 0.350061 0.245436
0.058692 0.355339 0.233636
0.121973 0.359935 0.213616
0.196434 0.363443 0.179073
0.278156 0.363802 0.132071
0.353612 0.362683 0.108173
0.418203 0.364779 0.103561
0.488013 0.365108 0.107985
0.576724 0.353646 0.153305
0.633221 0.368859 0.133074
0.700322 0.383928 0.097663
0.784942 0.400615 0.106295
0.869574 0.415026 0.117791
0.936465 0.420675 0.125704
0.968494 0.413664 0.129685
0.053404 0.409450 0.269162
0.062358 0.412160 0.263970
0.087050 0.416363 0.254032
0.142506 0.420418 0.239524
0.205255 0.425140 0.214033
0.277095 0.429149 0.172378
0.357142 0.430420 0.123076
0.430587 0.431909 0.109227
0.495290 0.437531 0.117359
0.562235 0.443670 0.125523
0.655459 0.432759 0.163550
0.727873 0.438145 0.186350
0.798908 0.464182 0.151943
0.877224 0.482592 0.133149
0.943208 0.486448 0.137954
0.976364 0.474212 0.138442
0.080713 0.478487 0.300191
0.090515 0.480841 0.296136
0.115657 0.484383 0.289283
0.163386 0.488463 0.279783
0.218014 0.493978 0.262881
0.281411 0.500212 0.233869
0.355992 0.505170 0.190113
0.437546 0.507093 0.143658
0.511754 0.509004 0.131978
0.577780 0.513568 0.134394
0.644382 0.518199 0.136159
0.728591 0.516260 0.152420
0.836603 0.511876 0.207641
0.899129 0.537857 0.214377
0.949789 0.552187 0.178743
0.980935 0.538836 0.156492
0.110912 0.554164 0.345337
0.121603 0.556080 0.341976
0.147335 0.558828 0.336683
0.190024 0.562342 0.328628
0.240001 0.567149 0.314374
0.297421 0.572784 0.290461
0.364187 0.578050 0.253029
0.440921 0.581163 0.201442
0.522041 0.581399 0.151249
0.594886 0.582155 0.139007
0.660157 0.585433 0.139710
0.728844 0.591565 0.141291
0.813862 0.604480 0.145970
0.933945 0.589810 0.203531
0.983033 0.597950 0.254907
0.985161 0.600497 0.257339
0.153495 0.628227 0.383390
0.166813 0.629357 0.380979
0.191882 0.631106 0.376915
0.227325 0.633913 0.369486
0.270834 0.637825 0.356933
0.321652 0.642623 0.336688
0.380582 0.647638 0.305380
0.448974 0.651617 0.259803
0.526150 0.653087 0.200627
0.605491 0.652005 0.152087
0.676021 0.652060 0.144515
0.743045 0.657483 0.146562
0.822314 0.672819 0.151427
0.900577 0.686646 0.157670
0.981402 0.672687 0.243937
0.993982 0.657353 0.367239
0.208627 0.701818 0.419677
0.220300 0.702584 0.417745
0.240240 0.703995 0.413969
0.269646 0.706295 0.407184
0.307191 0.709537 0.396079
0.351970 0.713629 0.378728
0.404091 0.718208 0.352468
0.464541 0.722489 0.314110
0.534199 0.725244 0.260827
0.611154 0.725406 0.195792
0.688367 0.723382 0.158369
0.757808 0.724353 0.154869
0.833856 0.738964 0.161089
0.909874 0.753331 0.169718
0.969289 0.754080 0.181134
0.992590 0.731289 0.285615
0.265989 0.784806 0.460914
0.275237 0.785442 0.459143
0.291605 0.786628 0.455688
0.316541 0.788572 0.449569
0.349317 0.791340 0.439766
0.389173 0.794907 0.424808
0.435896 0.799080 0.402642
0.490020 0.803390 0.370637
0.552617 0.806979 0.325713
0.623802 0.808750 0.266133
0.700872 0.807964 0.202026
0.776583 0.805605 0.175384
0.845369 0.807228 0.180735
0.915200 0.820084 0.237321
0.966135 0.821871 0.299403
0.989991 0.799719 0.303150
0.309709 0.866133 0.505078
0.317510 0.866684 0.503535
0.331611 0.867721 0.500518
0.353486 0.869430 0.495227
0.382738 0.871882 0.486870
0.418754 0.875090 0.474334
0.461185 0.878965 0.456086
0.510769 0.883103 0.430589
0.570030 0.886405 0.398210
0.638584 0.887965 0.360970
0.714073 0.887088 0.327851
0.791007 0.884143 0.318781
0.861128 0.881414 0.351805
0.918559 0.883159 0.416543
0.961835 0.885096 0.470044
0.983973 0.862896 0.437331
0.354643 0.928534 0.550782
0.362595 0.928820 0.549923
0.377107 0.929339 0.548295
0.399972 0.930149 0.545578
0.431065 0.931217 0.541589
0.469803 0.932465 0.536179
0.515424 0.933763 0.529292
0.567153 0.934923 0.521119
0.624277 0.935697 0.512403
0.685767 0.935839 0.504987
0.749958 0.935270 0.502141
0.814280 0.934313 0.508306
0.875217 0.933946 0.527294
0.929149 0.935778 0.559148
0.969162 0.942413 0.600213
0.986566 0.920233 0.569662
0.434400 0.952219 0.592295
0.441300 0.952299 0.592080
0.453679 0.952445 0.591682
0.473143 0.952678 0.591022
0.499593 0.953002 0.590063
0.532471 0.953413 0.588783
0.570981 0.953901 0.587203
0.614254 0.954449 0.585432
0.661477 0.955032 0.583761
0.711758 0.955638 0.582788
0.764063 0.956311 0.583457
0.817144 0.957241 0.586959
0.869316 0.958890 0.594408
0.914521 0.963045 0.612370
0.949913 0.971108 0.641339
0.980360 0.982380 0.671121
0.000293 0.049924 0.126175
0.042182 0.016171 0.216092
0.094821 0.033966 0.215778
0.172401 0.034304 0.206716
0.232233 0.046225 0.198271
0.286566 0.058295 0.195608
0.342565 0.067659 0.185629
0.399965 0.081854 0.139838
0.457640 0.094587 0.084744
0.513558 0.110202 0.041218
0.561835 0.143933 0.028715
0.616535 0.178403 0.028467
0.689776 0.215649 0.033764
0.772858 0.251971 0.043901
0.840000 0.282305 0.050422
0.873791 0.299070 0.053907
0.001098 0.086131 0.163446
0.027773 0.079808 0.211270
0.094655 0.086651 0.207275
0.168715 0.086867 0.200895
0.227110 0.091964 0.197309
0.283658 0.097857 0.189912
0.340603 0.107608 0.157463
0.397458 0.116667 0.121231
0.456315 0.122734 0.086101
0.515464 0.130282 0.047436
0.566339 0.156507 0.033220
0.621789 0.188263 0.031840
0.695759 0.223891 0.037337
0.778677 0.259543 0.047407
0.844979 0.289182 0.053588
0.878350 0.305141 0.056158
0.002858 0.134869 0.182096
0.015356 0.138222 0.200717
0.092877 0.139453 0.198846
0.158973 0.141782 0.190979
0.220241 0.144879 0.178205
0.277238 0.148856 0.168290
0.335554 0.153137 0.148531
0.394542 0.156647 0.126944
0.455243 0.159192 0.102301
0.517481 0.162540 0.068031
0.573805 0.178709 0.043516
0.631077 0.205985 0.039336
0.706587 0.239164 0.044984
0.789004 0.273700 0.054255
0.853851 0.302032 0.059875
0.886201 0.316506 0.061487
0.006292 0.185076 0.207190
0.014758 0.188541 0.216679
0.073462 0.191765 0.215945
0.146504 0.194613 0.196568
0.223533 0.190784 0.182162
0.297859 0.186069 0.140365
0.352397 0.187889 0.137292
0.405589 0.192401 0.134514
0.462139 0.197779 0.121568
0.522909 0.203101 0.096519
0.584788 0.212006 0.066050
0.645950 0.233097 0.055412
0.723706 0.263640 0.059975
0.804732 0.296326 0.066535
0.867591 0.322517 0.070457
0.897791 0.335336 0.072970
0.012075 0.235577 0.234097
0.019096 0.239094 0.236070
0.058864 0.243843 0.232025
0.129594 0.248485 0.208740
0.209268 0.248154 0.184861
0.280119 0.244693 0.181601
0.357207 0.237560 0.155240
0.422637 0.236049 0.115811
0.483843 0.235870 0.110405
0.544445 0.239424 0.107565
0.605911 0.247438 0.100055
0.671640 0.262928 0.091271
0.751690 0.290560 0.090965
0.830543 0.320622 0.090079
0.888633 0.346858 0.095801
0.914820 0.358976 0.098567
0.021146 0.289177 0.253090
0.028910 0.292408 0.251315
0.060586 0.297180 0.244728
0.125808 0.301641 0.226559
0.201307 0.304411 0.191184
0.279167 0.302824 0.167867
0.345408 0.302254 0.161934
0.425940 0.292691 0.168403
0.488364 0.295771 0.142402
0.552892 0.300150 0.111511
0.620130 0.304462 0.112483
0.692909 0.313663 0.118633
0.778293 0.332050 0.127618
0.858762 0.354078 0.133663
0.910938 0.380039 0.154236
0.933869 0.389521 0.156136
0.037536 0.346671 0.268504
0.047801 0.349495 0.265033
0.078895 0.353514 0.257517
0.136898 0.357514 0.243108
0.201243 0.362040 0.214081
0.278786 0.363531 0.171823
0.354124 0.362658 0.150643
0.418653 0.364841 0.147326
0.490207 0.363979 0.154505
0.571023 0.358464 0.180348
0.630832 0.372344 0.150260
0.702994 0.382845 0.133288
0.788895 0.398069 0.142944
0.873916 0.411794 0.151732
0.939276 0.418664 0.159397
0.965875 0.417062 0.167591
0.063195 0.409190 0.285996
0.075181 0.411546 0.282281
0.107329 0.414644 0.275958
0.156932 0.418477 0.265010
0.212521 0.423686 0.243831
0.279162 0.428600 0.207592
0.357486 0.430549 0.164369
0.430992 0.432148 0.152637
0.495748 0.437793 0.159262
0.563938 0.443134 0.166773
0.660452 0.429575 0.207371
0.722876 0.442710 0.205742
0.797721 0.466258 0.170859
0.880537 0.480674 0.164013
0.947133 0.483737 0.167371
0.977779 0.473282 0.173727
0.091766 0.478154 0.316363
0.104430 0.480155 0.313570
0.134325 0.482884 0.309405
0.176956 0.486922 0.302003
0.226550 0.492663 0.287886
0.285528 0.499415 0.262487
0.357108 0.505019 0.223056
0.437946 0.507275 0.181351
0.512216 0.509174 0.171158
0.578216 0.513711 0.173116
0.644898 0.518281 0.174023
0.736646 0.511245 0.197399
0.832537 0.515155 0.234289
0.894438 0.542208 0.229301
0.951370 0.551951 0.193948
0.980946 0.539030 0.191967
0.123038 0.553647 0.360379
0.136405 0.555208 0.358072
0.164133 0.557447 0.354477
0.202820 0.560954 0.347697
0.249055 0.565853 0.335329
0.302942 0.571756 0.313985
0.366665 0.577484 0.279837
0.441594 0.581077 0.232533
0.522419 0.581507 0.187548
0.595417 0.582286 0.174529
0.660997 0.585460 0.172855
0.730304 0.591331 0.171047
0.821577 0.600380 0.177098
0.934535 0.589621 0.236718
0.979812 0.600970 0.269109
0.984062 0.602302 0.263481
0.168509 0.627171 0.398020
0.182397 0.628109 0.396258
0.205541 0.629823 0.392768
0.238525 0.632628 0.386250
0.279487 0.636588 0.375062
0.327715 0.641536 0.356711
0.384126 0.646846 0.327903
0.450460 0.651230 0.285635
0.526570 0.653047 0.231351
0.605842 0.652195 0.183787
0.676966 0.652203 0.170102
0.744608 0.657367 0.169395
0.824583 0.672340 0.171735
0.903586 0.685683 0.176340
0.985914 0.669690 0.276139
0.993698 0.658154 0.375121
0.221653 0.700658 0.433431
0.232591 0.701415 0.431713
0.251390 0.702816 0.428340
0.279299 0.705113 0.422234
0.315136 0.708382 0.412148
0.358061 0.712561 0.396218
0.408239 0.717323 0.371859
0.466836 0.721893 0.336014
0.535093 0.724985 0.286303
0.611399 0.725421 0.226223
0.688798 0.723709 0.180626
0.758973 0.724472 0.173154
0.835574 0.738804 0.178263
0.912021 0.752882 0.186519
0.971456 0.753452 0.199215
0.992988 0.730289 0.320195
0.276451 0.783727 0.473723
0.285295 0.784357 0.472115
0.300987 0.785536 0.468967
0.324963 0.787478 0.463368
0.356565 0.790261 0.454342
0.395078 0.793881 0.440467
0.440321 0.798169 0.419751
0.492910 0.802675 0.389648
0.554111 0.806532 0.347290
0.624322 0.808577 0.291563
0.700930 0.808108 0.228894
0.777038 0.805931 0.193095
0.846346 0.807314 0.198110
0.915621 0.820070 0.260030
0.966071 0.821951 0.320374
0.989983 0.799798 0.321705
0.318716 0.865134 0.516989
0.326250 0.865681 0.515569
0.339886 0.866714 0.512787
0.361074 0.868421 0.507891
0.389456 0.870881 0.500122
0.424448 0.874122 0.488402
0.465722 0.878070 0.471236
0.514166 0.882310 0.447194
0.572283 0.885772 0.416512
0.639825 0.887542 0.381010
0.714671 0.886854 0.349252
0.791341 0.884032 0.339615
0.861412 0.881353 0.369388
0.918762 0.883146 0.430363
0.961970 0.885132 0.481389
0.983992 0.862962 0.449257
0.363109 0.927502 0.561614
0.370857 0.927783 0.560833
0.385010 0.928294 0.559349
0.407333 0.929094 0.556862
0.437726 0.930159 0.553189
0.475635 0.931420 0.548165
0.520323 0.932761 0.541699
0.571050 0.934007 0.533911
0.627158 0.934920 0.525426
0.687712 0.935246 0.517920
0.751150 0.934880 0.514495
0.814984 0.934105 0.519526
0.875692 0.933868 0.536986
0.929515 0.935787 0.567349
0.969258 0.942536 0.607530
0.986707 0.920321 0.577133
0.441071 0.951236 0.601286
0.447834 0.951316 0.601104
0.459972 0.951462 0.600763
0.479068 0.951698 0.600191
0.505036 0.952032 0.599348
0.537336 0.952467 0.598200
0.575192 0.953001 0.596743
0.617752 0.953623 0.595053
0.664235 0.954316 0.593364
0.713792 0.955067 0.592206
0.765449 0.955910 0.592463
0.818022 0.957012 0.595297
0.869825 0.958817 0.601930
0.914665 0.963125 0.619229
0.949937 0.971261 0.647447
0.980440 0.982513 0.676843
0.000379 0.064961 0.150321
0.047143 0.010868 0.264056
0.093886 0.030061 0.264235
0.153985 0.044269 0.264394
0.227590 0.039719 0.257924
0.286565 0.048969 0.249519
0.342286 0.059157 0.242809
0.399579 0.065718 0.234754
0.458994 0.069190 0.225017
0.521988 0.075797 0.188146
0.584478 0.094013 0.116458
0.640063 0.138875 0.058260
0.707092 0.194822 0.042816
0.787195 0.237041 0.051249
0.853008 0.269044 0.056816
0.885430 0.287401 0.059252
0.001035 0.095607 0.185933
0.023626 0.075386 0.263603
0.098211 0.079764 0.261050
0.151640 0.091328 0.258259
0.224323 0.087020 0.254537
0.283696 0.091082 0.247236
0.340741 0.095863 0.240582
0.399046 0.099122 0.232543
0.460015 0.102041 0.213256
0.522778 0.109847 0.163401
0.584100 0.126530 0.092363
0.641253 0.161563 0.050679
0.711029 0.207517 0.046191
0.792734 0.245315 0.055386
0.857750 0.276475 0.060528
0.889831 0.293846 0.061845
0.002967 0.136559 0.219903
0.010158 0.139231 0.240492
0.090220 0.135863 0.253380
0.149612 0.140068 0.252725
0.219570 0.137834 0.249219
0.279807 0.139328 0.243175
0.339005 0.141331 0.234081
0.399218 0.144384 0.213605
0.460195 0.149960 0.176206
0.522571 0.156970 0.127337
0.585291 0.166522 0.078533
0.645521 0.191048 0.053404
0.720852 0.225232 0.055832
0.802445 0.260828 0.063646
0.866166 0.290321 0.067774
0.897381 0.305895 0.067718
0.005852 0.187015 0.232939
0.012203 0.189933 0.244907
0.076520 0.191189 0.250208
0.149166 0.191736 0.245980
0.214565 0.192678 0.236185
0.276615 0.194502 0.220691
0.335806 0.196977 0.207694
0.397226 0.199748 0.184722
0.459063 0.203365 0.157533
0.522432 0.207270 0.130455
0.587651 0.212759 0.101668
0.655487 0.226047 0.077721
0.735293 0.254215 0.076011
0.816476 0.286300 0.078834
0.878918 0.312590 0.079742
0.908495 0.325779 0.079225
0.011767 0.237771 0.251299
0.020480 0.240523 0.257096
0.078967 0.241874 0.260950
0.144305 0.243775 0.255648
0.210807 0.246248 0.234323
0.284276 0.242833 0.222478
0.354787 0.240635 0.189049
0.413241 0.242458 0.182387
0.470778 0.247209 0.175169
0.531046 0.253917 0.160902
0.594685 0.262297 0.142269
0.664180 0.275303 0.126430
0.749170 0.298050 0.117439
0.832761 0.322602 0.105978
0.893488 0.345382 0.104422
0.921339 0.355130 0.102030
0.025586 0.289949 0.274305
0.040559 0.292306 0.275660
0.092578 0.293992 0.274695
0.147376 0.297115 0.267302
0.205690 0.302256 0.241279
0.280056 0.302193 0.216199
0.349028 0.300184 0.212570
0.424048 0.295202 0.202544
0.487200 0.298644 0.175888
0.551879 0.301716 0.174236
0.617324 0.308182 0.175007
0.686772 0.321441 0.176873
0.769476 0.343596 0.176179
0.848604 0.367944 0.171883
0.900513 0.394118 0.182845
0.928352 0.398689 0.170911
0.050016 0.346698 0.291193
0.068676 0.348585 0.290033
0.111438 0.350412 0.287189
0.159406 0.353832 0.279457
0.211352 0.359325 0.259385
0.280020 0.362998 0.222159
0.354901 0.362679 0.201273
0.420254 0.364508 0.199283
0.501733 0.357916 0.212711
0.563901 0.365247 0.209590
0.629705 0.375087 0.189116
0.702867 0.383787 0.193506
0.788535 0.399161 0.202860
0.870107 0.416070 0.213744
0.926141 0.432017 0.227227
0.949536 0.434501 0.225451
0.082194 0.408636 0.309219
0.102115 0.409975 0.307713
0.136471 0.411943 0.304879
0.178203 0.415563 0.298236
0.225467 0.421152 0.283465
0.283537 0.427453 0.254359
