entry/src/main/resources/rawfile/filters/Postcard.cube
TITLE "Postcard - Original look 1.0 (Standard/sRGB base)"
LUT_3D_SIZE 6
0.000001 0.000000 0.000007
0.140674 0.002388 0.007695
0.310154 0.007420 0.006499
0.464108 0.065883 0.012789
0.659040 0.160348 0.045328
0.850449 0.279606 0.159933
0.001652 0.144021 0.052502
0.117299 0.159895 0.006574
0.327062 0.162114 0.010507
0.514273 0.176174 0.019772
0.699428 0.223158 0.064877
0.877376 0.327638 0.182547
0.013432 0.319521 0.063192
0.051945 0.339024 0.020538
0.335860 0.351983 0.020834
0.549900 0.365281 0.042911
0.776348 0.402272 0.084634
0.966706 0.472421 0.241521
0.146185 0.540496 0.093497
0.183597 0.550768 0.103196
0.287625 0.577703 0.123401
0.563145 0.582327 0.072514
0.798725 0.585065 0.088287
0.980979 0.614135 0.158362
0.361080 0.759433 0.270110
0.378829 0.764782 0.273657
0.426877 0.779268 0.283483
0.532374 0.795899 0.266797
0.777875 0.789221 0.151646
0.996070 0.808176 0.356556
0.544051 0.956388 0.428078
0.556416 0.962728 0.433942
0.592382 0.980385 0.452241
0.683118 0.996486 0.534391
0.812854 0.998679 0.639093
0.972275 0.999449 0.656047
0.000069 0.017787 0.075205
0.134294 0.002657 0.169987
0.308657 0.008865 0.173804
0.478921 0.026288 0.135116
0.684079 0.116095 0.124690
0.858781 0.274460 0.215547
0.001955 0.144961 0.165299
0.127666 0.155204 0.182454
0.355783 0.138749 0.147027
0.544393 0.090227 0.071807
0.713313 0.191085 0.118924
0.883944 0.319341 0.224211
0.021684 0.331013 0.135227
0.106099 0.352905 0.124550
0.361454 0.369262 0.114323
0.580663 0.375793 0.164197
0.795284 0.390626 0.185518
0.962969 0.453592 0.278423
0.136826 0.545147 0.136388
0.185243 0.554419 0.146138
0.286910 0.581512 0.173326
0.577067 0.590570 0.117914
0.818777 0.589231 0.141936
0.990478 0.633190 0.298948
0.362212 0.761395 0.289510
0.380972 0.766498 0.292494
0.429947 0.780505 0.302202
0.529648 0.797787 0.294366
0.782947 0.790339 0.164866
0.996558 0.809540 0.400227
0.545215 0.958720 0.439648
0.557933 0.964955 0.445283
0.594764 0.982163 0.463532
0.687494 0.996690 0.549615
0.814177 0.998755 0.654671
0.974313 0.999422 0.667194
0.000342 0.072658 0.195442
0.132502 0.005048 0.314964
0.309204 0.014067 0.345007
0.478035 0.041869 0.335973
0.681185 0.138270 0.337431
0.868083 0.275570 0.365677
0.002107 0.157702 0.295504
0.116351 0.142040 0.392375
0.334398 0.144643 0.367378
0.528713 0.129397 0.344729
0.717749 0.194608 0.331019
0.897520 0.315476 0.362640
0.020778 0.349528 0.366959
0.112482 0.368358 0.388344
0.374516 0.374949 0.375006
0.613748 0.368073 0.347528
0.801008 0.343506 0.302839
0.965421 0.420701 0.346332
0.105729 0.558807 0.304170
0.214280 0.569063 0.311375
0.379863 0.599693 0.357778
0.624751 0.626687 0.370174
0.848361 0.631005 0.404849
0.993352 0.647925 0.476867
0.353417 0.768398 0.351256
0.378366 0.772493 0.350889
0.437846 0.784156 0.354802
0.525987 0.802938 0.364480
0.799766 0.798279 0.288980
0.997234 0.816863 0.508464
0.545739 0.966007 0.476074
0.560195 0.971758 0.480771
0.601287 0.987300 0.497710
0.700340 0.997153 0.590779
0.818786 0.998834 0.698056
0.979783 0.999369 0.701446
0.001182 0.131080 0.310558
0.120470 0.025399 0.488909
0.304351 0.038080 0.490365
0.482402 0.093129 0.491671
0.668453 0.192802 0.515058
0.856800 0.310630 0.560279
0.003560 0.193284 0.409345
0.098205 0.133381 0.558948
0.322979 0.122352 0.533916
0.516812 0.166915 0.520732
0.698965 0.239837 0.534155
0.886013 0.344142 0.567779
0.024263 0.327523 0.557361
0.101776 0.342655 0.596761
0.361898 0.373143 0.591760
0.583362 0.377106 0.583773
0.776343 0.376584 0.576968
0.962959 0.428591 0.562649
0.083030 0.577297 0.609819
0.143369 0.596322 0.629905
0.394271 0.624055 0.643543
0.641939 0.635894 0.623096
0.888510 0.627155 0.583812
0.993105 0.596069 0.536410
0.219906 0.788299 0.513937
0.288997 0.791029 0.509051
0.457826 0.800793 0.516511
0.623283 0.827704 0.554963
0.844182 0.835771 0.559997
0.997697 0.837893 0.674402
0.524363 0.981594 0.559387
0.545028 0.986027 0.561244
0.613160 0.994201 0.581972
0.720601 0.997680 0.657831
0.830917 0.998360 0.765609
0.987697 0.999296 0.767910
0.003615 0.196792 0.442245
0.082129 0.113431 0.613233
0.301884 0.115504 0.611216
0.485061 0.176033 0.625870
0.665640 0.253761 0.658843
0.854246 0.356425 0.706997
0.006407 0.229221 0.502544
0.075901 0.185672 0.640923
0.320838 0.192213 0.650723
0.509096 0.230049 0.661524
0.691880 0.294721 0.686806
0.878667 0.386141 0.722156
0.035136 0.350708 0.680810
0.083105 0.352581 0.729208
0.328127 0.354647 0.755655
0.560348 0.362425 0.755382
0.760777 0.402557 0.757603
0.938884 0.461745 0.751957
0.099336 0.548915 0.839134
0.183830 0.557424 0.855292
0.373718 0.595750 0.852179
0.629476 0.635495 0.844724
0.848146 0.628587 0.818014
0.989117 0.602478 0.767608
0.153578 0.792210 0.816426
0.210574 0.803164 0.825265
0.411957 0.825290 0.838402
0.631532 0.847470 0.845973
0.848529 0.835836 0.810183
0.998663 0.843322 0.814567
0.476504 0.996150 0.766000
0.517325 0.996748 0.767921
0.618174 0.997097 0.773957
0.739020 0.995724 0.789268
0.859252 0.995805 0.843465
0.995519 0.999551 0.867495
0.008748 0.252337 0.565019
0.060605 0.214759 0.700668
0.305037 0.223967 0.725648
0.492327 0.259541 0.750940
0.671221 0.325928 0.792758
0.855396 0.412805 0.834583
0.017937 0.284728 0.653940
0.097055 0.269013 0.735565
0.319068 0.275687 0.762197
0.510503 0.301509 0.784995
0.692863 0.361531 0.822649
0.874492 0.438053 0.851162
0.066893 0.393036 0.804192
0.143265 0.396455 0.829419
0.335170 0.404007 0.859051
0.556027 0.416606 0.879703
0.747493 0.456237 0.894347
0.918675 0.501829 0.889269
0.197932 0.570761 0.960376
0.237942 0.578933 0.965542
0.352623 0.597799 0.975950
0.578196 0.601721 0.982856
0.798859 0.592109 0.972618
0.979564 0.605804 0.946467
0.352826 0.757777 0.992296
0.389904 0.759057 0.992996
0.491794 0.768478 0.993839
0.645126 0.808888 0.995446
0.834188 0.835240 0.996433
0.998005 0.846445 0.972581
0.564610 0.981582 0.998251
0.592012 0.982081 0.998239
0.661237 0.982505 0.998208
0.768846 0.982388 0.998515
0.883057 0.988161 0.999185
1.000000 1.000000 1.000000
