entry/src/main/resources/rawfile/filters/Postcard.cube
TITLE "Postcard - Original look 1.0 (Standard/sRGB base)"
LUT_3D_SIZE 16
0.000001 0.000000 0.000007
0.029641 0.001085 0.004417
0.082176 0.001713 0.006608
0.140674 0.002388 0.007695
0.196583 0.003032 0.007176
0.249482 0.004796 0.007709
0.310154 0.007420 0.006499
0.372176 0.019680 0.006712
0.421261 0.042692 0.009817
0.464108 0.065883 0.012789
0.526008 0.098227 0.018988
0.591710 0.130156 0.028786
0.659040 0.160348 0.045328
0.725921 0.190887 0.070816
0.789796 0.229720 0.109002
0.850449 0.279606 0.159933
0.000214 0.034124 0.015943
0.015811 0.044089 0.012623
0.082405 0.043604 0.010975
0.146487 0.041635 0.001809
0.200485 0.037817 0.002830
0.258587 0.034168 0.004756
0.318740 0.038735 0.006717
0.378127 0.053784 0.007748
0.423154 0.068489 0.009865
0.469290 0.087067 0.013336
0.532164 0.115359 0.019847
0.597483 0.144011 0.029995
0.664395 0.171907 0.047108
0.730661 0.200981 0.072854
0.794349 0.238999 0.111707
0.854803 0.287621 0.162601
0.000740 0.090906 0.033454
0.001485 0.099982 0.032777
0.060241 0.103001 0.004418
0.142505 0.095292 0.005099
0.199751 0.095576 0.004643
0.258454 0.098811 0.004978
0.320692 0.102326 0.007388
0.382775 0.105456 0.010521
0.431925 0.108223 0.011177
0.485744 0.121123 0.015015
0.547241 0.142720 0.022570
0.610885 0.166693 0.033861
0.676046 0.191454 0.052169
0.740479 0.218866 0.078366
0.803004 0.256141 0.118653
0.862891 0.302388 0.168534
0.001652 0.144021 0.052502
0.002237 0.150194 0.052459
0.009957 0.161087 0.036706
0.117299 0.159895 0.006574
0.204228 0.154552 0.007253
0.265324 0.157658 0.010716
0.327062 0.162114 0.010507
0.389122 0.166509 0.012729
0.450986 0.170683 0.016424
0.514273 0.176174 0.019772
0.576573 0.186881 0.028292
0.638039 0.203157 0.044005
0.699428 0.223158 0.064877
0.759959 0.248840 0.093355
0.818951 0.285570 0.136385
0.877376 0.327638 0.182547
0.003806 0.205320 0.072351
0.004681 0.210516 0.070588
0.007247 0.219849 0.063833
0.052577 0.230672 0.022661
0.188451 0.223646 0.010239
0.273803 0.217587 0.010207
0.334364 0.220612 0.015063
0.396271 0.227199 0.018507
0.465808 0.235703 0.022924
0.533412 0.242316 0.029847
0.602734 0.248931 0.036208
0.670646 0.258846 0.053742
0.732430 0.273314 0.081398
0.790025 0.296747 0.119275
0.845151 0.329895 0.164750
0.901081 0.365670 0.205134
0.007185 0.265186 0.074955
0.008330 0.268477 0.070799
0.011381 0.274787 0.061726
0.030837 0.284978 0.033373
0.144412 0.288424 0.019370
0.258625 0.283346 0.013848
0.344472 0.280593 0.014182
0.410827 0.286522 0.020073
0.471904 0.295969 0.028375
0.543362 0.306827 0.038519
0.617234 0.316473 0.049139
0.687326 0.322976 0.057832
0.758247 0.335188 0.084453
0.824054 0.356843 0.132360
0.880804 0.386473 0.187075
0.934552 0.416618 0.229608
0.013432 0.319521 0.063192
0.014721 0.323056 0.054635
0.017895 0.329631 0.035571
0.051945 0.339024 0.020538
0.129357 0.349003 0.025417
0.231647 0.354330 0.025470
0.335860 0.351983 0.020834
0.421264 0.350251 0.021664
0.489876 0.355634 0.029687
0.549900 0.365281 0.042911
0.614870 0.374925 0.055402
0.697669 0.390053 0.068608
0.776348 0.402272 0.084634
0.847856 0.418453 0.125079
0.909630 0.444229 0.187498
0.966706 0.472421 0.241521
0.040370 0.392925 0.028764
0.055641 0.395192 0.028617
0.078726 0.399277 0.029180
0.109728 0.405725 0.031265
0.148979 0.414285 0.033638
0.213703 0.422226 0.036408
0.308755 0.426145 0.036892
0.409240 0.423971 0.032686
0.495078 0.421636 0.033978
0.566695 0.425629 0.044151
0.629966 0.435734 0.059481
0.692751 0.446489 0.073352
0.775604 0.463265 0.087268
0.865884 0.485297 0.118205
0.932453 0.503546 0.173101
0.981417 0.529470 0.248167
0.103963 0.465743 0.051570
0.112340 0.467705 0.052694
0.126299 0.471301 0.054843
0.146815 0.477084 0.058460
0.174404 0.485003 0.063460
0.214473 0.494065 0.067397
0.283096 0.500671 0.062641
0.379759 0.501687 0.053772
0.481834 0.498807 0.047700
0.571887 0.497426 0.049442
0.648900 0.501313 0.059606
0.715575 0.510580 0.074237
0.777648 0.521412 0.087516
0.847230 0.534114 0.102111
0.935810 0.557963 0.143837
0.987241 0.588788 0.260222
0.146185 0.540496 0.093497
0.153133 0.542260 0.095056
0.165208 0.545500 0.098043
0.183597 0.550768 0.103196
0.208380 0.558181 0.110843
0.240581 0.567593 0.120098
0.287625 0.577703 0.123401
0.360815 0.585215 0.109437
0.459789 0.586153 0.086066
0.563145 0.582327 0.072514
0.655126 0.579139 0.070434
0.733155 0.579790 0.076928
0.798725 0.585065 0.088287
0.856507 0.592537 0.101291
0.911630 0.599141 0.115857
0.980979 0.614135 0.158362
0.214615 0.617689 0.164504
0.220191 0.619250 0.166305
0.230080 0.622111 0.169629
0.245431 0.626753 0.175039
0.266196 0.633305 0.182532
0.292655 0.641730 0.191235
0.326529 0.651644 0.198443
0.375946 0.661377 0.193840
0.448306 0.668086 0.163054
0.544868 0.667277 0.122626
0.644779 0.660995 0.100544
0.733034 0.654313 0.093853
0.806806 0.650045 0.096983
0.867365 0.649573 0.106013
0.919335 0.652220 0.118618
0.970358 0.657828 0.135625
0.291268 0.692719 0.227058
0.295497 0.694005 0.228045
0.303101 0.696352 0.229866
0.315121 0.700142 0.232834
0.331654 0.705458 0.236983
0.352762 0.712263 0.242051
0.378867 0.720334 0.247140
0.412808 0.728921 0.248609
0.462318 0.736039 0.236351
0.531764 0.739161 0.198709
0.620777 0.734951 0.149370
0.712810 0.725317 0.123094
0.795025 0.715333 0.113911
0.866652 0.709365 0.116279
0.932000 0.711600 0.128223
0.990469 0.724143 0.183244
0.361080 0.759433 0.270110
0.364201 0.760362 0.270705
0.369844 0.762056 0.271815
0.378829 0.764782 0.273657
0.391282 0.768597 0.276310
0.407240 0.773472 0.279712
0.426877 0.779268 0.283483
0.450935 0.785710 0.286560
0.484091 0.791814 0.283716
0.532374 0.795899 0.266797
0.599301 0.796831 0.227821
0.685139 0.793677 0.177552
0.777875 0.789221 0.151646
0.867432 0.787605 0.145707
0.950717 0.790682 0.153728
0.996070 0.808176 0.356556
0.415328 0.814384 0.305297
0.417677 0.815056 0.305754
0.421945 0.816287 0.306614
0.428791 0.818282 0.308059
0.438417 0.821151 0.310236
0.451187 0.825191 0.313444
0.467490 0.830633 0.317839
0.487927 0.837624 0.323287
0.514413 0.846310 0.328775
0.552840 0.856090 0.329188
0.607444 0.865768 0.319193
0.680459 0.873781 0.293105
0.770422 0.878416 0.250915
0.867011 0.880000 0.214819
0.959209 0.879893 0.207538
0.998023 0.886903 0.485747
0.470765 0.874752 0.353565
0.473072 0.875773 0.354513
0.477302 0.877666 0.356283
0.484187 0.880800 0.359251
0.494009 0.885371 0.363639
0.506993 0.891554 0.369643
0.523380 0.899490 0.377364
0.543537 0.909247 0.386660
0.568170 0.920787 0.396988
0.599865 0.933546 0.405723
0.643126 0.946191 0.407993
0.701061 0.956575 0.401841
0.774077 0.962254 0.386238
0.855847 0.961521 0.371142
0.934841 0.955363 0.372690
0.997135 0.948198 0.473356
0.544051 0.956388 0.428078
0.546185 0.957476 0.429077
0.550088 0.959474 0.430920
0.556416 0.962728 0.433942
0.565384 0.967344 0.438290
0.577283 0.973279 0.444287
0.592382 0.980385 0.452241
0.610879 0.988381 0.462261
0.641403 0.994129 0.489070
0.683118 0.996486 0.534391
0.725578 0.997639 0.579057
0.767457 0.998251 0.612753
0.812854 0.998679 0.639093
0.862435 0.999019 0.655856
0.916290 0.999224 0.660264
0.972275 0.999449 0.656047
0.000007 0.002881 0.013202
0.025302 0.000496 0.054481
0.077352 0.001619 0.063246
0.139801 0.002113 0.057730
0.196627 0.002598 0.048281
0.250481 0.004181 0.043834
0.311471 0.006690 0.041162
0.375863 0.012074 0.037543
0.428540 0.019397 0.029403
0.475691 0.030747 0.019254
0.536934 0.073130 0.023003
0.600833 0.112927 0.033901
0.666520 0.147809 0.052051
0.731228 0.182982 0.079985
0.791783 0.227884 0.122132
0.852058 0.278528 0.169972
0.000278 0.034703 0.050408
0.018838 0.040479 0.067069
0.085800 0.039994 0.062432
0.157741 0.028064 0.047520
0.217077 0.013991 0.034245
0.271085 0.012550 0.030941
0.330214 0.014403 0.027502
0.391539 0.018586 0.019321
0.435961 0.031410 0.014924
0.480949 0.059102 0.016675
0.542271 0.095679 0.023532
0.606129 0.129246 0.034859
0.671590 0.160658 0.053576
0.735811 0.193722 0.081801
0.796332 0.237242 0.124479
0.856434 0.286541 0.172387
0.000967 0.091882 0.060637
0.003170 0.100054 0.064106
0.061819 0.101487 0.060408
0.142761 0.094338 0.051462
0.211499 0.086887 0.030125
0.274408 0.082539 0.029947
0.339195 0.077651 0.026682
0.398450 0.076210 0.018789
0.439919 0.081563 0.013700
0.491768 0.101617 0.017435
0.552734 0.128170 0.025155
0.616116 0.155173 0.037328
0.680873 0.182207 0.057002
0.744199 0.212534 0.085695
0.804528 0.254016 0.129281
0.864272 0.300985 0.177039
0.001986 0.144982 0.070372
0.002927 0.151125 0.070451
0.011997 0.161166 0.069792
0.117812 0.160183 0.043630
0.206150 0.154452 0.041227
0.274032 0.153001 0.031149
0.340584 0.152887 0.021264
0.403351 0.153896 0.022983
0.461680 0.154052 0.024136
0.519485 0.158734 0.024096
0.578566 0.172452 0.031202
0.638954 0.192014 0.046589
0.700164 0.214481 0.067891
0.760342 0.242788 0.098127
0.818823 0.281980 0.142270
0.877527 0.324926 0.187546
0.004366 0.206319 0.086163
0.005514 0.211500 0.084300
0.008966 0.220636 0.080627
0.054939 0.231037 0.061056
0.189518 0.224991 0.023638
0.280807 0.217453 0.020509
0.344120 0.219714 0.027854
0.409628 0.224064 0.028653
0.477606 0.229159 0.033006
0.544329 0.233858 0.040482
0.611330 0.238278 0.044612
0.675008 0.247674 0.060491
0.732750 0.264332 0.088970
0.787942 0.290842 0.127106
0.843260 0.324983 0.169366
0.899635 0.361557 0.208217
0.008246 0.266337 0.087921
0.009805 0.269966 0.083993
0.013725 0.276679 0.075864
0.032979 0.287527 0.055818
0.141318 0.293007 0.037028
0.263692 0.287035 0.019732
0.353350 0.282519 0.019246
0.419766 0.287592 0.027906
0.482575 0.295707 0.038633
0.555152 0.304883 0.050813
0.625785 0.311544 0.061171
0.695592 0.316573 0.067746
0.764446 0.328915 0.095418
0.824705 0.353195 0.147733
0.879280 0.382433 0.196558
0.932603 0.412265 0.234461
0.013687 0.320488 0.073382
0.015338 0.324154 0.065818
0.019724 0.331148 0.049991
0.046366 0.342290 0.029533
0.126124 0.353345 0.037683
0.231297 0.358978 0.035404
0.340882 0.355382 0.025881
0.428854 0.352304 0.026329
0.497600 0.357211 0.037146
0.557819 0.366092 0.053248
0.625752 0.375477 0.067663
0.706935 0.388629 0.081415
0.782795 0.398006 0.094309
0.852066 0.415461 0.138974
0.911557 0.442706 0.201683
0.967658 0.470460 0.251461
0.034583 0.394084 0.039045
0.044673 0.396772 0.032276
0.070499 0.400854 0.031815
0.104096 0.407275 0.033596
0.145057 0.416062 0.038339
0.210886 0.425329 0.046553
0.309102 0.430110 0.047032
0.413365 0.426892 0.038676
0.501277 0.423509 0.039511
0.573267 0.427196 0.051543
0.636363 0.437043 0.069267
0.700245 0.447322 0.084862
0.785742 0.464276 0.099554
0.872044 0.483145 0.128010
0.934764 0.502118 0.187411
0.982132 0.529078 0.261216
0.096803 0.467128 0.055162
0.106142 0.469050 0.056318
0.121391 0.472580 0.058554
0.143224 0.478282 0.062378
0.171685 0.486139 0.067777
0.210924 0.495389 0.071502
0.279745 0.502355 0.068747
0.379438 0.503939 0.061256
0.485068 0.500985 0.054341
0.576921 0.499024 0.055826
0.654399 0.502726 0.067491
0.720742 0.511831 0.083872
0.782252 0.521669 0.096698
0.854756 0.534397 0.109959
0.943283 0.558251 0.154909
0.987725 0.588773 0.273528
0.143381 0.541458 0.099020
0.150800 0.543188 0.100660
0.163592 0.546369 0.103825
0.182835 0.551551 0.109324
0.208322 0.558871 0.117502
0.240889 0.568202 0.127653
0.286706 0.578482 0.132066
0.358615 0.586397 0.115385
0.459035 0.587246 0.089868
0.564690 0.582872 0.075454
0.657946 0.579119 0.073145
0.736315 0.579495 0.080149
0.801734 0.584646 0.092098
0.859393 0.591796 0.105336
0.915670 0.598193 0.119601
0.983426 0.617034 0.185447
0.215202 0.618218 0.170698
0.220859 0.619768 0.172424
0.230870 0.622608 0.175624
0.246361 0.627222 0.180875
0.267219 0.633743 0.188228
0.293652 0.642141 0.196891
0.327125 0.652073 0.204486
0.375641 0.661914 0.201172
0.447492 0.668756 0.171233
0.544497 0.667988 0.126163
0.645903 0.661197 0.101946
0.735091 0.653996 0.094843
0.809143 0.649421 0.098120
0.869635 0.648831 0.107438
0.921582 0.651363 0.120299
0.972824 0.656815 0.137946
0.291732 0.693161 0.231333
0.296007 0.694437 0.232290
0.303686 0.696768 0.234062
0.315800 0.700534 0.236968
0.332415 0.705821 0.241070
0.353545 0.712595 0.246146
0.379572 0.720643 0.251352
0.412984 0.729272 0.253445
0.461895 0.736461 0.242199
0.531189 0.739615 0.205592
0.620588 0.735401 0.153130
0.713700 0.725400 0.124936
0.796663 0.715037 0.115297
0.868617 0.708876 0.117801
0.934021 0.711095 0.130171
0.991145 0.724165 0.193590
0.361358 0.759760 0.273424
0.364508 0.760682 0.274003
0.370198 0.762363 0.275086
0.379248 0.765071 0.276895
0.391765 0.768862 0.279520
0.407763 0.773711 0.282924
0.427386 0.779484 0.286755
0.451318 0.785920 0.290024
0.483967 0.792084 0.287834
0.531883 0.796230 0.271681
0.598834 0.797214 0.233422
0.685132 0.794071 0.181367
0.778755 0.789410 0.153692
0.868989 0.787522 0.147352
0.952574 0.790410 0.155583
0.996163 0.808400 0.364564
0.415459 0.814629 0.307979
0.417829 0.815297 0.308426
0.422131 0.816520 0.309269
0.429025 0.818502 0.310692
0.438719 0.821367 0.312860
0.451558 0.825412 0.316083
0.467904 0.830864 0.320528
0.488337 0.837869 0.326081
0.514639 0.846614 0.331890
0.552720 0.856485 0.332837
0.607130 0.866234 0.323344
0.680239 0.874259 0.297688
0.770625 0.878813 0.255264
0.867829 0.880204 0.217909
0.960500 0.879829 0.210084
0.998069 0.886946 0.491922
0.470971 0.875122 0.355920
0.473295 0.876141 0.356861
0.477554 0.878032 0.358621
0.484483 0.881164 0.361574
0.494357 0.885731 0.365946
0.507393 0.891911 0.371941
0.523820 0.899843 0.379669
0.543989 0.909598 0.388997
0.568589 0.921139 0.399401
0.600021 0.933934 0.408430
0.643009 0.946613 0.411042
0.700827 0.956986 0.405210
0.773924 0.962596 0.389786
0.855944 0.961716 0.374704
0.935299 0.955393 0.375599
0.997224 0.948062 0.480457
0.544274 0.956784 0.430038
0.546418 0.957869 0.431031
0.550339 0.959861 0.432863
0.556693 0.963107 0.435868
0.565696 0.967707 0.440201
0.577644 0.973617 0.446202
0.592787 0.980692 0.454168
0.611313 0.988650 0.464216
0.642254 0.994219 0.491719
0.683857 0.996523 0.537067
0.726037 0.997659 0.581702
0.767750 0.998266 0.615425
0.813079 0.998691 0.641794
0.862645 0.999028 0.658470
0.916558 0.999219 0.662667
0.972630 0.999443 0.657944
0.000028 0.008321 0.039090
0.025350 0.000754 0.097471
0.075802 0.001560 0.111287
0.135345 0.002549 0.120289
0.191605 0.003349 0.116938
0.248649 0.004777 0.108683
0.311715 0.006816 0.101197
0.376982 0.011510 0.094590
0.428782 0.018158 0.084174
0.477734 0.026902 0.071938
0.546501 0.046923 0.060160
0.615049 0.079105 0.054142
0.678087 0.125750 0.071553
0.737107 0.174573 0.104842
0.794766 0.225490 0.145215
0.854821 0.276761 0.187691
0.000269 0.037661 0.088080
0.017399 0.035300 0.128821
0.082837 0.035606 0.130030
0.148392 0.028710 0.127789
0.211552 0.015594 0.113214
0.270854 0.011322 0.099750
0.331581 0.012748 0.090300
0.393139 0.015629 0.079919
0.438762 0.022000 0.068620
0.490211 0.033035 0.056577
0.557350 0.057717 0.045738
0.621016 0.098317 0.051319
0.683060 0.140713 0.071700
0.741708 0.185817 0.105736
0.799390 0.234860 0.146878
0.859247 0.284760 0.189656
0.000882 0.091467 0.109685
0.005576 0.096714 0.123927
0.068804 0.096856 0.124309
0.142716 0.091420 0.117255
0.214083 0.082394 0.103607
0.282593 0.071776 0.091526
0.349726 0.060635 0.078019
0.410157 0.046469 0.058518
0.455106 0.037217 0.036410
0.509448 0.059930 0.031576
0.569213 0.095384 0.036866
0.630223 0.130797 0.050439
0.691681 0.165626 0.073359
0.749923 0.205516 0.108148
0.807673 0.251619 0.150394
0.867152 0.299163 0.193495
0.002166 0.145404 0.110178
0.003952 0.151524 0.110061
0.028349 0.159129 0.114849
0.119560 0.158824 0.116714
0.204243 0.154735 0.109947
0.277446 0.151341 0.093203
0.345508 0.148934 0.089320
0.409467 0.141449 0.077712
0.468364 0.126798 0.050303
0.526832 0.128353 0.031411
0.584827 0.149101 0.037985
0.644965 0.173816 0.054270
0.705319 0.201074 0.078708
0.762937 0.235896 0.114510
0.820700 0.278026 0.157496
0.879508 0.321985 0.200282
0.005114 0.207658 0.114584
0.007025 0.212878 0.111652
0.015149 0.221606 0.108801
0.074343 0.229366 0.114623
0.192391 0.225146 0.094909
0.282547 0.219596 0.087985
0.350410 0.221174 0.088905
0.420124 0.222594 0.084832
0.488394 0.222561 0.081895
0.554563 0.220664 0.075355
0.618158 0.218541 0.062821
0.676759 0.228547 0.071768
0.730758 0.250678 0.100893
0.785051 0.281336 0.137487
0.841325 0.317353 0.176736
0.898466 0.355470 0.214431
0.010107 0.268904 0.111921
0.012472 0.272918 0.107274
0.019561 0.280239 0.099595
0.056645 0.290375 0.095837
0.151721 0.297039 0.099157
0.272109 0.292503 0.055141
0.366584 0.285812 0.046595
0.432030 0.290030 0.065249
0.497546 0.296292 0.080043
0.568604 0.301964 0.090276
0.636289 0.305457 0.097988
0.706427 0.306444 0.095620
0.769516 0.319029 0.121204
0.822158 0.345422 0.169572
0.875483 0.374071 0.208450
0.928969 0.404182 0.240476
0.015725 0.323364 0.094912
0.018802 0.327679 0.088536
0.027549 0.335743 0.076629
0.060437 0.347568 0.064037
0.136409 0.358571 0.081694
0.234184 0.366052 0.075348
0.349779 0.361407 0.042905
0.442339 0.355918 0.041249
0.510392 0.360188 0.060323
0.570810 0.368117 0.083625
0.641975 0.377392 0.102990
0.717278 0.386387 0.116585
0.791854 0.392177 0.122001
0.857239 0.411674 0.168451
0.914274 0.439359 0.224264
0.967309 0.465236 0.265497
0.034794 0.395529 0.066040
0.038406 0.398650 0.055059
0.054094 0.403749 0.040399
0.095075 0.410378 0.042928
0.144370 0.419942 0.058347
0.212380 0.431018 0.080935
0.310382 0.436996 0.074876
0.421007 0.432421 0.053782
0.512765 0.427077 0.052987
0.584903 0.430340 0.069828
0.647001 0.439884 0.094647
0.713457 0.450145 0.115563
0.800267 0.467101 0.134062
0.879502 0.479649 0.153207
0.938884 0.499547 0.211668
0.983294 0.528459 0.283640
0.081951 0.469638 0.064039
0.092890 0.471542 0.064319
0.111533 0.474918 0.066681
0.136613 0.480427 0.070770
0.166716 0.488201 0.075850
0.206544 0.497587 0.083079
0.276875 0.505759 0.091571
0.380788 0.509508 0.085852
0.491720 0.505786 0.069729
0.586588 0.502367 0.069321
0.664454 0.505625 0.084314
0.729915 0.514739 0.106088
0.790870 0.523340 0.120588
0.869267 0.536486 0.131890
0.953786 0.558877 0.180826
0.988489 0.588635 0.295933
0.139313 0.543062 0.111200
0.147658 0.544726 0.112924
0.161841 0.547790 0.116295
0.182748 0.552795 0.122288
0.209699 0.559899 0.131439
0.242830 0.569073 0.142771
0.285916 0.579729 0.148097
0.355320 0.588405 0.130264
0.458158 0.589664 0.102090
0.568319 0.584698 0.084862
0.664118 0.580079 0.082087
0.743077 0.580111 0.090702
0.807961 0.585008 0.104138
0.865031 0.591047 0.116170
0.924359 0.597288 0.130037
0.987399 0.622877 0.229953
0.216019 0.619213 0.181791
0.221853 0.620739 0.183375
0.232138 0.623540 0.186342
0.247955 0.628095 0.191286
0.269065 0.634550 0.198352
0.295527 0.642891 0.206906
0.328451 0.652829 0.215014
0.375222 0.662874 0.213960
0.446061 0.669947 0.186125
0.543724 0.669323 0.133055
0.647983 0.661622 0.105094
0.738948 0.653479 0.097456
0.813492 0.648381 0.101334
0.873807 0.647594 0.111381
0.925708 0.649847 0.124465
0.977551 0.654840 0.142260
0.292444 0.693987 0.239144
0.296818 0.695245 0.240039
0.304656 0.697544 0.241710
0.316977 0.701261 0.244486
0.333781 0.706489 0.248474
0.354996 0.713203 0.253533
0.380910 0.721204 0.258923
0.413466 0.729889 0.262013
0.461176 0.737222 0.252612
0.530109 0.740444 0.217979
0.620213 0.736214 0.160790
0.715315 0.725557 0.128415
0.799694 0.714483 0.117786
0.872254 0.707963 0.120467
0.937760 0.710153 0.133592
0.991559 0.724554 0.216698
0.361787 0.760370 0.279515
0.364995 0.761279 0.280061
0.370784 0.762935 0.281089
0.379969 0.765607 0.282825
0.392627 0.769351 0.285384
0.408722 0.774148 0.288770
0.428343 0.779876 0.292692
0.452095 0.786291 0.296256
0.483828 0.792562 0.295217
0.531004 0.796830 0.280473
0.597957 0.797916 0.243662
0.685113 0.794782 0.189034
0.780361 0.789760 0.157674
0.871858 0.787366 0.150525
0.955981 0.789906 0.159184
0.996322 0.808822 0.378667
0.415648 0.815086 0.312923
0.418058 0.815745 0.313350
0.422429 0.816952 0.314157
0.429423 0.818910 0.315533
0.439257 0.821771 0.317677
0.452238 0.825823 0.320915
0.468677 0.831288 0.325439
0.489115 0.838319 0.331172
0.515144 0.847161 0.337504
0.552550 0.857203 0.339446
0.606560 0.867090 0.330887
0.679811 0.875143 0.306019
0.770971 0.879547 0.263338
0.869312 0.880575 0.223965
0.962855 0.879708 0.215037
0.998150 0.887032 0.502929
0.471318 0.875808 0.360270
0.473675 0.876825 0.361198
0.477991 0.878713 0.362935
0.485005 0.881838 0.365856
0.494983 0.886398 0.370194
0.508124 0.892569 0.376166
0.524633 0.900492 0.383897
0.544835 0.910242 0.393277
0.569384 0.921783 0.403809
0.600364 0.934638 0.413347
0.642823 0.947382 0.416606
0.700398 0.957739 0.411377
0.773623 0.963227 0.396296
0.856098 0.962075 0.381225
0.936155 0.955480 0.380040
0.997352 0.947816 0.493385
0.544659 0.957514 0.433662
0.546823 0.958594 0.434643
0.550779 0.960577 0.436452
0.557184 0.963806 0.439424
0.566260 0.968374 0.443730
0.578305 0.974237 0.449732
0.593536 0.981253 0.457716
0.612121 0.989140 0.467810
0.643838 0.994377 0.496567
0.685232 0.996589 0.541897
0.726887 0.997695 0.586481
0.768299 0.998292 0.620286
0.813497 0.998713 0.646724
0.863036 0.999040 0.663274
0.917050 0.999206 0.667109
0.973276 0.999433 0.661452
0.000069 0.017787 0.075205
0.024958 0.001389 0.146482
0.077093 0.001979 0.158937
0.134294 0.002657 0.169987
0.187569 0.003763 0.172685
0.244372 0.006122 0.176152
0.308657 0.008865 0.173804
0.375852 0.012111 0.164659
0.427228 0.017863 0.149502
0.478921 0.026288 0.135116
0.548908 0.045499 0.125650
0.618942 0.073683 0.118958
0.684079 0.116095 0.124690
0.741249 0.170480 0.149036
0.798855 0.222551 0.179871
0.858781 0.274460 0.215547
0.000293 0.046189 0.121222
0.015592 0.026027 0.194157
0.084953 0.024125 0.194936
0.145929 0.019009 0.193115
0.202547 0.017089 0.187101
0.261958 0.017943 0.182234
0.327009 0.017549 0.171847
0.391170 0.016896 0.156205
0.437732 0.020918 0.138339
0.492313 0.031807 0.125232
0.560744 0.053330 0.115840
0.628387 0.083783 0.110962
0.690012 0.129829 0.122232
0.746098 0.181631 0.148703
0.803637 0.231859 0.180608
0.863309 0.282403 0.216831
0.000807 0.092286 0.154497
0.002277 0.093688 0.181446
0.062228 0.090169 0.196376
0.137657 0.087480 0.190281
0.204128 0.084491 0.186340
0.273940 0.078264 0.176247
0.346247 0.065505 0.159978
0.410239 0.044147 0.137860
0.456990 0.030703 0.114914
0.515926 0.046344 0.104023
0.580406 0.071503 0.096586
0.642575 0.107769 0.099266
0.699498 0.154790 0.119867
0.754724 0.201221 0.148773
0.812189 0.248525 0.182428
0.871388 0.296716 0.219452
0.001955 0.144961 0.165299
0.003341 0.149681 0.175117
0.031959 0.155013 0.187941
0.127666 0.155204 0.182454
0.204414 0.152962 0.178506
0.282145 0.147177 0.163859
0.355783 0.138749 0.147027
0.417865 0.124433 0.125572
0.477446 0.103916 0.099495
0.544393 0.090227 0.071807
0.602156 0.117881 0.074825
0.658594 0.152724 0.091393
0.713313 0.191085 0.118924
0.768100 0.231387 0.150867
0.825491 0.274704 0.186623
0.883944 0.319341 0.224211
0.005008 0.208052 0.168697
0.007346 0.213134 0.167881
0.027093 0.220905 0.165581
0.109781 0.224437 0.172097
0.194215 0.224345 0.172642
0.279383 0.221456 0.166744
0.353335 0.221608 0.158443
0.423775 0.219820 0.152659
0.490454 0.212836 0.138125
0.554449 0.201843 0.114179
0.620439 0.191644 0.084777
0.678261 0.207855 0.093856
0.731046 0.237730 0.124798
0.786185 0.272195 0.158682
0.843256 0.310514 0.195306
0.900814 0.350243 0.231079
0.011765 0.272650 0.156914
0.015740 0.277255 0.151990
0.034057 0.285007 0.144121
0.103873 0.291896 0.150323
0.172829 0.299431 0.165716
0.279521 0.296488 0.145457
0.370261 0.291801 0.140767
0.435315 0.296788 0.154039
0.502595 0.301936 0.165455
0.571591 0.303148 0.165892
0.638120 0.301867 0.162435
0.705227 0.295128 0.146580
0.764250 0.303859 0.154203
0.815986 0.330705 0.187391
0.870264 0.360958 0.219249
0.925165 0.392940 0.247526
0.021684 0.331013 0.135227
0.027583 0.335803 0.129070
0.047201 0.343915 0.119541
0.106099 0.352905 0.124550
0.169387 0.363457 0.145054
0.247593 0.372989 0.153556
0.361454 0.369262 0.114323
0.456761 0.362466 0.106537
0.519141 0.368138 0.140233
0.580663 0.375793 0.164197
0.651564 0.382774 0.177482
0.720621 0.387637 0.185898
0.795284 0.390626 0.185518
0.861141 0.405118 0.209429
0.912998 0.429994 0.249707
0.962969 0.453592 0.278423
0.036723 0.398320 0.107111
0.043274 0.401773 0.099281
0.061001 0.407911 0.087525
0.111163 0.415510 0.093914
0.171906 0.424706 0.123126
0.231547 0.436658 0.150415
