entry/src/main/resources/rawfile/filters/RicePaper.cube
TITLE "Rice Paper"
LUT_3D_SIZE 6
0.080000 0.060000 0.030000
0.264000 0.060000 0.030000
0.448000 0.060000 0.030000
0.632000 0.060000 0.030000
0.816000 0.060000 0.030000
1.000000 0.060000 0.030000
0.080000 0.240000 0.030000
0.264000 0.240000 0.030000
0.448000 0.240000 0.030000
0.632000 0.240000 0.030000
0.816000 0.240000 0.030000
1.000000 0.240000 0.030000
0.080000 0.420000 0.030000
0.264000 0.420000 0.030000
0.448000 0.420000 0.030000
0.632000 0.420000 0.030000
0.816000 0.420000 0.030000
1.000000 0.420000 0.030000
0.080000 0.600000 0.030000
0.264000 0.600000 0.030000
0.448000 0.600000 0.030000
0.632000 0.600000 0.030000
0.816000 0.600000 0.030000
1.000000 0.600000 0.030000
0.080000 0.780000 0.030000
0.264000 0.780000 0.030000
0.448000 0.780000 0.030000
0.632000 0.780000 0.030000
0.816000 0.780000 0.030000
1.000000 0.780000 0.030000
0.080000 0.960000 0.030000
0.264000 0.960000 0.030000
0.448000 0.960000 0.030000
0.632000 0.960000 0.030000
0.816000 0.960000 0.030000
1.000000 0.960000 0.030000
0.080000 0.060000 0.194000
0.264000 0.060000 0.194000
0.448000 0.060000 0.194000
0.632000 0.060000 0.194000
0.816000 0.060000 0.194000
1.000000 0.060000 0.194000
0.080000 0.240000 0.194000
0.264000 0.240000 0.194000
0.448000 0.240000 0.194000
0.632000 0.240000 0.194000
0.816000 0.240000 0.194000
1.000000 0.240000 0.194000
0.080000 0.420000 0.194000
0.264000 0.420000 0.194000
0.448000 0.420000 0.194000
0.632000 0.420000 0.194000
0.816000 0.420000 0.194000
1.000000 0.420000 0.194000
0.080000 0.600000 0.194000
0.264000 0.600000 0.194000
0.448000 0.600000 0.194000
0.632000 0.600000 0.194000
0.816000 0.600000 0.194000
1.000000 0.600000 0.194000
0.080000 0.780000 0.194000
0.264000 0.780000 0.194000
0.448000 0.780000 0.194000
0.632000 0.780000 0.194000
0.816000 0.780000 0.194000
1.000000 0.780000 0.194000
0.080000 0.960000 0.194000
0.264000 0.960000 0.194000
0.448000 0.960000 0.194000
0.632000 0.960000 0.194000
0.816000 0.960000 0.194000
1.000000 0.960000 0.194000
0.080000 0.060000 0.358000
0.264000 0.060000 0.358000
0.448000 0.060000 0.358000
0.632000 0.060000 0.358000
0.816000 0.060000 0.358000
1.000000 0.060000 0.358000
0.080000 0.240000 0.358000
0.264000 0.240000 0.358000
0.448000 0.240000 0.358000
0.632000 0.240000 0.358000
0.816000 0.240000 0.358000
1.000000 0.240000 0.358000
0.080000 0.420000 0.358000
0.264000 0.420000 0.358000
0.448000 0.420000 0.358000
0.632000 0.420000 0.358000
0.816000 0.420000 0.358000
1.000000 0.420000 0.358000
0.080000 0.600000 0.358000
0.264000 0.600000 0.358000
0.448000 0.600000 0.358000
0.632000 0.600000 0.358000
0.816000 0.600000 0.358000
1.000000 0.600000 0.358000
0.080000 0.780000 0.358000
0.264000 0.780000 0.358000
0.448000 0.780000 0.358000
0.632000 0.780000 0.358000
0.816000 0.780000 0.358000
1.000000 0.780000 0.358000
0.080000 0.960000 0.358000
0.264000 0.960000 0.358000
0.448000 0.960000 0.358000
0.632000 0.960000 0.358000
0.816000 0.960000 0.358000
1.000000 0.960000 0.358000
0.080000 0.060000 0.522000
0.264000 0.060000 0.522000
0.448000 0.060000 0.522000
0.632000 0.060000 0.522000
0.816000 0.060000 0.522000
1.000000 0.060000 0.522000
0.080000 0.240000 0.522000
0.264000 0.240000 0.522000
0.448000 0.240000 0.522000
0.632000 0.240000 0.522000
0.816000 0.240000 0.522000
1.000000 0.240000 0.522000
0.080000 0.420000 0.522000
0.264000 0.420000 0.522000
0.448000 0.420000 0.522000
0.632000 0.420000 0.522000
0.816000 0.420000 0.522000
1.000000 0.420000 0.522000
0.080000 0.600000 0.522000
0.264000 0.600000 0.522000
0.448000 0.600000 0.522000
0.632000 0.600000 0.522000
0.816000 0.600000 0.522000
1.000000 0.600000 0.522000
0.080000 0.780000 0.522000
0.264000 0.780000 0.522000
0.448000 0.780000 0.522000
0.632000 0.780000 0.522000
0.816000 0.780000 0.522000
1.000000 0.780000 0.522000
0.080000 0.960000 0.522000
0.264000 0.960000 0.522000
0.448000 0.960000 0.522000
0.632000 0.960000 0.522000
0.816000 0.960000 0.522000
1.000000 0.960000 0.522000
0.080000 0.060000 0.686000
0.264000 0.060000 0.686000
0.448000 0.060000 0.686000
0.632000 0.060000 0.686000
0.816000 0.060000 0.686000
1.000000 0.060000 0.686000
0.080000 0.240000 0.686000
0.264000 0.240000 0.686000
0.448000 0.240000 0.686000
0.632000 0.240000 0.686000
0.816000 0.240000 0.686000
1.000000 0.240000 0.686000
0.080000 0.420000 0.686000
0.264000 0.420000 0.686000
0.448000 0.420000 0.686000
0.632000 0.420000 0.686000
0.816000 0.420000 0.686000
1.000000 0.420000 0.686000
0.080000 0.600000 0.686000
0.264000 0.600000 0.686000
0.448000 0.600000 0.686000
0.632000 0.600000 0.686000
0.816000 0.600000 0.686000
1.000000 0.600000 0.686000
0.080000 0.780000 0.686000
0.264000 0.780000 0.686000
0.448000 0.780000 0.686000
0.632000 0.780000 0.686000
0.816000 0.780000 0.686000
1.000000 0.780000 0.686000
0.080000 0.960000 0.686000
0.264000 0.960000 0.686000
0.448000 0.960000 0.686000
0.632000 0.960000 0.686000
0.816000 0.960000 0.686000
1.000000 0.960000 0.686000
0.080000 0.060000 0.850000
0.264000 0.060000 0.850000
0.448000 0.060000 0.850000
0.632000 0.060000 0.850000
0.816000 0.060000 0.850000
1.000000 0.060000 0.850000
0.080000 0.240000 0.850000
0.264000 0.240000 0.850000
0.448000 0.240000 0.850000
0.632000 0.240000 0.850000
0.816000 0.240000 0.850000
1.000000 0.240000 0.850000
0.080000 0.420000 0.850000
0.264000 0.420000 0.850000
0.448000 0.420000 0.850000
0.632000 0.420000 0.850000
0.816000 0.420000 0.850000
1.000000 0.420000 0.850000
0.080000 0.600000 0.850000
0.264000 0.600000 0.850000
0.448000 0.600000 0.850000
0.632000 0.600000 0.850000
0.816000 0.600000 0.850000
1.000000 0.600000 0.850000
0.080000 0.780000 0.850000
0.264000 0.780000 0.850000
0.448000 0.780000 0.850000
0.632000 0.780000 0.850000
0.816000 0.780000 0.850000
1.000000 0.780000 0.850000
0.080000 0.960000 0.850000
0.264000 0.960000 0.850000
0.448000 0.960000 0.850000
0.632000 0.960000 0.850000
0.816000 0.960000 0.850000
1.000000 0.960000 0.850000
