entry/src/main/resources/rawfile/filters/RicePaper.cube
TITLE "Rice Paper"
LUT_3D_SIZE 16
0.080000 0.060000 0.030000
0.141333 0.060000 0.030000
0.202667 0.060000 0.030000
0.264000 0.060000 0.030000
0.325333 0.060000 0.030000
0.386667 0.060000 0.030000
0.448000 0.060000 0.030000
0.509333 0.060000 0.030000
0.570667 0.060000 0.030000
0.632000 0.060000 0.030000
0.693333 0.060000 0.030000
0.754667 0.060000 0.030000
0.816000 0.060000 0.030000
0.877333 0.060000 0.030000
0.938667 0.060000 0.030000
1.000000 0.060000 0.030000
0.080000 0.120000 0.030000
0.141333 0.120000 0.030000
0.202667 0.120000 0.030000
0.264000 0.120000 0.030000
0.325333 0.120000 0.030000
0.386667 0.120000 0.030000
0.448000 0.120000 0.030000
0.509333 0.120000 0.030000
0.570667 0.120000 0.030000
0.632000 0.120000 0.030000
0.693333 0.120000 0.030000
0.754667 0.120000 0.030000
0.816000 0.120000 0.030000
0.877333 0.120000 0.030000
0.938667 0.120000 0.030000
1.000000 0.120000 0.030000
0.080000 0.180000 0.030000
0.141333 0.180000 0.030000
0.202667 0.180000 0.030000
0.264000 0.180000 0.030000
0.325333 0.180000 0.030000
0.386667 0.180000 0.030000
0.448000 0.180000 0.030000
0.509333 0.180000 0.030000
0.570667 0.180000 0.030000
0.632000 0.180000 0.030000
0.693333 0.180000 0.030000
0.754667 0.180000 0.030000
0.816000 0.180000 0.030000
0.877333 0.180000 0.030000
0.938667 0.180000 0.030000
1.000000 0.180000 0.030000
0.080000 0.240000 0.030000
0.141333 0.240000 0.030000
0.202667 0.240000 0.030000
0.264000 0.240000 0.030000
0.325333 0.240000 0.030000
0.386667 0.240000 0.030000
0.448000 0.240000 0.030000
0.509333 0.240000 0.030000
0.570667 0.240000 0.030000
0.632000 0.240000 0.030000
0.693333 0.240000 0.030000
0.754667 0.240000 0.030000
0.816000 0.240000 0.030000
0.877333 0.240000 0.030000
0.938667 0.240000 0.030000
1.000000 0.240000 0.030000
0.080000 0.300000 0.030000
0.141333 0.300000 0.030000
0.202667 0.300000 0.030000
0.264000 0.300000 0.030000
0.325333 0.300000 0.030000
0.386667 0.300000 0.030000
0.448000 0.300000 0.030000
0.509333 0.300000 0.030000
0.570667 0.300000 0.030000
0.632000 0.300000 0.030000
0.693333 0.300000 0.030000
0.754667 0.300000 0.030000
0.816000 0.300000 0.030000
0.877333 0.300000 0.030000
0.938667 0.300000 0.030000
1.000000 0.300000 0.030000
0.080000 0.360000 0.030000
0.141333 0.360000 0.030000
0.202667 0.360000 0.030000
0.264000 0.360000 0.030000
0.325333 0.360000 0.030000
0.386667 0.360000 0.030000
0.448000 0.360000 0.030000
0.509333 0.360000 0.030000
0.570667 0.360000 0.030000
0.632000 0.360000 0.030000
0.693333 0.360000 0.030000
0.754667 0.360000 0.030000
0.816000 0.360000 0.030000
0.877333 0.360000 0.030000
0.938667 0.360000 0.030000
1.000000 0.360000 0.030000
0.080000 0.420000 0.030000
0.141333 0.420000 0.030000
0.202667 0.420000 0.030000
0.264000 0.420000 0.030000
0.325333 0.420000 0.030000
0.386667 0.420000 0.030000
0.448000 0.420000 0.030000
0.509333 0.420000 0.030000
0.570667 0.420000 0.030000
0.632000 0.420000 0.030000
0.693333 0.420000 0.030000
0.754667 0.420000 0.030000
0.816000 0.420000 0.030000
0.877333 0.420000 0.030000
0.938667 0.420000 0.030000
1.000000 0.420000 0.030000
0.080000 0.480000 0.030000
0.141333 0.480000 0.030000
0.202667 0.480000 0.030000
0.264000 0.480000 0.030000
0.325333 0.480000 0.030000
0.386667 0.480000 0.030000
0.448000 0.480000 0.030000
0.509333 0.480000 0.030000
0.570667 0.480000 0.030000
0.632000 0.480000 0.030000
0.693333 0.480000 0.030000
0.754667 0.480000 0.030000
0.816000 0.480000 0.030000
0.877333 0.480000 0.030000
0.938667 0.480000 0.030000
1.000000 0.480000 0.030000
0.080000 0.540000 0.030000
0.141333 0.540000 0.030000
0.202667 0.540000 0.030000
0.264000 0.540000 0.030000
0.325333 0.540000 0.030000
0.386667 0.540000 0.030000
0.448000 0.540000 0.030000
0.509333 0.540000 0.030000
0.570667 0.540000 0.030000
0.632000 0.540000 0.030000
0.693333 0.540000 0.030000
0.754667 0.540000 0.030000
0.816000 0.540000 0.030000
0.877333 0.540000 0.030000
0.938667 0.540000 0.030000
1.000000 0.540000 0.030000
0.080000 0.600000 0.030000
0.141333 0.600000 0.030000
0.202667 0.600000 0.030000
0.264000 0.600000 0.030000
0.325333 0.600000 0.030000
0.386667 0.600000 0.030000
0.448000 0.600000 0.030000
0.509333 0.600000 0.030000
0.570667 0.600000 0.030000
0.632000 0.600000 0.030000
0.693333 0.600000 0.030000
0.754667 0.600000 0.030000
0.816000 0.600000 0.030000
0.877333 0.600000 0.030000
0.938667 0.600000 0.030000
1.000000 0.600000 0.030000
0.080000 0.660000 0.030000
0.141333 0.660000 0.030000
0.202667 0.660000 0.030000
0.264000 0.660000 0.030000
0.325333 0.660000 0.030000
0.386667 0.660000 0.030000
0.448000 0.660000 0.030000
0.509333 0.660000 0.030000
0.570667 0.660000 0.030000
0.632000 0.660000 0.030000
0.693333 0.660000 0.030000
0.754667 0.660000 0.030000
0.816000 0.660000 0.030000
0.877333 0.660000 0.030000
0.938667 0.660000 0.030000
1.000000 0.660000 0.030000
0.080000 0.720000 0.030000
0.141333 0.720000 0.030000
0.202667 0.720000 0.030000
0.264000 0.720000 0.030000
0.325333 0.720000 0.030000
0.386667 0.720000 0.030000
0.448000 0.720000 0.030000
0.509333 0.720000 0.030000
0.570667 0.720000 0.030000
0.632000 0.720000 0.030000
0.693333 0.720000 0.030000
0.754667 0.720000 0.030000
0.816000 0.720000 0.030000
0.877333 0.720000 0.030000
0.938667 0.720000 0.030000
1.000000 0.720000 0.030000
0.080000 0.780000 0.030000
0.141333 0.780000 0.030000
0.202667 0.780000 0.030000
0.264000 0.780000 0.030000
0.325333 0.780000 0.030000
0.386667 0.780000 0.030000
0.448000 0.780000 0.030000
0.509333 0.780000 0.030000
0.570667 0.780000 0.030000
0.632000 0.780000 0.030000
0.693333 0.780000 0.030000
0.754667 0.780000 0.030000
0.816000 0.780000 0.030000
0.877333 0.780000 0.030000
0.938667 0.780000 0.030000
1.000000 0.780000 0.030000
0.080000 0.840000 0.030000
0.141333 0.840000 0.030000
0.202667 0.840000 0.030000
0.264000 0.840000 0.030000
0.325333 0.840000 0.030000
0.386667 0.840000 0.030000
0.448000 0.840000 0.030000
0.509333 0.840000 0.030000
0.570667 0.840000 0.030000
0.632000 0.840000 0.030000
0.693333 0.840000 0.030000
0.754667 0.840000 0.030000
0.816000 0.840000 0.030000
0.877333 0.840000 0.030000
0.938667 0.840000 0.030000
1.000000 0.840000 0.030000
0.080000 0.900000 0.030000
0.141333 0.900000 0.030000
0.202667 0.900000 0.030000
0.264000 0.900000 0.030000
0.325333 0.900000 0.030000
0.386667 0.900000 0.030000
0.448000 0.900000 0.030000
0.509333 0.900000 0.030000
0.570667 0.900000 0.030000
0.632000 0.900000 0.030000
0.693333 0.900000 0.030000
0.754667 0.900000 0.030000
0.816000 0.900000 0.030000
0.877333 0.900000 0.030000
0.938667 0.900000 0.030000
1.000000 0.900000 0.030000
0.080000 0.960000 0.030000
0.141333 0.960000 0.030000
0.202667 0.960000 0.030000
0.264000 0.960000 0.030000
0.325333 0.960000 0.030000
0.386667 0.960000 0.030000
0.448000 0.960000 0.030000
0.509333 0.960000 0.030000
0.570667 0.960000 0.030000
0.632000 0.960000 0.030000
0.693333 0.960000 0.030000
0.754667 0.960000 0.030000
0.816000 0.960000 0.030000
0.877333 0.960000 0.030000
0.938667 0.960000 0.030000
1.000000 0.960000 0.030000
0.080000 0.060000 0.084667
0.141333 0.060000 0.084667
0.202667 0.060000 0.084667
0.264000 0.060000 0.084667
0.325333 0.060000 0.084667
0.386667 0.060000 0.084667
0.448000 0.060000 0.084667
0.509333 0.060000 0.084667
0.570667 0.060000 0.084667
0.632000 0.060000 0.084667
0.693333 0.060000 0.084667
0.754667 0.060000 0.084667
0.816000 0.060000 0.084667
0.877333 0.060000 0.084667
0.938667 0.060000 0.084667
1.000000 0.060000 0.084667
0.080000 0.120000 0.084667
0.141333 0.120000 0.084667
0.202667 0.120000 0.084667
0.264000 0.120000 0.084667
0.325333 0.120000 0.084667
0.386667 0.120000 0.084667
0.448000 0.120000 0.084667
0.509333 0.120000 0.084667
0.570667 0.120000 0.084667
0.632000 0.120000 0.084667
0.693333 0.120000 0.084667
0.754667 0.120000 0.084667
0.816000 0.120000 0.084667
0.877333 0.120000 0.084667
0.938667 0.120000 0.084667
1.000000 0.120000 0.084667
0.080000 0.180000 0.084667
0.141333 0.180000 0.084667
0.202667 0.180000 0.084667
0.264000 0.180000 0.084667
0.325333 0.180000 0.084667
0.386667 0.180000 0.084667
0.448000 0.180000 0.084667
0.509333 0.180000 0.084667
0.570667 0.180000 0.084667
0.632000 0.180000 0.084667
0.693333 0.180000 0.084667
0.754667 0.180000 0.084667
0.816000 0.180000 0.084667
0.877333 0.180000 0.084667
0.938667 0.180000 0.084667
1.000000 0.180000 0.084667
0.080000 0.240000 0.084667
0.141333 0.240000 0.084667
0.202667 0.240000 0.084667
0.264000 0.240000 0.084667
0.325333 0.240000 0.084667
0.386667 0.240000 0.084667
0.448000 0.240000 0.084667
0.509333 0.240000 0.084667
0.570667 0.240000 0.084667
0.632000 0.240000 0.084667
0.693333 0.240000 0.084667
0.754667 0.240000 0.084667
0.816000 0.240000 0.084667
0.877333 0.240000 0.084667
0.938667 0.240000 0.084667
1.000000 0.240000 0.084667
0.080000 0.300000 0.084667
0.141333 0.300000 0.084667
0.202667 0.300000 0.084667
0.264000 0.300000 0.084667
0.325333 0.300000 0.084667
0.386667 0.300000 0.084667
0.448000 0.300000 0.084667
0.509333 0.300000 0.084667
0.570667 0.300000 0.084667
0.632000 0.300000 0.084667
0.693333 0.300000 0.084667
0.754667 0.300000 0.084667
0.816000 0.300000 0.084667
0.877333 0.300000 0.084667
0.938667 0.300000 0.084667
1.000000 0.300000 0.084667
0.080000 0.360000 0.084667
0.141333 0.360000 0.084667
0.202667 0.360000 0.084667
0.264000 0.360000 0.084667
0.325333 0.360000 0.084667
0.386667 0.360000 0.084667
0.448000 0.360000 0.084667
0.509333 0.360000 0.084667
0.570667 0.360000 0.084667
0.632000 0.360000 0.084667
0.693333 0.360000 0.084667
0.754667 0.360000 0.084667
0.816000 0.360000 0.084667
0.877333 0.360000 0.084667
0.938667 0.360000 0.084667
1.000000 0.360000 0.084667
0.080000 0.420000 0.084667
0.141333 0.420000 0.084667
0.202667 0.420000 0.084667
0.264000 0.420000 0.084667
0.325333 0.420000 0.084667
0.386667 0.420000 0.084667
0.448000 0.420000 0.084667
0.509333 0.420000 0.084667
0.570667 0.420000 0.084667
0.632000 0.420000 0.084667
0.693333 0.420000 0.084667
0.754667 0.420000 0.084667
0.816000 0.420000 0.084667
0.877333 0.420000 0.084667
0.938667 0.420000 0.084667
1.000000 0.420000 0.084667
0.080000 0.480000 0.084667
0.141333 0.480000 0.084667
0.202667 0.480000 0.084667
0.264000 0.480000 0.084667
0.325333 0.480000 0.084667
0.386667 0.480000 0.084667
0.448000 0.480000 0.084667
0.509333 0.480000 0.084667
0.570667 0.480000 0.084667
0.632000 0.480000 0.084667
0.693333 0.480000 0.084667
0.754667 0.480000 0.084667
0.816000 0.480000 0.084667
0.877333 0.480000 0.084667
0.938667 0.480000 0.084667
1.000000 0.480000 0.084667
0.080000 0.540000 0.084667
0.141333 0.540000 0.084667
0.202667 0.540000 0.084667
0.264000 0.540000 0.084667
0.325333 0.540000 0.084667
0.386667 0.540000 0.084667
0.448000 0.540000 0.084667
0.509333 0.540000 0.084667
0.570667 0.540000 0.084667
0.632000 0.540000 0.084667
0.693333 0.540000 0.084667
0.754667 0.540000 0.084667
0.816000 0.540000 0.084667
0.877333 0.540000 0.084667
0.938667 0.540000 0.084667
1.000000 0.540000 0.084667
0.080000 0.600000 0.084667
0.141333 0.600000 0.084667
0.202667 0.600000 0.084667
0.264000 0.600000 0.084667
0.325333 0.600000 0.084667
0.386667 0.600000 0.084667
0.448000 0.600000 0.084667
0.509333 0.600000 0.084667
0.570667 0.600000 0.084667
0.632000 0.600000 0.084667
0.693333 0.600000 0.084667
0.754667 0.600000 0.084667
0.816000 0.600000 0.084667
0.877333 0.600000 0.084667
0.938667 0.600000 0.084667
1.000000 0.600000 0.084667
0.080000 0.660000 0.084667
0.141333 0.660000 0.084667
0.202667 0.660000 0.084667
0.264000 0.660000 0.084667
0.325333 0.660000 0.084667
0.386667 0.660000 0.084667
0.448000 0.660000 0.084667
0.509333 0.660000 0.084667
0.570667 0.660000 0.084667
0.632000 0.660000 0.084667
0.693333 0.660000 0.084667
0.754667 0.660000 0.084667
0.816000 0.660000 0.084667
0.877333 0.660000 0.084667
0.938667 0.660000 0.084667
1.000000 0.660000 0.084667
0.080000 0.720000 0.084667
0.141333 0.720000 0.084667
0.202667 0.720000 0.084667
0.264000 0.720000 0.084667
0.325333 0.720000 0.084667
0.386667 0.720000 0.084667
0.448000 0.720000 0.084667
0.509333 0.720000 0.084667
0.570667 0.720000 0.084667
0.632000 0.720000 0.084667
0.693333 0.720000 0.084667
0.754667 0.720000 0.084667
0.816000 0.720000 0.084667
0.877333 0.720000 0.084667
0.938667 0.720000 0.084667
1.000000 0.720000 0.084667
0.080000 0.780000 0.084667
0.141333 0.780000 0.084667
0.202667 0.780000 0.084667
0.264000 0.780000 0.084667
0.325333 0.780000 0.084667
0.386667 0.780000 0.084667
0.448000 0.780000 0.084667
0.509333 0.780000 0.084667
0.570667 0.780000 0.084667
0.632000 0.780000 0.084667
0.693333 0.780000 0.084667
0.754667 0.780000 0.084667
0.816000 0.780000 0.084667
0.877333 0.780000 0.084667
0.938667 0.780000 0.084667
1.000000 0.780000 0.084667
0.080000 0.840000 0.084667
0.141333 0.840000 0.084667
0.202667 0.840000 0.084667
0.264000 0.840000 0.084667
0.325333 0.840000 0.084667
0.386667 0.840000 0.084667
0.448000 0.840000 0.084667
0.509333 0.840000 0.084667
0.570667 0.840000 0.084667
0.632000 0.840000 0.084667
0.693333 0.840000 0.084667
0.754667 0.840000 0.084667
0.816000 0.840000 0.084667
0.877333 0.840000 0.084667
0.938667 0.840000 0.084667
1.000000 0.840000 0.084667
0.080000 0.900000 0.084667
0.141333 0.900000 0.084667
0.202667 0.900000 0.084667
0.264000 0.900000 0.084667
0.325333 0.900000 0.084667
0.386667 0.900000 0.084667
0.448000 0.900000 0.084667
0.509333 0.900000 0.084667
0.570667 0.900000 0.084667
0.632000 0.900000 0.084667
0.693333 0.900000 0.084667
0.754667 0.900000 0.084667
0.816000 0.900000 0.084667
0.877333 0.900000 0.084667
0.938667 0.900000 0.084667
1.000000 0.900000 0.084667
0.080000 0.960000 0.084667
0.141333 0.960000 0.084667
0.202667 0.960000 0.084667
0.264000 0.960000 0.084667
0.325333 0.960000 0.084667
0.386667 0.960000 0.084667
0.448000 0.960000 0.084667
0.509333 0.960000 0.084667
0.570667 0.960000 0.084667
0.632000 0.960000 0.084667
0.693333 0.960000 0.084667
0.754667 0.960000 0.084667
0.816000 0.960000 0.084667
0.877333 0.960000 0.084667
0.938667 0.960000 0.084667
1.000000 0.960000 0.084667
0.080000 0.060000 0.139333
0.141333 0.060000 0.139333
0.202667 0.060000 0.139333
0.264000 0.060000 0.139333
0.325333 0.060000 0.139333
0.386667 0.060000 0.139333
0.448000 0.060000 0.139333
0.509333 0.060000 0.139333
0.570667 0.060000 0.139333
0.632000 0.060000 0.139333
0.693333 0.060000 0.139333
0.754667 0.060000 0.139333
0.816000 0.060000 0.139333
0.877333 0.060000 0.139333
0.938667 0.060000 0.139333
1.000000 0.060000 0.139333
0.080000 0.120000 0.139333
0.141333 0.120000 0.139333
0.202667 0.120000 0.139333
0.264000 0.120000 0.139333
0.325333 0.120000 0.139333
0.386667 0.120000 0.139333
0.448000 0.120000 0.139333
0.509333 0.120000 0.139333
0.570667 0.120000 0.139333
0.632000 0.120000 0.139333
0.693333 0.120000 0.139333
0.754667 0.120000 0.139333
0.816000 0.120000 0.139333
0.877333 0.120000 0.139333
0.938667 0.120000 0.139333
1.000000 0.120000 0.139333
0.080000 0.180000 0.139333
0.141333 0.180000 0.139333
0.202667 0.180000 0.139333
0.264000 0.180000 0.139333
0.325333 0.180000 0.139333
0.386667 0.180000 0.139333
0.448000 0.180000 0.139333
0.509333 0.180000 0.139333
0.570667 0.180000 0.139333
0.632000 0.180000 0.139333
0.693333 0.180000 0.139333
0.754667 0.180000 0.139333
0.816000 0.180000 0.139333
0.877333 0.180000 0.139333
0.938667 0.180000 0.139333
1.000000 0.180000 0.139333
0.080000 0.240000 0.139333
0.141333 0.240000 0.139333
0.202667 0.240000 0.139333
0.264000 0.240000 0.139333
0.325333 0.240000 0.139333
0.386667 0.240000 0.139333
0.448000 0.240000 0.139333
0.509333 0.240000 0.139333
0.570667 0.240000 0.139333
0.632000 0.240000 0.139333
0.693333 0.240000 0.139333
0.754667 0.240000 0.139333
0.816000 0.240000 0.139333
0.877333 0.240000 0.139333
0.938667 0.240000 0.139333
1.000000 0.240000 0.139333
0.080000 0.300000 0.139333
0.141333 0.300000 0.139333
0.202667 0.300000 0.139333
0.264000 0.300000 0.139333
0.325333 0.300000 0.139333
0.386667 0.300000 0.139333
0.448000 0.300000 0.139333
0.509333 0.300000 0.139333
0.570667 0.300000 0.139333
0.632000 0.300000 0.139333
0.693333 0.300000 0.139333
0.754667 0.300000 0.139333
0.816000 0.300000 0.139333
0.877333 0.300000 0.139333
0.938667 0.300000 0.139333
1.000000 0.300000 0.139333
0.080000 0.360000 0.139333
0.141333 0.360000 0.139333
0.202667 0.360000 0.139333
0.264000 0.360000 0.139333
0.325333 0.360000 0.139333
0.386667 0.360000 0.139333
0.448000 0.360000 0.139333
0.509333 0.360000 0.139333
0.570667 0.360000 0.139333
0.632000 0.360000 0.139333
0.693333 0.360000 0.139333
0.754667 0.360000 0.139333
0.816000 0.360000 0.139333
0.877333 0.360000 0.139333
0.938667 0.360000 0.139333
1.000000 0.360000 0.139333
0.080000 0.420000 0.139333
0.141333 0.420000 0.139333
0.202667 0.420000 0.139333
0.264000 0.420000 0.139333
0.325333 0.420000 0.139333
0.386667 0.420000 0.139333
0.448000 0.420000 0.139333
0.509333 0.420000 0.139333
0.570667 0.420000 0.139333
0.632000 0.420000 0.139333
0.693333 0.420000 0.139333
0.754667 0.420000 0.139333
0.816000 0.420000 0.139333
0.877333 0.420000 0.139333
0.938667 0.420000 0.139333
1.000000 0.420000 0.139333
0.080000 0.480000 0.139333
0.141333 0.480000 0.139333
0.202667 0.480000 0.139333
0.264000 0.480000 0.139333
0.325333 0.480000 0.139333
0.386667 0.480000 0.139333
0.448000 0.480000 0.139333
0.509333 0.480000 0.139333
0.570667 0.480000 0.139333
0.632000 0.480000 0.139333
0.693333 0.480000 0.139333
0.754667 0.480000 0.139333
0.816000 0.480000 0.139333
0.877333 0.480000 0.139333
0.938667 0.480000 0.139333
1.000000 0.480000 0.139333
0.080000 0.540000 0.139333
0.141333 0.540000 0.139333
0.202667 0.540000 0.139333
0.264000 0.540000 0.139333
0.325333 0.540000 0.139333
0.386667 0.540000 0.139333
0.448000 0.540000 0.139333
0.509333 0.540000 0.139333
0.570667 0.540000 0.139333
0.632000 0.540000 0.139333
0.693333 0.540000 0.139333
0.754667 0.540000 0.139333
0.816000 0.540000 0.139333
0.877333 0.540000 0.139333
0.938667 0.540000 0.139333
1.000000 0.540000 0.139333
0.080000 0.600000 0.139333
0.141333 0.600000 0.139333
0.202667 0.600000 0.139333
0.264000 0.600000 0.139333
0.325333 0.600000 0.139333
0.386667 0.600000 0.139333
0.448000 0.600000 0.139333
0.509333 0.600000 0.139333
0.570667 0.600000 0.139333
0.632000 0.600000 0.139333
0.693333 0.600000 0.139333
0.754667 0.600000 0.139333
0.816000 0.600000 0.139333
0.877333 0.600000 0.139333
0.938667 0.600000 0.139333
1.000000 0.600000 0.139333
0.080000 0.660000 0.139333
0.141333 0.660000 0.139333
0.202667 0.660000 0.139333
0.264000 0.660000 0.139333
0.325333 0.660000 0.139333
0.386667 0.660000 0.139333
0.448000 0.660000 0.139333
0.509333 0.660000 0.139333
0.570667 0.660000 0.139333
0.632000 0.660000 0.139333
0.693333 0.660000 0.139333
0.754667 0.660000 0.139333
0.816000 0.660000 0.139333
0.877333 0.660000 0.139333
0.938667 0.660000 0.139333
1.000000 0.660000 0.139333
0.080000 0.720000 0.139333
0.141333 0.720000 0.139333
0.202667 0.720000 0.139333
0.264000 0.720000 0.139333
0.325333 0.720000 0.139333
0.386667 0.720000 0.139333
0.448000 0.720000 0.139333
0.509333 0.720000 0.139333
0.570667 0.720000 0.139333
0.632000 0.720000 0.139333
0.693333 0.720000 0.139333
0.754667 0.720000 0.139333
0.816000 0.720000 0.139333
0.877333 0.720000 0.139333
0.938667 0.720000 0.139333
1.000000 0.720000 0.139333
0.080000 0.780000 0.139333
0.141333 0.780000 0.139333
0.202667 0.780000 0.139333
0.264000 0.780000 0.139333
0.325333 0.780000 0.139333
0.386667 0.780000 0.139333
0.448000 0.780000 0.139333
0.509333 0.780000 0.139333
0.570667 0.780000 0.139333
0.632000 0.780000 0.139333
0.693333 0.780000 0.139333
0.754667 0.780000 0.139333
0.816000 0.780000 0.139333
0.877333 0.780000 0.139333
0.938667 0.780000 0.139333
1.000000 0.780000 0.139333
0.080000 0.840000 0.139333
0.141333 0.840000 0.139333
0.202667 0.840000 0.139333
0.264000 0.840000 0.139333
0.325333 0.840000 0.139333
0.386667 0.840000 0.139333
0.448000 0.840000 0.139333
0.509333 0.840000 0.139333
0.570667 0.840000 0.139333
0.632000 0.840000 0.139333
0.693333 0.840000 0.139333
0.754667 0.840000 0.139333
0.816000 0.840000 0.139333
0.877333 0.840000 0.139333
0.938667 0.840000 0.139333
1.000000 0.840000 0.139333
0.080000 0.900000 0.139333
0.141333 0.900000 0.139333
0.202667 0.900000 0.139333
0.264000 0.900000 0.139333
0.325333 0.900000 0.139333
0.386667 0.900000 0.139333
0.448000 0.900000 0.139333
0.509333 0.900000 0.139333
0.570667 0.900000 0.139333
0.632000 0.900000 0.139333
0.693333 0.900000 0.139333
0.754667 0.900000 0.139333
0.816000 0.900000 0.139333
0.877333 0.900000 0.139333
0.938667 0.900000 0.139333
1.000000 0.900000 0.139333
0.080000 0.960000 0.139333
0.141333 0.960000 0.139333
0.202667 0.960000 0.139333
0.264000 0.960000 0.139333
0.325333 0.960000 0.139333
0.386667 0.960000 0.139333
0.448000 0.960000 0.139333
0.509333 0.960000 0.139333
0.570667 0.960000 0.139333
0.632000 0.960000 0.139333
0.693333 0.960000 0.139333
0.754667 0.960000 0.139333
0.816000 0.960000 0.139333
0.877333 0.960000 0.139333
0.938667 0.960000 0.139333
1.000000 0.960000 0.139333
0.080000 0.060000 0.194000
0.141333 0.060000 0.194000
0.202667 0.060000 0.194000
0.264000 0.060000 0.194000
0.325333 0.060000 0.194000
0.386667 0.060000 0.194000
0.448000 0.060000 0.194000
0.509333 0.060000 0.194000
0.570667 0.060000 0.194000
0.632000 0.060000 0.194000
0.693333 0.060000 0.194000
0.754667 0.060000 0.194000
0.816000 0.060000 0.194000
0.877333 0.060000 0.194000
0.938667 0.060000 0.194000
1.000000 0.060000 0.194000
0.080000 0.120000 0.194000
0.141333 0.120000 0.194000
0.202667 0.120000 0.194000
0.264000 0.120000 0.194000
0.325333 0.120000 0.194000
0.386667 0.120000 0.194000
0.448000 0.120000 0.194000
0.509333 0.120000 0.194000
0.570667 0.120000 0.194000
0.632000 0.120000 0.194000
0.693333 0.120000 0.194000
0.754667 0.120000 0.194000
0.816000 0.120000 0.194000
0.877333 0.120000 0.194000
0.938667 0.120000 0.194000
1.000000 0.120000 0.194000
0.080000 0.180000 0.194000
0.141333 0.180000 0.194000
0.202667 0.180000 0.194000
0.264000 0.180000 0.194000
0.325333 0.180000 0.194000
0.386667 0.180000 0.194000
0.448000 0.180000 0.194000
0.509333 0.180000 0.194000
0.570667 0.180000 0.194000
0.632000 0.180000 0.194000
0.693333 0.180000 0.194000
0.754667 0.180000 0.194000
0.816000 0.180000 0.194000
0.877333 0.180000 0.194000
0.938667 0.180000 0.194000
1.000000 0.180000 0.194000
0.080000 0.240000 0.194000
0.141333 0.240000 0.194000
0.202667 0.240000 0.194000
0.264000 0.240000 0.194000
0.325333 0.240000 0.194000
0.386667 0.240000 0.194000
0.448000 0.240000 0.194000
0.509333 0.240000 0.194000
0.570667 0.240000 0.194000
0.632000 0.240000 0.194000
0.693333 0.240000 0.194000
0.754667 0.240000 0.194000
0.816000 0.240000 0.194000
0.877333 0.240000 0.194000
0.938667 0.240000 0.194000
1.000000 0.240000 0.194000
0.080000 0.300000 0.194000
0.141333 0.300000 0.194000
0.202667 0.300000 0.194000
0.264000 0.300000 0.194000
0.325333 0.300000 0.194000
0.386667 0.300000 0.194000
0.448000 0.300000 0.194000
0.509333 0.300000 0.194000
0.570667 0.300000 0.194000
0.632000 0.300000 0.194000
0.693333 0.300000 0.194000
0.754667 0.300000 0.194000
0.816000 0.300000 0.194000
0.877333 0.300000 0.194000
0.938667 0.300000 0.194000
1.000000 0.300000 0.194000
0.080000 0.360000 0.194000
0.141333 0.360000 0.194000
0.202667 0.360000 0.194000
0.264000 0.360000 0.194000
0.325333 0.360000 0.194000
0.386667 0.360000 0.194000
0.448000 0.360000 0.194000
0.509333 0.360000 0.194000
0.570667 0.360000 0.194000
0.632000 0.360000 0.194000
0.693333 0.360000 0.194000
0.754667 0.360000 0.194000
0.816000 0.360000 0.194000
0.877333 0.360000 0.194000
0.938667 0.360000 0.194000
1.000000 0.360000 0.194000
0.080000 0.420000 0.194000
0.141333 0.420000 0.194000
0.202667 0.420000 0.194000
0.264000 0.420000 0.194000
0.325333 0.420000 0.194000
0.386667 0.420000 0.194000
0.448000 0.420000 0.194000
0.509333 0.420000 0.194000
0.570667 0.420000 0.194000
0.632000 0.420000 0.194000
0.693333 0.420000 0.194000
0.754667 0.420000 0.194000
0.816000 0.420000 0.194000
0.877333 0.420000 0.194000
0.938667 0.420000 0.194000
1.000000 0.420000 0.194000
0.080000 0.480000 0.194000
0.141333 0.480000 0.194000
0.202667 0.480000 0.194000
0.264000 0.480000 0.194000
0.325333 0.480000 0.194000
0.386667 0.480000 0.194000
0.448000 0.480000 0.194000
