entry/src/main/resources/rawfile/filters/Skylight.cube
TITLE "Skylight - Original look 1.0 (Standard/sRGB base)"
LUT_3D_SIZE 6
0.020000 0.020000 0.020000
0.269016 0.015077 0.008601
0.475661 0.064137 0.039901
0.656585 0.116256 0.081911
0.805936 0.201649 0.153417
0.963205 0.310069 0.247244
0.085122 0.252675 0.012654
0.255589 0.253082 0.020017
0.466792 0.251036 0.053043
0.661384 0.249827 0.073965
0.824971 0.277889 0.139395
0.975422 0.360297 0.246255
0.171499 0.441487 0.040920
0.276925 0.439616 0.043332
0.441242 0.438324 0.058289
0.636440 0.434228 0.078683
0.857676 0.452451 0.119179
0.989061 0.505237 0.287445
0.264753 0.622363 0.105632
0.331911 0.623878 0.099421
0.470057 0.628063 0.093695
0.638027 0.634362 0.109902
0.831467 0.633784 0.128457
0.992468 0.652899 0.286692
0.393045 0.804192 0.236599
0.429608 0.806154 0.224976
0.524474 0.810802 0.195051
0.663864 0.816292 0.176156
0.826636 0.822507 0.181991
0.995413 0.831430 0.342310
0.536037 0.977044 0.382897
0.558806 0.979308 0.377264
0.622525 0.985506 0.361341
0.729076 0.993987 0.347992
0.867925 0.998175 0.426624
0.993482 0.999742 0.627990
0.000806 0.032260 0.245414
0.260922 0.033143 0.259618
0.469308 0.075450 0.251617
0.657603 0.107583 0.245023
0.810212 0.192533 0.262012
0.967347 0.304362 0.319139
0.024730 0.256475 0.256364
0.252564 0.252102 0.252035
0.481800 0.232933 0.234362
0.664824 0.226789 0.226588
0.828281 0.262520 0.248531
0.977571 0.354429 0.317579
0.089091 0.449655 0.211821
0.239593 0.448328 0.190858
0.442591 0.439008 0.191592
0.654352 0.433642 0.209575
0.863985 0.446773 0.242109
0.989246 0.495735 0.342010
0.210949 0.630619 0.199759
0.292016 0.632613 0.182985
0.454526 0.634864 0.155410
0.639552 0.635143 0.202993
0.838337 0.631023 0.219397
0.993685 0.656558 0.358924
0.370171 0.808611 0.288285
0.410245 0.810422 0.278065
0.511983 0.814645 0.250232
0.658421 0.819464 0.218790
0.828944 0.823384 0.217002
0.996027 0.831266 0.393954
0.521901 0.980564 0.409650
0.545786 0.982763 0.404076
0.612362 0.988726 0.388273
0.726538 0.995103 0.388810
0.867798 0.998358 0.462313
0.994156 0.999757 0.644919
0.003102 0.093181 0.455215
0.251175 0.076580 0.470037
0.461649 0.093878 0.459367
0.640258 0.141211 0.442011
0.802063 0.209514 0.438512
0.967389 0.306807 0.464631
0.026034 0.253449 0.480581
0.247207 0.248024 0.481200
0.463110 0.240188 0.462861
0.651396 0.236030 0.440684
0.825220 0.268147 0.437131
0.979226 0.353636 0.464376
0.056096 0.446313 0.446096
0.200945 0.446934 0.454692
0.436292 0.436146 0.436376
0.663804 0.417617 0.419108
0.858508 0.421069 0.422360
0.990089 0.480801 0.468471
0.127041 0.637218 0.420262
0.232972 0.640198 0.411313
0.428621 0.641709 0.388143
0.639577 0.636210 0.393625
0.851444 0.630214 0.406446
0.994328 0.657798 0.494019
0.290811 0.820388 0.418309
0.344644 0.821951 0.409976
0.471407 0.825025 0.386188
0.644698 0.825608 0.364330
0.828719 0.824083 0.397225
0.996536 0.831308 0.515055
0.478689 0.990108 0.489291
0.509147 0.991482 0.486982
0.593420 0.994231 0.485866
0.722217 0.996870 0.499687
0.867584 0.998742 0.553851
0.995839 0.999792 0.693388
0.016261 0.162635 0.621216
0.238000 0.153914 0.631261
0.441687 0.159546 0.629685
0.619437 0.187985 0.614777
0.789040 0.246699 0.612015
0.956488 0.331830 0.627599
0.060578 0.262605 0.662181
0.243497 0.257407 0.664992
0.447930 0.248469 0.656504
0.633807 0.254774 0.631947
0.810609 0.296646 0.624024
0.973552 0.366438 0.631943
0.053798 0.441073 0.651170
0.187183 0.438018 0.679907
0.430873 0.429528 0.662444
0.648137 0.424130 0.648454
0.844834 0.430668 0.636921
0.989525 0.483017 0.637942
0.106963 0.637098 0.636684
0.166116 0.643546 0.644174
0.400486 0.641169 0.653806
0.634282 0.633919 0.633781
0.861438 0.616147 0.617266
0.995027 0.647490 0.644381
0.167510 0.829342 0.622772
0.226463 0.833247 0.616557
0.418650 0.832710 0.607800
0.617472 0.832700 0.579888
0.828831 0.825465 0.584678
0.997499 0.832033 0.669184
0.449185 0.995465 0.650098
0.486567 0.995930 0.650354
0.581889 0.996983 0.652050
0.718184 0.998163 0.659350
0.867680 0.998968 0.687788
0.997918 0.999794 0.775598
0.060525 0.241042 0.747316
0.232218 0.234400 0.758264
0.423112 0.229649 0.766048
0.600329 0.248090 0.761469
0.776030 0.300242 0.768235
0.943203 0.369892 0.780783
0.107866 0.301173 0.781843
0.244134 0.296155 0.788072
0.429197 0.288779 0.793643
0.612995 0.299022 0.787346
0.793654 0.339953 0.787999
0.959683 0.397851 0.792007
0.092854 0.439236 0.834831
0.230832 0.436263 0.843468
0.431005 0.433215 0.845857
0.638022 0.433425 0.844637
0.830663 0.445025 0.829319
0.986715 0.490776 0.810021
0.099816 0.637049 0.840467
0.148594 0.639577 0.868374
0.388245 0.636665 0.880280
0.629672 0.628431 0.862007
0.844451 0.618968 0.844866
0.994455 0.649802 0.817973
0.165928 0.827555 0.826933
0.207123 0.831590 0.831692
0.373461 0.833607 0.845261
0.592712 0.830760 0.843226
0.823684 0.823376 0.823529
0.998349 0.834479 0.833991
0.441387 0.997353 0.832190
0.479993 0.997619 0.832847
0.577580 0.998139 0.834785
0.715722 0.998588 0.838225
0.866584 0.999266 0.843886
0.999620 0.999891 0.881457
0.110188 0.312639 0.852399
0.236026 0.307818 0.862621
0.411153 0.303125 0.878868
0.588968 0.319383 0.890657
0.764893 0.363041 0.905369
0.929299 0.419735 0.918214
0.148012 0.352625 0.881403
0.252590 0.349379 0.889874
0.420342 0.346165 0.905958
0.601705 0.360539 0.919353
0.778401 0.394855 0.927504
0.943004 0.443618 0.933599
0.185614 0.463345 0.951927
0.276270 0.463502 0.958045
0.440296 0.465420 0.968771
0.623894 0.471619 0.975375
0.806142 0.484816 0.976311
0.977174 0.511841 0.971869
0.239076 0.638930 0.987597
0.313499 0.639123 0.988506
0.461215 0.639796 0.990138
0.635561 0.641543 0.991240
0.815964 0.645143 0.992689
0.994031 0.655193 0.991785
0.299781 0.820362 0.994125
0.357721 0.820439 0.994515
0.485594 0.820733 0.995381
0.649119 0.822183 0.996654
0.826327 0.827327 0.997265
0.998390 0.840002 0.997608
0.465739 0.998230 0.995113
0.502447 0.998320 0.995408
0.595260 0.998499 0.996154
0.725000 0.999001 0.997560
0.867694 0.999540 0.999059
1.000000 1.000000 1.000000
