entry/src/main/resources/rawfile/filters/Skylight.cube
TITLE "Skylight - Original look 1.0 (Standard/sRGB base)"
LUT_3D_SIZE 16
0.020000 0.020000 0.020000
0.111805 0.007947 0.004806
0.189363 0.008215 0.004699
0.269016 0.015077 0.008601
0.341860 0.027853 0.015972
0.409916 0.046648 0.027245
0.475661 0.064137 0.039901
0.543230 0.069892 0.044123
0.603506 0.089663 0.060086
0.656585 0.116256 0.081911
0.706859 0.142743 0.103848
0.756070 0.170773 0.127297
0.805936 0.201649 0.153417
0.858130 0.236522 0.183276
0.911656 0.273831 0.215581
0.963205 0.310069 0.247244
0.021103 0.103035 0.002879
0.106607 0.105262 0.006026
0.185464 0.106590 0.011532
0.257926 0.111931 0.026678
0.334052 0.112776 0.028386
0.406631 0.113915 0.031135
0.473556 0.119666 0.041770
0.539605 0.124855 0.050508
0.603434 0.128692 0.056505
0.658155 0.143202 0.075295
0.708946 0.163042 0.097887
0.758462 0.186936 0.122715
0.808723 0.214948 0.150121
0.861358 0.247822 0.181142
0.914685 0.283125 0.213875
0.965883 0.317957 0.245951
0.052401 0.181371 0.006448
0.118303 0.181608 0.007599
0.184647 0.182580 0.012420
0.259734 0.181369 0.016299
0.330240 0.182073 0.032701
0.399399 0.183083 0.044884
0.469397 0.183356 0.048986
0.537642 0.186183 0.057807
0.601275 0.185812 0.061587
0.660205 0.187331 0.068549
0.712761 0.198009 0.089354
0.763310 0.215351 0.115294
0.814232 0.238928 0.144862
0.867389 0.268306 0.177649
0.920210 0.300047 0.210939
0.969997 0.333280 0.244729
0.085122 0.252675 0.012654
0.134096 0.252469 0.012701
0.191284 0.252692 0.014505
0.255589 0.253082 0.020017
0.327012 0.251278 0.024539
0.397884 0.249251 0.032394
0.466792 0.251036 0.053043
0.535290 0.251351 0.061440
0.598856 0.251774 0.071406
0.661384 0.249827 0.073965
0.719481 0.250894 0.083504
0.772712 0.260326 0.107814
0.824971 0.277889 0.139395
0.878170 0.301778 0.173850
0.929786 0.327929 0.207348
0.975422 0.360297 0.246255
0.116303 0.319376 0.021974
0.153360 0.319133 0.021579
0.202520 0.318974 0.021772
0.259864 0.319277 0.024382
0.322152 0.319417 0.030591
0.390362 0.317203 0.035878
0.458323 0.313658 0.040915
0.525386 0.312968 0.055921
0.594161 0.314694 0.069542
0.657694 0.315074 0.081733
0.723118 0.314763 0.086023
0.785130 0.319148 0.103055
0.841640 0.331560 0.135992
0.894218 0.348590 0.171209
0.944078 0.367780 0.204316
0.981136 0.400892 0.254896
0.145516 0.382887 0.032329
0.174690 0.382513 0.032788
0.216489 0.382012 0.032970
0.267974 0.381520 0.033852
0.323799 0.381193 0.037325
0.383222 0.380357 0.043791
0.447853 0.377452 0.048956
0.513285 0.373710 0.053640
0.578109 0.371534 0.063100
0.649394 0.375863 0.079349
0.720453 0.380831 0.094909
0.790054 0.383016 0.101089
0.854577 0.390384 0.126360
0.910301 0.402936 0.164628
0.960525 0.416996 0.200087
0.985979 0.452524 0.272078
0.171499 0.441487 0.040920
0.194792 0.441097 0.040683
0.230432 0.440466 0.040695
0.276925 0.439616 0.043332
0.328713 0.438970 0.046865
0.383271 0.438720 0.051570
0.441242 0.438324 0.058289
0.504649 0.436610 0.064085
0.570413 0.434668 0.069402
0.636440 0.434228 0.078683
0.707469 0.438684 0.093498
0.787205 0.448748 0.109219
0.857676 0.452451 0.119179
0.917916 0.457602 0.146659
0.970315 0.468077 0.187537
0.989061 0.505237 0.287445
0.198816 0.497752 0.056811
0.217497 0.497585 0.055809
0.247489 0.497341 0.054054
0.288615 0.497069 0.052424
0.336901 0.496968 0.052974
0.389293 0.497327 0.058899
0.444310 0.498486 0.067263
0.503072 0.500132 0.076128
0.567940 0.501338 0.084276
0.635992 0.502137 0.091065
0.703285 0.502981 0.100008
0.770346 0.504231 0.109477
0.845678 0.510344 0.116770
0.917643 0.517048 0.135284
0.974410 0.522051 0.169931
0.990803 0.554485 0.293346
0.228884 0.557049 0.076945
0.244354 0.557173 0.075935
0.270140 0.557433 0.074368
0.306912 0.557951 0.072502
0.351708 0.558926 0.070864
0.401865 0.560652 0.070103
0.455655 0.563131 0.073115
0.512091 0.565882 0.083973
0.571568 0.568400 0.096942
0.635509 0.569616 0.106515
0.702048 0.569667 0.112542
0.768132 0.569621 0.118589
0.834185 0.569269 0.120884
0.901328 0.570635 0.128006
0.970600 0.576919 0.150496
0.992089 0.605857 0.298417
0.264753 0.622363 0.105632
0.277572 0.622638 0.104331
0.299535 0.623123 0.102217
0.331911 0.623878 0.099421
0.372648 0.624921 0.096585
0.419376 0.626294 0.094490
0.470057 0.628063 0.093695
0.523411 0.630234 0.094413
0.579228 0.632531 0.099115
0.638027 0.634362 0.109902
0.700611 0.635008 0.121088
0.765966 0.634519 0.126419
0.831467 0.633784 0.128457
0.896289 0.633094 0.133033
0.959544 0.633101 0.145602
0.992468 0.652899 0.286692
0.303702 0.686024 0.141623
0.314012 0.686306 0.139728
0.332131 0.686789 0.136582
0.359730 0.687503 0.132243
0.395685 0.688421 0.127426
0.438226 0.689542 0.122996
0.485508 0.690903 0.119783
0.536015 0.692558 0.118462
0.588872 0.694503 0.119238
0.644020 0.696516 0.121594
0.702089 0.698045 0.126763
0.763853 0.698427 0.132702
0.828313 0.697694 0.137804
0.892705 0.696878 0.143936
0.956318 0.696345 0.153235
0.993207 0.707744 0.288346
0.347115 0.746291 0.187341
0.355075 0.746648 0.184832
0.369360 0.747265 0.180450
0.391799 0.748175 0.173907
0.422286 0.749277 0.166251
0.459860 0.750491 0.158703
0.503027 0.751817 0.152244
0.550258 0.753303 0.147642
0.600370 0.755012 0.145446
0.652685 0.756925 0.145855
0.707199 0.758844 0.148366
0.764528 0.760344 0.151666
0.825369 0.760841 0.155621
0.889015 0.760293 0.160305
0.952989 0.759900 0.167637
0.994226 0.768426 0.307818
0.393045 0.804192 0.236599
0.399515 0.804541 0.234600
0.411170 0.805169 0.230934
0.429608 0.806154 0.224976
0.454872 0.807484 0.216546
0.486670 0.809079 0.206067
0.524474 0.810802 0.195051
0.567436 0.812535 0.185871
0.614270 0.814337 0.179487
0.663864 0.816292 0.176156
0.715634 0.818390 0.175780
0.769661 0.820512 0.177956
0.826636 0.822507 0.181991
0.887343 0.824057 0.186839
0.951421 0.825002 0.192818
0.995413 0.831430 0.342310
0.438982 0.860966 0.284283
0.444368 0.861308 0.282706
0.454129 0.861925 0.279817
0.469718 0.862905 0.275128
0.491343 0.864250 0.268497
0.518864 0.865932 0.259917
0.551894 0.867901 0.249571
0.589885 0.870104 0.237969
0.632385 0.872540 0.226725
0.678716 0.875186 0.218120
0.728105 0.878108 0.213629
0.780050 0.881354 0.212912
0.834517 0.884749 0.215291
0.891804 0.887910 0.219753
0.952237 0.890304 0.225235
0.996725 0.894084 0.389116
0.485833 0.917700 0.332080
0.490415 0.918072 0.330848
0.498756 0.918749 0.328593
0.512176 0.919843 0.324943
0.530977 0.921381 0.319798
0.555196 0.923370 0.313159
0.584657 0.925793 0.305158
0.619020 0.928618 0.296101
0.657880 0.931799 0.286531
0.700670 0.935275 0.277293
0.746750 0.938962 0.269445
0.795595 0.942753 0.264122
0.846810 0.946485 0.261885
0.900232 0.949880 0.262629
0.955910 0.952520 0.265372
0.998068 0.953090 0.448952
0.536037 0.977044 0.382897
0.539980 0.977437 0.381927
0.547178 0.978154 0.380150
0.558806 0.979308 0.377264
0.575194 0.980924 0.373174
0.596456 0.983000 0.367850
0.622525 0.985506 0.361341
0.653185 0.988387 0.353800
0.688325 0.991498 0.346227
0.729076 0.993987 0.347992
0.773855 0.995817 0.361988
0.820701 0.997173 0.388194
0.867925 0.998175 0.426624
0.913907 0.998902 0.477608
0.956764 0.999411 0.542771
0.993482 0.999742 0.627990
0.001951 0.017400 0.124641
0.105948 0.008745 0.105102
0.187971 0.010136 0.105312
0.268056 0.015802 0.105075
0.342198 0.025252 0.104509
0.411283 0.040801 0.105549
0.477322 0.057868 0.107996
0.544183 0.065484 0.108259
0.604599 0.085145 0.114138
0.658133 0.111181 0.124786
0.708323 0.138574 0.138625
0.757413 0.167489 0.155763
0.807202 0.199071 0.176861
0.859354 0.234511 0.202721
0.912765 0.272175 0.231829
0.964197 0.308677 0.261025
0.008991 0.105238 0.105034
0.105705 0.105491 0.105192
0.188477 0.104033 0.104390
0.270544 0.099855 0.100300
0.347124 0.096236 0.096521
0.415388 0.100139 0.097936
0.478863 0.109961 0.103383
0.543515 0.116197 0.106454
0.607868 0.117713 0.105994
0.660481 0.137068 0.118408
0.710543 0.158934 0.133523
0.759914 0.183661 0.151663
0.810082 0.212357 0.173814
0.862649 0.245784 0.200694
0.915843 0.281437 0.230172
0.966800 0.316696 0.259892
0.017633 0.185321 0.096558
0.108015 0.184251 0.092501
0.183862 0.182610 0.099252
0.259915 0.180904 0.101640
0.330249 0.181388 0.108695
0.404591 0.177896 0.104513
0.475063 0.176274 0.102972
0.539864 0.179142 0.107524
0.603888 0.176879 0.106008
0.663691 0.176967 0.106679
0.713964 0.192119 0.124180
0.764037 0.211247 0.144279
0.815067 0.235683 0.168369
0.868320 0.265779 0.196958
0.921150 0.298027 0.227055
0.970668 0.331993 0.258652
0.036811 0.258285 0.076550
0.111115 0.257535 0.070278
0.184264 0.255471 0.071004
0.255784 0.253349 0.084627
0.330673 0.249675 0.086231
0.399477 0.248499 0.097325
0.467574 0.251018 0.113280
0.536712 0.249284 0.112697
0.600622 0.246943 0.112890
0.663089 0.241959 0.109055
0.721516 0.241392 0.111792
0.772222 0.254421 0.135230
0.824374 0.273289 0.161897
0.877905 0.298026 0.192132
0.929829 0.324941 0.222656
0.975586 0.358172 0.259111
0.072548 0.325121 0.061699
0.125106 0.324693 0.054959
0.187761 0.323486 0.049492
0.255306 0.321807 0.053025
0.323301 0.319821 0.066563
0.395457 0.315477 0.069023
0.465655 0.310654 0.072601
0.531098 0.311978 0.097879
0.598081 0.312165 0.108456
0.661181 0.311905 0.116024
0.726743 0.309534 0.115288
0.787140 0.312910 0.127331
0.840724 0.326942 0.158453
0.893156 0.344265 0.188862
0.943329 0.364067 0.218889
0.981008 0.397795 0.265847
0.112643 0.387581 0.060542
0.150108 0.387047 0.057598
0.200456 0.386070 0.053496
0.259653 0.384605 0.051001
0.321220 0.382957 0.054327
0.384502 0.380691 0.062769
0.452166 0.376202 0.066757
0.519519 0.370974 0.069622
0.585615 0.369106 0.083325
0.657234 0.374153 0.103812
0.724611 0.377893 0.120696
0.794824 0.379094 0.123679
0.857392 0.387277 0.148829
0.910691 0.400469 0.184776
0.960256 0.413990 0.215456
0.985887 0.449606 0.281846
0.143190 0.445651 0.056832
0.172565 0.445003 0.056644
0.215155 0.443879 0.057468
0.267523 0.442439 0.058386
0.323836 0.441082 0.059211
0.381833 0.439974 0.063437
0.442352 0.438644 0.070870
0.507934 0.435850 0.076344
0.575109 0.432919 0.081103
0.641965 0.431909 0.091615
0.714804 0.437869 0.111482
0.792496 0.447602 0.131425
0.862154 0.449123 0.135972
0.920662 0.455344 0.165433
0.971191 0.467099 0.206316
0.989195 0.504486 0.299147
0.176592 0.501208 0.067379
0.198375 0.500953 0.065562
0.232605 0.500493 0.063159
0.278376 0.499818 0.061584
0.330808 0.499134 0.063448
0.386349 0.498865 0.070258
0.443544 0.499462 0.077550
0.504026 0.500482 0.086929
0.570437 0.500953 0.095196
0.639456 0.501054 0.101891
0.707180 0.501349 0.111894
0.774834 0.502808 0.123834
0.851734 0.509773 0.133318
0.922260 0.514655 0.148045
0.975541 0.521130 0.189218
0.990962 0.554292 0.305397
0.212266 0.559820 0.087198
0.229413 0.559901 0.085708
0.257639 0.560066 0.083392
0.297310 0.560408 0.080525
0.344912 0.561129 0.077451
0.397730 0.562447 0.076972
0.453696 0.564405 0.081990
0.511701 0.566626 0.095555
0.572310 0.568687 0.108182
0.637268 0.569376 0.117784
0.704524 0.568942 0.123578
0.770983 0.568495 0.130227
0.837134 0.567848 0.133956
0.906255 0.569309 0.137544
0.975092 0.575598 0.161554
0.992240 0.605751 0.310184
0.252701 0.624499 0.116628
0.266293 0.624769 0.114837
0.289508 0.625229 0.111936
0.323578 0.625911 0.108112
0.366215 0.626807 0.104201
0.414823 0.627953 0.101165
0.467170 0.629445 0.099207
0.522000 0.631252 0.100410
0.578982 0.633149 0.107203
0.638574 0.634575 0.121789
0.701834 0.634855 0.133554
0.767701 0.634034 0.138769
0.833665 0.632959 0.139968
0.899220 0.631775 0.141129
0.962954 0.631574 0.152810
0.992719 0.653529 0.300487
0.296009 0.687431 0.154355
0.306467 0.687752 0.151880
0.324922 0.688286 0.147782
0.353169 0.689035 0.142176
0.390091 0.689936 0.136010
0.433814 0.690966 0.130350
0.482337 0.692165 0.126161
0.534012 0.693602 0.124182
0.587871 0.695307 0.124148
0.643884 0.697033 0.127003
0.702690 0.698254 0.132888
0.765049 0.698303 0.140613
0.830070 0.697245 0.145168
0.894990 0.696085 0.149874
0.958868 0.695275 0.159218
0.993380 0.707636 0.299891
0.342604 0.747148 0.200037
0.350680 0.747510 0.197539
0.365084 0.748152 0.192952
0.387632 0.749122 0.185745
0.418233 0.750316 0.176660
0.456168 0.751587 0.167413
0.499995 0.752883 0.159548
0.548028 0.754266 0.153905
0.598945 0.755819 0.151038
0.651990 0.757543 0.151104
0.707147 0.759261 0.153138
0.765067 0.760527 0.156397
0.826464 0.760751 0.160711
0.890585 0.759929 0.165364
0.954950 0.759277 0.172245
0.994381 0.768363 0.318479
0.389259 0.804959 0.245952
0.395836 0.805305 0.244005
0.407676 0.805924 0.240435
0.426393 0.806894 0.234641
0.452013 0.808200 0.226456
0.484127 0.809790 0.215930
0.522179 0.811541 0.204136
0.565413 0.813306 0.193408
0.612722 0.815062 0.185875
0.662857 0.816912 0.181823
0.715150 0.818876 0.181063
0.769657 0.820844 0.183092
0.827089 0.822668 0.186946
0.888261 0.824016 0.191523
0.952746 0.824744 0.197300
0.995526 0.831397 0.351791
0.435760 0.861662 0.291466
0.441217 0.862001 0.289911
0.451103 0.862612 0.287061
0.466883 0.863581 0.282438
0.488759 0.864909 0.275903
0.516582 0.866567 0.267454
0.549947 0.868504 0.257280
0.588292 0.870667 0.245868
0.631105 0.873076 0.234426
0.677719 0.875706 0.225017
0.727440 0.878581 0.219717
0.779745 0.881740 0.218575
0.834556 0.885024 0.220784
0.892170 0.888054 0.225190
0.952928 0.890292 0.230598
0.996801 0.894056 0.397300
0.483078 0.918348 0.337774
0.487708 0.918717 0.336550
0.496136 0.919391 0.334311
0.509690 0.920478 0.330686
0.528672 0.922005 0.325577
0.553113 0.923978 0.318984
0.582829 0.926380 0.311040
0.617471 0.929174 0.302052
0.656623 0.932315 0.292563
0.699707 0.935740 0.283417
0.746070 0.939368 0.275656
0.795174 0.943094 0.270343
0.846627 0.946751 0.268138
0.900265 0.950065 0.268825
0.956154 0.952613 0.271423
0.998109 0.953060 0.455586
0.533668 0.977649 0.387503
0.537643 0.978040 0.386535
0.544900 0.978753 0.384762
0.556623 0.979901 0.381881
0.573140 0.981508 0.377799
0.594562 0.983571 0.372483
0.620821 0.986058 0.365984
0.651693 0.988914 0.358453
0.687302 0.991898 0.351819
0.728571 0.994212 0.354951
0.773620 0.995942 0.369346
0.820605 0.997240 0.395256
0.867901 0.998209 0.432945
0.913925 0.998918 0.482929
0.956821 0.999417 0.546940
0.993602 0.999745 0.630904
0.000581 0.019136 0.181739
0.103338 0.012112 0.183149
0.186902 0.013563 0.186125
0.264779 0.022179 0.184458
0.337448 0.035965 0.182258
0.407386 0.049853 0.180444
0.475395 0.061147 0.178832
0.543655 0.064762 0.176226
0.604776 0.082203 0.176750
0.659097 0.106578 0.180239
0.709786 0.133627 0.187040
0.759024 0.163180 0.197872
0.808915 0.195467 0.213299
0.861152 0.231583 0.234169
0.914459 0.269662 0.258900
0.965683 0.306606 0.284567
0.005167 0.105985 0.189667
0.105307 0.105498 0.187597
0.186547 0.104723 0.186420
0.266371 0.102687 0.183840
0.342824 0.100214 0.179675
0.413618 0.101192 0.176076
0.479338 0.107511 0.174636
0.544857 0.111995 0.173293
0.609542 0.111881 0.170088
0.662325 0.131301 0.174810
0.712441 0.153732 0.182689
0.761830 0.179186 0.194282
0.812016 0.208635 0.210565
0.864593 0.242749 0.232296
0.917641 0.278836 0.257324
0.968177 0.314819 0.283658
0.015570 0.184453 0.184351
0.105182 0.183083 0.185332
0.182596 0.182194 0.181958
0.260944 0.179115 0.179765
0.341019 0.172732 0.173551
0.416325 0.166237 0.167420
0.482957 0.165952 0.166159
0.544296 0.170903 0.168546
0.606658 0.170196 0.166768
0.666236 0.170422 0.165009
0.716370 0.186447 0.174586
0.766335 0.206464 0.187719
0.817302 0.231743 0.205614
0.870474 0.262551 0.228795
0.923106 0.295269 0.254331
0.971881 0.330386 0.282681
0.025906 0.257659 0.174418
0.099127 0.258020 0.169784
0.179349 0.255656 0.165775
0.254111 0.252925 0.170510
0.328517 0.249768 0.170186
0.398420 0.248827 0.175099
0.471945 0.245307 0.171489
0.539725 0.240585 0.166748
0.600525 0.238374 0.165859
0.662121 0.233643 0.162048
0.721394 0.232904 0.161750
0.772552 0.247209 0.177636
0.825138 0.267452 0.198129
0.878990 0.293336 0.223081
0.931105 0.321160 0.249311
0.976308 0.356008 0.282406
0.046598 0.326339 0.156407
0.103814 0.326914 0.149102
0.176476 0.325433 0.143071
0.251473 0.322611 0.142864
0.322199 0.319647 0.152484
0.395403 0.314927 0.151996
0.464811 0.312971 0.158227
0.530607 0.314823 0.173326
0.597752 0.311204 0.170423
0.661410 0.307956 0.169023
0.724213 0.304062 0.166761
0.785167 0.304282 0.169382
0.838740 0.318675 0.192417
0.891690 0.337106 0.217535
0.942617 0.358214 0.243706
0.980998 0.393365 0.285811
0.082845 0.390068 0.141197
0.126264 0.389979 0.135767
0.183324 0.389244 0.127523
0.249608 0.387403 0.118873
0.317622 0.384427 0.119779
0.384407 0.380792 0.129947
0.454755 0.375073 0.129670
0.524390 0.368995 0.127456
0.590783 0.370699 0.148259
0.660269 0.375202 0.165139
0.725888 0.376814 0.173403
0.795051 0.377857 0.176327
0.858180 0.382961 0.188715
0.909954 0.394606 0.214934
0.959143 0.408020 0.240140
0.985691 0.444188 0.298534
0.114085 0.448601 0.125524
0.149291 0.448016 0.123409
0.196472 0.447208 0.117554
0.253636 0.445965 0.107899
0.315853 0.444042 0.100466
0.379175 0.441697 0.102976
0.443258 0.439015 0.112954
0.511863 0.434798 0.116001
0.581186 0.430507 0.117201
0.649038 0.430070 0.131710
0.723274 0.439864 0.160725
0.794690 0.447886 0.181611
0.864487 0.447235 0.180000
0.923251 0.452945 0.201405
0.972396 0.465047 0.236388
0.989308 0.501968 0.317557
0.134567 0.506292 0.103063
0.163227 0.505987 0.100034
0.206203 0.505263 0.096513
0.261203 0.503893 0.095818
0.320732 0.502372 0.097704
0.380999 0.501400 0.098734
0.442010 0.501028 0.105150
0.505235 0.501013 0.116660
0.573988 0.500368 0.124811
0.644436 0.499432 0.130480
0.712391 0.499170 0.142802
0.780872 0.502519 0.161655
0.857356 0.511303 0.178632
0.926421 0.512086 0.181596
0.977154 0.519755 0.221390
0.991227 0.553962 0.326120
0.182603 0.564032 0.116847
0.202293 0.564195 0.113503
0.234183 0.564456 0.107864
0.278658 0.564754 0.100641
0.331910 0.565035 0.095623
0.390068 0.565555 0.096527
0.450332 0.566426 0.107870
0.510900 0.567857 0.120989
0.573293 0.569129 0.135296
0.639787 0.568998 0.145006
0.708102 0.567850 0.149877
0.774865 0.566909 0.157955
0.840660 0.566190 0.165480
0.913482 0.568404 0.165317
0.977997 0.575808 0.198707
0.992493 0.605534 0.330397
0.233845 0.627515 0.145741
0.248179 0.627881 0.142587
0.272730 0.628467 0.137349
0.308902 0.629241 0.130170
0.354419 0.630060 0.122792
0.406182 0.630940 0.116269
0.461705 0.631927 0.112654
0.519360 0.633036 0.115463
0.578454 0.634082 0.130921
0.639284 0.634890 0.148835
0.703581 0.634608 0.160591
0.770258 0.633284 0.164753
0.836546 0.631836 0.167242
0.903268 0.629897 0.163584
0.968727 0.629299 0.169980
0.993144 0.654738 0.324225
0.284919 0.689318 0.182643
0.295602 0.689693 0.179740
0.314312 0.690347 0.174423
0.342933 0.691288 0.166287
0.380696 0.692354 0.156568
0.425973 0.693388 0.147406
0.476523 0.694387 0.140531
0.530246 0.695485 0.136414
0.585968 0.696750 0.135308
0.643561 0.697941 0.139718
0.703494 0.698581 0.151261
0.766652 0.698124 0.162653
0.832494 0.696595 0.166238
0.898506 0.694832 0.166213
0.963197 0.693423 0.172581
0.993655 0.707463 0.319952
0.334128 0.748702 0.221899
0.342527 0.749052 0.219586
0.357476 0.749673 0.215348
0.380719 0.750627 0.208479
0.411888 0.751871 0.198826
0.450231 0.753278 0.187141
0.494783 0.754653 0.175903
0.544029 0.755937 0.167589
0.596334 0.757245 0.163048
0.650682 0.758652 0.162026
0.707000 0.760009 0.163260
0.765957 0.760848 0.167253
0.828337 0.760585 0.172190
0.893282 0.759284 0.176777
0.958281 0.758201 0.183165
0.994631 0.768260 0.337136
0.382162 0.806359 0.262534
0.388942 0.806696 0.260667
0.401133 0.807300 0.257248
0.420377 0.808244 0.251705
0.446666 0.809509 0.243894
0.479546 0.811040 0.233869
0.518281 0.812757 0.221997
0.562058 0.814545 0.209631
0.610027 0.816285 0.199551
0.661050 0.817991 0.193774
0.714256 0.819728 0.192110
0.769616 0.821431 0.193702
0.827878 0.822955 0.196868
0.889901 0.823938 0.200802
0.955136 0.824271 0.205991
0.995733 0.831340 0.368430
0.429741 0.862935 0.304416
0.435330 0.863268 0.302896
0.445450 0.863868 0.300112
0.461589 0.864818 0.295596
0.483937 0.866117 0.289217
0.512323 0.867732 0.280978
0.546316 0.869609 0.271076
0.585330 0.871696 0.260006
0.628797 0.874024 0.248758
0.676008 0.876577 0.238918
0.726292 0.879376 0.232384
0.779197 0.882402 0.230306
0.834599 0.885499 0.232118
0.892778 0.888303 0.236381
0.954105 0.890270 0.241581
0.996933 0.894009 0.411844
0.477944 0.919534 0.348140
0.482663 0.919900 0.346931
0.491252 0.920567 0.344718
0.505058 0.921641 0.341136
0.524378 0.923150 0.336086
0.549233 0.925095 0.329571
0.579424 0.927456 0.321721
0.614584 0.930195 0.312844
0.654281 0.933264 0.303483
0.697911 0.936596 0.294485
0.744802 0.940114 0.286887
0.794392 0.943714 0.281717
0.846279 0.947234 0.279598
0.900308 0.950397 0.280357
0.956559 0.952772 0.283102
0.998181 0.953007 0.467504
0.529258 0.978759 0.395939
0.533294 0.979147 0.394975
0.540662 0.979853 0.393208
0.552561 0.980990 0.390337
0.569317 0.982580 0.386266
0.591040 0.984618 0.380965
0.617650 0.987072 0.374480
0.648925 0.989879 0.366989
0.685638 0.992543 0.362809
0.727727 0.994585 0.367824
0.773220 0.996153 0.382667
0.820439 0.997355 0.407963
0.867859 0.998268 0.444326
0.913957 0.998946 0.492550
0.956925 0.999430 0.554524
0.993817 0.999749 0.636244
0.000806 0.032260 0.245414
0.102088 0.022297 0.260768
0.184002 0.024417 0.261959
0.260922 0.033143 0.259618
0.333230 0.047031 0.256544
0.401780 0.063286 0.253794
0.469308 0.075450 0.251617
0.540038 0.073023 0.248488
0.602416 0.085833 0.245956
0.657603 0.107583 0.245023
0.709471 0.132168 0.246567
0.759642 0.160536 0.251926
0.810212 0.192533 0.262012
0.862949 0.228809 0.277792
0.916352 0.266956 0.297633
0.967347 0.304362 0.319139
0.006272 0.106927 0.270098
0.104052 0.106131 0.269152
0.185313 0.104762 0.267395
0.263835 0.103729 0.263511
0.337515 0.105329 0.258212
0.405909 0.111310 0.253477
0.472003 0.118404 0.250239
0.539489 0.120512 0.247225
0.606895 0.114912 0.241967
0.661601 0.130212 0.240900
0.712757 0.151062 0.243014
0.762927 0.175845 0.248907
0.813674 0.205277 0.259667
0.866635 0.239672 0.276142
0.919709 0.275915 0.296189
0.969753 0.312738 0.318451
0.011382 0.183993 0.265256
0.095280 0.183080 0.270387
0.181470 0.181121 0.262310
0.259472 0.178432 0.259481
0.336766 0.174076 0.255396
0.410685 0.169745 0.249858
0.479101 0.168649 0.245186
0.542730 0.171102 0.242290
0.606207 0.168706 0.237737
0.667105 0.166640 0.233015
0.717934 0.182050 0.236188
0.768337 0.202088 0.243272
0.819630 0.227734 0.255357
0.872964 0.258992 0.273005
0.925494 0.291996 0.293415
0.973323 0.328553 0.317738
0.024730 0.256475 0.256364
0.092917 0.256863 0.258152
0.176003 0.254174 0.256164
0.252564 0.252102 0.252035
0.328227 0.248288 0.248995
0.407302 0.241059 0.241931
0.481800 0.232933 0.234362
0.546505 0.229140 0.230472
0.604562 0.229667 0.229737
0.664824 0.226789 0.226588
0.724280 0.226290 0.224606
0.775598 0.241404 0.234101
0.828281 0.262520 0.248531
0.882022 0.289050 0.267647
0.933923 0.317367 0.288634
0.977571 0.354429 0.317579
0.035999 0.325294 0.246428
0.083786 0.327225 0.242680
0.165539 0.325652 0.238822
0.246562 0.322451 0.234014
0.319993 0.319003 0.237607
0.393682 0.315045 0.235545
0.463867 0.314270 0.240570
0.533728 0.307967 0.234395
0.599478 0.300481 0.226844
0.659444 0.296581 0.224306
0.721242 0.292992 0.221887
0.783916 0.293385 0.222543
0.838728 0.309505 0.239785
0.892486 0.329657 0.259922
0.944041 0.352212 0.281601
0.981642 0.390096 0.318679
0.057864 0.390508 0.229940
0.093427 0.392186 0.222860
0.163255 0.391347 0.216649
0.238997 0.388868 0.209111
0.313779 0.384698 0.207637
0.382840 0.380305 0.214793
0.454345 0.374387 0.212520
0.524395 0.372023 0.216193
0.591731 0.376744 0.234170
0.660008 0.374330 0.232465
0.726314 0.372664 0.232131
0.791652 0.371920 0.233380
0.855403 0.372322 0.235218
0.907275 0.383942 0.254225
0.957412 0.398833 0.275111
0.985542 0.436889 0.324926
0.089091 0.449655 0.211821
0.122874 0.450034 0.206705
0.176227 0.449543 0.200325
0.239593 0.448328 0.190858
0.307882 0.445902 0.182388
0.376067 0.442550 0.183117
0.442591 0.439008 0.191592
0.513301 0.434009 0.191412
0.584292 0.429460 0.190390
0.654352 0.433642 0.209575
0.728773 0.443795 0.231809
0.796394 0.446771 0.240389
0.863985 0.446773 0.242109
0.925421 0.448504 0.249109
0.972760 0.459035 0.274510
0.989246 0.495735 0.342010
0.112015 0.507643 0.191606
0.145683 0.507297 0.189793
0.193774 0.506472 0.187703
0.250244 0.505611 0.182148
0.311328 0.504675 0.173799
0.375285 0.503476 0.167977
