entry/src/main/resources/rawfile/filters/TeaFilm.cube
TITLE "Tea Film"
LUT_3D_SIZE 16
0.030000 0.020000 0.000000
0.122645 0.020000 0.000000
0.202882 0.020000 0.000000
0.279019 0.020000 0.000000
0.352610 0.020000 0.000000
0.424364 0.020000 0.000000
0.494686 0.020000 0.000000
0.563841 0.020000 0.000000
0.632011 0.020000 0.000000
0.699333 0.020000 0.000000
0.765908 0.020000 0.000000
0.831820 0.020000 0.000000
0.897135 0.020000 0.000000
0.961907 0.020000 0.000000
1.000000 0.020000 0.000000
1.000000 0.020000 0.000000
0.030000 0.088969 0.000000
0.122645 0.088969 0.000000
0.202882 0.088969 0.000000
0.279019 0.088969 0.000000
0.352610 0.088969 0.000000
0.424364 0.088969 0.000000
0.494686 0.088969 0.000000
0.563841 0.088969 0.000000
0.632011 0.088969 0.000000
0.699333 0.088969 0.000000
0.765908 0.088969 0.000000
0.831820 0.088969 0.000000
0.897135 0.088969 0.000000
0.961907 0.088969 0.000000
1.000000 0.088969 0.000000
1.000000 0.088969 0.000000
0.030000 0.156040 0.000000
0.122645 0.156040 0.000000
0.202882 0.156040 0.000000
0.279019 0.156040 0.000000
0.352610 0.156040 0.000000
0.424364 0.156040 0.000000
0.494686 0.156040 0.000000
0.563841 0.156040 0.000000
0.632011 0.156040 0.000000
0.699333 0.156040 0.000000
0.765908 0.156040 0.000000
0.831820 0.156040 0.000000
0.897135 0.156040 0.000000
0.961907 0.156040 0.000000
1.000000 0.156040 0.000000
1.000000 0.156040 0.000000
0.030000 0.222412 0.000000
0.122645 0.222412 0.000000
0.202882 0.222412 0.000000
0.279019 0.222412 0.000000
0.352610 0.222412 0.000000
0.424364 0.222412 0.000000
0.494686 0.222412 0.000000
0.563841 0.222412 0.000000
0.632011 0.222412 0.000000
0.699333 0.222412 0.000000
0.765908 0.222412 0.000000
0.831820 0.222412 0.000000
0.897135 0.222412 0.000000
0.961907 0.222412 0.000000
1.000000 0.222412 0.000000
1.000000 0.222412 0.000000
0.030000 0.288334 0.000000
0.122645 0.288334 0.000000
0.202882 0.288334 0.000000
0.279019 0.288334 0.000000
0.352610 0.288334 0.000000
0.424364 0.288334 0.000000
0.494686 0.288334 0.000000
0.563841 0.288334 0.000000
0.632011 0.288334 0.000000
0.699333 0.288334 0.000000
0.765908 0.288334 0.000000
0.831820 0.288334 0.000000
0.897135 0.288334 0.000000
0.961907 0.288334 0.000000
1.000000 0.288334 0.000000
1.000000 0.288334 0.000000
0.030000 0.353924 0.000000
0.122645 0.353924 0.000000
0.202882 0.353924 0.000000
0.279019 0.353924 0.000000
0.352610 0.353924 0.000000
0.424364 0.353924 0.000000
0.494686 0.353924 0.000000
0.563841 0.353924 0.000000
0.632011 0.353924 0.000000
0.699333 0.353924 0.000000
0.765908 0.353924 0.000000
0.831820 0.353924 0.000000
0.897135 0.353924 0.000000
0.961907 0.353924 0.000000
1.000000 0.353924 0.000000
1.000000 0.353924 0.000000
0.030000 0.419250 0.000000
0.122645 0.419250 0.000000
0.202882 0.419250 0.000000
0.279019 0.419250 0.000000
0.352610 0.419250 0.000000
0.424364 0.419250 0.000000
0.494686 0.419250 0.000000
0.563841 0.419250 0.000000
0.632011 0.419250 0.000000
0.699333 0.419250 0.000000
0.765908 0.419250 0.000000
0.831820 0.419250 0.000000
0.897135 0.419250 0.000000
0.961907 0.419250 0.000000
1.000000 0.419250 0.000000
1.000000 0.419250 0.000000
0.030000 0.484358 0.000000
0.122645 0.484358 0.000000
0.202882 0.484358 0.000000
0.279019 0.484358 0.000000
0.352610 0.484358 0.000000
0.424364 0.484358 0.000000
0.494686 0.484358 0.000000
0.563841 0.484358 0.000000
0.632011 0.484358 0.000000
0.699333 0.484358 0.000000
0.765908 0.484358 0.000000
0.831820 0.484358 0.000000
0.897135 0.484358 0.000000
0.961907 0.484358 0.000000
1.000000 0.484358 0.000000
1.000000 0.484358 0.000000
0.030000 0.549279 0.000000
0.122645 0.549279 0.000000
0.202882 0.549279 0.000000
0.279019 0.549279 0.000000
0.352610 0.549279 0.000000
0.424364 0.549279 0.000000
0.494686 0.549279 0.000000
0.563841 0.549279 0.000000
0.632011 0.549279 0.000000
0.699333 0.549279 0.000000
0.765908 0.549279 0.000000
0.831820 0.549279 0.000000
0.897135 0.549279 0.000000
0.961907 0.549279 0.000000
1.000000 0.549279 0.000000
1.000000 0.549279 0.000000
0.030000 0.614038 0.000000
0.122645 0.614038 0.000000
0.202882 0.614038 0.000000
0.279019 0.614038 0.000000
0.352610 0.614038 0.000000
0.424364 0.614038 0.000000
0.494686 0.614038 0.000000
0.563841 0.614038 0.000000
0.632011 0.614038 0.000000
0.699333 0.614038 0.000000
0.765908 0.614038 0.000000
0.831820 0.614038 0.000000
0.897135 0.614038 0.000000
0.961907 0.614038 0.000000
1.000000 0.614038 0.000000
1.000000 0.614038 0.000000
0.030000 0.678653 0.000000
0.122645 0.678653 0.000000
0.202882 0.678653 0.000000
0.279019 0.678653 0.000000
0.352610 0.678653 0.000000
0.424364 0.678653 0.000000
0.494686 0.678653 0.000000
0.563841 0.678653 0.000000
0.632011 0.678653 0.000000
0.699333 0.678653 0.000000
0.765908 0.678653 0.000000
0.831820 0.678653 0.000000
0.897135 0.678653 0.000000
0.961907 0.678653 0.000000
1.000000 0.678653 0.000000
1.000000 0.678653 0.000000
0.030000 0.743138 0.000000
0.122645 0.743138 0.000000
0.202882 0.743138 0.000000
0.279019 0.743138 0.000000
0.352610 0.743138 0.000000
0.424364 0.743138 0.000000
0.494686 0.743138 0.000000
0.563841 0.743138 0.000000
0.632011 0.743138 0.000000
0.699333 0.743138 0.000000
0.765908 0.743138 0.000000
0.831820 0.743138 0.000000
0.897135 0.743138 0.000000
0.961907 0.743138 0.000000
1.000000 0.743138 0.000000
1.000000 0.743138 0.000000
0.030000 0.807507 0.000000
0.122645 0.807507 0.000000
0.202882 0.807507 0.000000
0.279019 0.807507 0.000000
0.352610 0.807507 0.000000
0.424364 0.807507 0.000000
0.494686 0.807507 0.000000
0.563841 0.807507 0.000000
0.632011 0.807507 0.000000
0.699333 0.807507 0.000000
0.765908 0.807507 0.000000
0.831820 0.807507 0.000000
0.897135 0.807507 0.000000
0.961907 0.807507 0.000000
1.000000 0.807507 0.000000
1.000000 0.807507 0.000000
0.030000 0.871768 0.000000
0.122645 0.871768 0.000000
0.202882 0.871768 0.000000
0.279019 0.871768 0.000000
0.352610 0.871768 0.000000
0.424364 0.871768 0.000000
0.494686 0.871768 0.000000
0.563841 0.871768 0.000000
0.632011 0.871768 0.000000
0.699333 0.871768 0.000000
0.765908 0.871768 0.000000
0.831820 0.871768 0.000000
0.897135 0.871768 0.000000
0.961907 0.871768 0.000000
1.000000 0.871768 0.000000
1.000000 0.871768 0.000000
0.030000 0.935930 0.000000
0.122645 0.935930 0.000000
0.202882 0.935930 0.000000
0.279019 0.935930 0.000000
0.352610 0.935930 0.000000
0.424364 0.935930 0.000000
0.494686 0.935930 0.000000
0.563841 0.935930 0.000000
0.632011 0.935930 0.000000
0.699333 0.935930 0.000000
0.765908 0.935930 0.000000
0.831820 0.935930 0.000000
0.897135 0.935930 0.000000
0.961907 0.935930 0.000000
1.000000 0.935930 0.000000
1.000000 0.935930 0.000000
0.030000 1.000000 0.000000
0.122645 1.000000 0.000000
0.202882 1.000000 0.000000
0.279019 1.000000 0.000000
0.352610 1.000000 0.000000
0.424364 1.000000 0.000000
0.494686 1.000000 0.000000
0.563841 1.000000 0.000000
0.632011 1.000000 0.000000
0.699333 1.000000 0.000000
0.765908 1.000000 0.000000
0.831820 1.000000 0.000000
0.897135 1.000000 0.000000
0.961907 1.000000 0.000000
1.000000 1.000000 0.000000
1.000000 1.000000 0.000000
0.030000 0.020000 0.035529
0.122645 0.020000 0.035529
0.202882 0.020000 0.035529
0.279019 0.020000 0.035529
0.352610 0.020000 0.035529
0.424364 0.020000 0.035529
0.494686 0.020000 0.035529
0.563841 0.020000 0.035529
0.632011 0.020000 0.035529
0.699333 0.020000 0.035529
0.765908 0.020000 0.035529
0.831820 0.020000 0.035529
0.897135 0.020000 0.035529
0.961907 0.020000 0.035529
1.000000 0.020000 0.035529
1.000000 0.020000 0.035529
0.030000 0.088969 0.035529
0.122645 0.088969 0.035529
0.202882 0.088969 0.035529
0.279019 0.088969 0.035529
0.352610 0.088969 0.035529
0.424364 0.088969 0.035529
0.494686 0.088969 0.035529
0.563841 0.088969 0.035529
0.632011 0.088969 0.035529
0.699333 0.088969 0.035529
0.765908 0.088969 0.035529
0.831820 0.088969 0.035529
0.897135 0.088969 0.035529
0.961907 0.088969 0.035529
1.000000 0.088969 0.035529
1.000000 0.088969 0.035529
0.030000 0.156040 0.035529
0.122645 0.156040 0.035529
0.202882 0.156040 0.035529
0.279019 0.156040 0.035529
0.352610 0.156040 0.035529
0.424364 0.156040 0.035529
0.494686 0.156040 0.035529
0.563841 0.156040 0.035529
0.632011 0.156040 0.035529
0.699333 0.156040 0.035529
0.765908 0.156040 0.035529
0.831820 0.156040 0.035529
0.897135 0.156040 0.035529
0.961907 0.156040 0.035529
1.000000 0.156040 0.035529
1.000000 0.156040 0.035529
0.030000 0.222412 0.035529
0.122645 0.222412 0.035529
0.202882 0.222412 0.035529
0.279019 0.222412 0.035529
0.352610 0.222412 0.035529
0.424364 0.222412 0.035529
0.494686 0.222412 0.035529
0.563841 0.222412 0.035529
0.632011 0.222412 0.035529
0.699333 0.222412 0.035529
0.765908 0.222412 0.035529
0.831820 0.222412 0.035529
0.897135 0.222412 0.035529
0.961907 0.222412 0.035529
1.000000 0.222412 0.035529
1.000000 0.222412 0.035529
0.030000 0.288334 0.035529
0.122645 0.288334 0.035529
0.202882 0.288334 0.035529
0.279019 0.288334 0.035529
0.352610 0.288334 0.035529
0.424364 0.288334 0.035529
0.494686 0.288334 0.035529
0.563841 0.288334 0.035529
0.632011 0.288334 0.035529
0.699333 0.288334 0.035529
0.765908 0.288334 0.035529
0.831820 0.288334 0.035529
0.897135 0.288334 0.035529
0.961907 0.288334 0.035529
1.000000 0.288334 0.035529
1.000000 0.288334 0.035529
0.030000 0.353924 0.035529
0.122645 0.353924 0.035529
0.202882 0.353924 0.035529
0.279019 0.353924 0.035529
0.352610 0.353924 0.035529
0.424364 0.353924 0.035529
0.494686 0.353924 0.035529
0.563841 0.353924 0.035529
0.632011 0.353924 0.035529
0.699333 0.353924 0.035529
0.765908 0.353924 0.035529
0.831820 0.353924 0.035529
0.897135 0.353924 0.035529
0.961907 0.353924 0.035529
1.000000 0.353924 0.035529
1.000000 0.353924 0.035529
0.030000 0.419250 0.035529
0.122645 0.419250 0.035529
0.202882 0.419250 0.035529
0.279019 0.419250 0.035529
0.352610 0.419250 0.035529
0.424364 0.419250 0.035529
0.494686 0.419250 0.035529
0.563841 0.419250 0.035529
0.632011 0.419250 0.035529
0.699333 0.419250 0.035529
0.765908 0.419250 0.035529
0.831820 0.419250 0.035529
0.897135 0.419250 0.035529
0.961907 0.419250 0.035529
1.000000 0.419250 0.035529
1.000000 0.419250 0.035529
0.030000 0.484358 0.035529
0.122645 0.484358 0.035529
0.202882 0.484358 0.035529
0.279019 0.484358 0.035529
0.352610 0.484358 0.035529
0.424364 0.484358 0.035529
0.494686 0.484358 0.035529
0.563841 0.484358 0.035529
0.632011 0.484358 0.035529
0.699333 0.484358 0.035529
0.765908 0.484358 0.035529
0.831820 0.484358 0.035529
0.897135 0.484358 0.035529
0.961907 0.484358 0.035529
1.000000 0.484358 0.035529
1.000000 0.484358 0.035529
0.030000 0.549279 0.035529
0.122645 0.549279 0.035529
0.202882 0.549279 0.035529
0.279019 0.549279 0.035529
0.352610 0.549279 0.035529
0.424364 0.549279 0.035529
0.494686 0.549279 0.035529
0.563841 0.549279 0.035529
0.632011 0.549279 0.035529
0.699333 0.549279 0.035529
0.765908 0.549279 0.035529
0.831820 0.549279 0.035529
0.897135 0.549279 0.035529
0.961907 0.549279 0.035529
1.000000 0.549279 0.035529
1.000000 0.549279 0.035529
0.030000 0.614038 0.035529
0.122645 0.614038 0.035529
0.202882 0.614038 0.035529
0.279019 0.614038 0.035529
0.352610 0.614038 0.035529
0.424364 0.614038 0.035529
0.494686 0.614038 0.035529
0.563841 0.614038 0.035529
0.632011 0.614038 0.035529
0.699333 0.614038 0.035529
0.765908 0.614038 0.035529
0.831820 0.614038 0.035529
0.897135 0.614038 0.035529
0.961907 0.614038 0.035529
1.000000 0.614038 0.035529
1.000000 0.614038 0.035529
0.030000 0.678653 0.035529
0.122645 0.678653 0.035529
0.202882 0.678653 0.035529
0.279019 0.678653 0.035529
0.352610 0.678653 0.035529
0.424364 0.678653 0.035529
0.494686 0.678653 0.035529
0.563841 0.678653 0.035529
0.632011 0.678653 0.035529
0.699333 0.678653 0.035529
0.765908 0.678653 0.035529
0.831820 0.678653 0.035529
0.897135 0.678653 0.035529
0.961907 0.678653 0.035529
1.000000 0.678653 0.035529
1.000000 0.678653 0.035529
0.030000 0.743138 0.035529
0.122645 0.743138 0.035529
0.202882 0.743138 0.035529
0.279019 0.743138 0.035529
0.352610 0.743138 0.035529
0.424364 0.743138 0.035529
0.494686 0.743138 0.035529
0.563841 0.743138 0.035529
0.632011 0.743138 0.035529
0.699333 0.743138 0.035529
0.765908 0.743138 0.035529
0.831820 0.743138 0.035529
0.897135 0.743138 0.035529
0.961907 0.743138 0.035529
1.000000 0.743138 0.035529
1.000000 0.743138 0.035529
0.030000 0.807507 0.035529
0.122645 0.807507 0.035529
0.202882 0.807507 0.035529
0.279019 0.807507 0.035529
0.352610 0.807507 0.035529
0.424364 0.807507 0.035529
0.494686 0.807507 0.035529
0.563841 0.807507 0.035529
0.632011 0.807507 0.035529
0.699333 0.807507 0.035529
0.765908 0.807507 0.035529
0.831820 0.807507 0.035529
0.897135 0.807507 0.035529
0.961907 0.807507 0.035529
1.000000 0.807507 0.035529
1.000000 0.807507 0.035529
0.030000 0.871768 0.035529
0.122645 0.871768 0.035529
0.202882 0.871768 0.035529
0.279019 0.871768 0.035529
0.352610 0.871768 0.035529
0.424364 0.871768 0.035529
0.494686 0.871768 0.035529
0.563841 0.871768 0.035529
0.632011 0.871768 0.035529
0.699333 0.871768 0.035529
0.765908 0.871768 0.035529
0.831820 0.871768 0.035529
0.897135 0.871768 0.035529
0.961907 0.871768 0.035529
1.000000 0.871768 0.035529
1.000000 0.871768 0.035529
0.030000 0.935930 0.035529
0.122645 0.935930 0.035529
0.202882 0.935930 0.035529
0.279019 0.935930 0.035529
0.352610 0.935930 0.035529
0.424364 0.935930 0.035529
0.494686 0.935930 0.035529
0.563841 0.935930 0.035529
0.632011 0.935930 0.035529
0.699333 0.935930 0.035529
0.765908 0.935930 0.035529
0.831820 0.935930 0.035529
0.897135 0.935930 0.035529
0.961907 0.935930 0.035529
1.000000 0.935930 0.035529
1.000000 0.935930 0.035529
0.030000 1.000000 0.035529
0.122645 1.000000 0.035529
0.202882 1.000000 0.035529
0.279019 1.000000 0.035529
0.352610 1.000000 0.035529
0.424364 1.000000 0.035529
0.494686 1.000000 0.035529
0.563841 1.000000 0.035529
0.632011 1.000000 0.035529
0.699333 1.000000 0.035529
0.765908 1.000000 0.035529
0.831820 1.000000 0.035529
0.897135 1.000000 0.035529
0.961907 1.000000 0.035529
1.000000 1.000000 0.035529
1.000000 1.000000 0.035529
0.030000 0.020000 0.078844
0.122645 0.020000 0.078844
0.202882 0.020000 0.078844
0.279019 0.020000 0.078844
0.352610 0.020000 0.078844
0.424364 0.020000 0.078844
0.494686 0.020000 0.078844
0.563841 0.020000 0.078844
0.632011 0.020000 0.078844
0.699333 0.020000 0.078844
0.765908 0.020000 0.078844
0.831820 0.020000 0.078844
0.897135 0.020000 0.078844
0.961907 0.020000 0.078844
1.000000 0.020000 0.078844
1.000000 0.020000 0.078844
0.030000 0.088969 0.078844
0.122645 0.088969 0.078844
0.202882 0.088969 0.078844
0.279019 0.088969 0.078844
0.352610 0.088969 0.078844
0.424364 0.088969 0.078844
0.494686 0.088969 0.078844
0.563841 0.088969 0.078844
0.632011 0.088969 0.078844
0.699333 0.088969 0.078844
0.765908 0.088969 0.078844
0.831820 0.088969 0.078844
0.897135 0.088969 0.078844
0.961907 0.088969 0.078844
1.000000 0.088969 0.078844
1.000000 0.088969 0.078844
0.030000 0.156040 0.078844
0.122645 0.156040 0.078844
0.202882 0.156040 0.078844
0.279019 0.156040 0.078844
0.352610 0.156040 0.078844
0.424364 0.156040 0.078844
0.494686 0.156040 0.078844
0.563841 0.156040 0.078844
0.632011 0.156040 0.078844
0.699333 0.156040 0.078844
0.765908 0.156040 0.078844
0.831820 0.156040 0.078844
0.897135 0.156040 0.078844
0.961907 0.156040 0.078844
1.000000 0.156040 0.078844
1.000000 0.156040 0.078844
0.030000 0.222412 0.078844
0.122645 0.222412 0.078844
0.202882 0.222412 0.078844
0.279019 0.222412 0.078844
0.352610 0.222412 0.078844
0.424364 0.222412 0.078844
0.494686 0.222412 0.078844
0.563841 0.222412 0.078844
0.632011 0.222412 0.078844
0.699333 0.222412 0.078844
0.765908 0.222412 0.078844
0.831820 0.222412 0.078844
0.897135 0.222412 0.078844
0.961907 0.222412 0.078844
1.000000 0.222412 0.078844
1.000000 0.222412 0.078844
0.030000 0.288334 0.078844
0.122645 0.288334 0.078844
0.202882 0.288334 0.078844
0.279019 0.288334 0.078844
0.352610 0.288334 0.078844
0.424364 0.288334 0.078844
0.494686 0.288334 0.078844
0.563841 0.288334 0.078844
0.632011 0.288334 0.078844
0.699333 0.288334 0.078844
0.765908 0.288334 0.078844
0.831820 0.288334 0.078844
0.897135 0.288334 0.078844
0.961907 0.288334 0.078844
1.000000 0.288334 0.078844
1.000000 0.288334 0.078844
0.030000 0.353924 0.078844
0.122645 0.353924 0.078844
0.202882 0.353924 0.078844
0.279019 0.353924 0.078844
0.352610 0.353924 0.078844
0.424364 0.353924 0.078844
0.494686 0.353924 0.078844
0.563841 0.353924 0.078844
0.632011 0.353924 0.078844
0.699333 0.353924 0.078844
0.765908 0.353924 0.078844
0.831820 0.353924 0.078844
0.897135 0.353924 0.078844
0.961907 0.353924 0.078844
1.000000 0.353924 0.078844
1.000000 0.353924 0.078844
0.030000 0.419250 0.078844
0.122645 0.419250 0.078844
0.202882 0.419250 0.078844
0.279019 0.419250 0.078844
0.352610 0.419250 0.078844
0.424364 0.419250 0.078844
0.494686 0.419250 0.078844
0.563841 0.419250 0.078844
0.632011 0.419250 0.078844
0.699333 0.419250 0.078844
0.765908 0.419250 0.078844
0.831820 0.419250 0.078844
0.897135 0.419250 0.078844
0.961907 0.419250 0.078844
1.000000 0.419250 0.078844
1.000000 0.419250 0.078844
0.030000 0.484358 0.078844
0.122645 0.484358 0.078844
0.202882 0.484358 0.078844
0.279019 0.484358 0.078844
0.352610 0.484358 0.078844
0.424364 0.484358 0.078844
0.494686 0.484358 0.078844
0.563841 0.484358 0.078844
0.632011 0.484358 0.078844
0.699333 0.484358 0.078844
0.765908 0.484358 0.078844
0.831820 0.484358 0.078844
0.897135 0.484358 0.078844
0.961907 0.484358 0.078844
1.000000 0.484358 0.078844
1.000000 0.484358 0.078844
0.030000 0.549279 0.078844
0.122645 0.549279 0.078844
0.202882 0.549279 0.078844
0.279019 0.549279 0.078844
0.352610 0.549279 0.078844
0.424364 0.549279 0.078844
0.494686 0.549279 0.078844
0.563841 0.549279 0.078844
0.632011 0.549279 0.078844
0.699333 0.549279 0.078844
0.765908 0.549279 0.078844
0.831820 0.549279 0.078844
0.897135 0.549279 0.078844
0.961907 0.549279 0.078844
1.000000 0.549279 0.078844
1.000000 0.549279 0.078844
0.030000 0.614038 0.078844
0.122645 0.614038 0.078844
0.202882 0.614038 0.078844
0.279019 0.614038 0.078844
0.352610 0.614038 0.078844
0.424364 0.614038 0.078844
0.494686 0.614038 0.078844
0.563841 0.614038 0.078844
0.632011 0.614038 0.078844
0.699333 0.614038 0.078844
0.765908 0.614038 0.078844
0.831820 0.614038 0.078844
0.897135 0.614038 0.078844
0.961907 0.614038 0.078844
1.000000 0.614038 0.078844
1.000000 0.614038 0.078844
0.030000 0.678653 0.078844
0.122645 0.678653 0.078844
0.202882 0.678653 0.078844
0.279019 0.678653 0.078844
0.352610 0.678653 0.078844
0.424364 0.678653 0.078844
0.494686 0.678653 0.078844
0.563841 0.678653 0.078844
0.632011 0.678653 0.078844
0.699333 0.678653 0.078844
0.765908 0.678653 0.078844
0.831820 0.678653 0.078844
0.897135 0.678653 0.078844
0.961907 0.678653 0.078844
1.000000 0.678653 0.078844
1.000000 0.678653 0.078844
0.030000 0.743138 0.078844
0.122645 0.743138 0.078844
0.202882 0.743138 0.078844
0.279019 0.743138 0.078844
0.352610 0.743138 0.078844
0.424364 0.743138 0.078844
0.494686 0.743138 0.078844
0.563841 0.743138 0.078844
0.632011 0.743138 0.078844
0.699333 0.743138 0.078844
0.765908 0.743138 0.078844
0.831820 0.743138 0.078844
0.897135 0.743138 0.078844
0.961907 0.743138 0.078844
1.000000 0.743138 0.078844
1.000000 0.743138 0.078844
0.030000 0.807507 0.078844
0.122645 0.807507 0.078844
0.202882 0.807507 0.078844
0.279019 0.807507 0.078844
0.352610 0.807507 0.078844
0.424364 0.807507 0.078844
0.494686 0.807507 0.078844
0.563841 0.807507 0.078844
0.632011 0.807507 0.078844
0.699333 0.807507 0.078844
0.765908 0.807507 0.078844
0.831820 0.807507 0.078844
0.897135 0.807507 0.078844
0.961907 0.807507 0.078844
1.000000 0.807507 0.078844
1.000000 0.807507 0.078844
0.030000 0.871768 0.078844
0.122645 0.871768 0.078844
0.202882 0.871768 0.078844
0.279019 0.871768 0.078844
0.352610 0.871768 0.078844
0.424364 0.871768 0.078844
0.494686 0.871768 0.078844
0.563841 0.871768 0.078844
0.632011 0.871768 0.078844
0.699333 0.871768 0.078844
0.765908 0.871768 0.078844
0.831820 0.871768 0.078844
0.897135 0.871768 0.078844
0.961907 0.871768 0.078844
1.000000 0.871768 0.078844
1.000000 0.871768 0.078844
0.030000 0.935930 0.078844
0.122645 0.935930 0.078844
0.202882 0.935930 0.078844
0.279019 0.935930 0.078844
0.352610 0.935930 0.078844
0.424364 0.935930 0.078844
0.494686 0.935930 0.078844
0.563841 0.935930 0.078844
0.632011 0.935930 0.078844
0.699333 0.935930 0.078844
0.765908 0.935930 0.078844
0.831820 0.935930 0.078844
0.897135 0.935930 0.078844
0.961907 0.935930 0.078844
1.000000 0.935930 0.078844
1.000000 0.935930 0.078844
0.030000 1.000000 0.078844
0.122645 1.000000 0.078844
0.202882 1.000000 0.078844
0.279019 1.000000 0.078844
0.352610 1.000000 0.078844
0.424364 1.000000 0.078844
0.494686 1.000000 0.078844
0.563841 1.000000 0.078844
0.632011 1.000000 0.078844
0.699333 1.000000 0.078844
0.765908 1.000000 0.078844
0.831820 1.000000 0.078844
0.897135 1.000000 0.078844
0.961907 1.000000 0.078844
1.000000 1.000000 0.078844
1.000000 1.000000 0.078844
0.030000 0.020000 0.125682
0.122645 0.020000 0.125682
0.202882 0.020000 0.125682
0.279019 0.020000 0.125682
0.352610 0.020000 0.125682
0.424364 0.020000 0.125682
0.494686 0.020000 0.125682
0.563841 0.020000 0.125682
0.632011 0.020000 0.125682
0.699333 0.020000 0.125682
0.765908 0.020000 0.125682
0.831820 0.020000 0.125682
0.897135 0.020000 0.125682
0.961907 0.020000 0.125682
1.000000 0.020000 0.125682
1.000000 0.020000 0.125682
0.030000 0.088969 0.125682
0.122645 0.088969 0.125682
0.202882 0.088969 0.125682
0.279019 0.088969 0.125682
0.352610 0.088969 0.125682
0.424364 0.088969 0.125682
0.494686 0.088969 0.125682
0.563841 0.088969 0.125682
0.632011 0.088969 0.125682
0.699333 0.088969 0.125682
0.765908 0.088969 0.125682
0.831820 0.088969 0.125682
0.897135 0.088969 0.125682
0.961907 0.088969 0.125682
1.000000 0.088969 0.125682
1.000000 0.088969 0.125682
0.030000 0.156040 0.125682
0.122645 0.156040 0.125682
0.202882 0.156040 0.125682
0.279019 0.156040 0.125682
0.352610 0.156040 0.125682
0.424364 0.156040 0.125682
0.494686 0.156040 0.125682
0.563841 0.156040 0.125682
0.632011 0.156040 0.125682
0.699333 0.156040 0.125682
0.765908 0.156040 0.125682
0.831820 0.156040 0.125682
0.897135 0.156040 0.125682
0.961907 0.156040 0.125682
1.000000 0.156040 0.125682
1.000000 0.156040 0.125682
0.030000 0.222412 0.125682
0.122645 0.222412 0.125682
0.202882 0.222412 0.125682
0.279019 0.222412 0.125682
0.352610 0.222412 0.125682
0.424364 0.222412 0.125682
0.494686 0.222412 0.125682
0.563841 0.222412 0.125682
0.632011 0.222412 0.125682
0.699333 0.222412 0.125682
0.765908 0.222412 0.125682
0.831820 0.222412 0.125682
0.897135 0.222412 0.125682
0.961907 0.222412 0.125682
1.000000 0.222412 0.125682
1.000000 0.222412 0.125682
0.030000 0.288334 0.125682
0.122645 0.288334 0.125682
0.202882 0.288334 0.125682
0.279019 0.288334 0.125682
0.352610 0.288334 0.125682
0.424364 0.288334 0.125682
0.494686 0.288334 0.125682
0.563841 0.288334 0.125682
0.632011 0.288334 0.125682
0.699333 0.288334 0.125682
0.765908 0.288334 0.125682
0.831820 0.288334 0.125682
0.897135 0.288334 0.125682
0.961907 0.288334 0.125682
1.000000 0.288334 0.125682
1.000000 0.288334 0.125682
0.030000 0.353924 0.125682
0.122645 0.353924 0.125682
0.202882 0.353924 0.125682
0.279019 0.353924 0.125682
0.352610 0.353924 0.125682
0.424364 0.353924 0.125682
0.494686 0.353924 0.125682
0.563841 0.353924 0.125682
0.632011 0.353924 0.125682
0.699333 0.353924 0.125682
0.765908 0.353924 0.125682
0.831820 0.353924 0.125682
0.897135 0.353924 0.125682
0.961907 0.353924 0.125682
1.000000 0.353924 0.125682
1.000000 0.353924 0.125682
0.030000 0.419250 0.125682
0.122645 0.419250 0.125682
0.202882 0.419250 0.125682
0.279019 0.419250 0.125682
0.352610 0.419250 0.125682
0.424364 0.419250 0.125682
0.494686 0.419250 0.125682
0.563841 0.419250 0.125682
0.632011 0.419250 0.125682
0.699333 0.419250 0.125682
0.765908 0.419250 0.125682
0.831820 0.419250 0.125682
0.897135 0.419250 0.125682
0.961907 0.419250 0.125682
1.000000 0.419250 0.125682
1.000000 0.419250 0.125682
0.030000 0.484358 0.125682
0.122645 0.484358 0.125682
0.202882 0.484358 0.125682
0.279019 0.484358 0.125682
0.352610 0.484358 0.125682
0.424364 0.484358 0.125682
0.494686 0.484358 0.125682
