entry/src/main/resources/rawfile/filters/TeaFilm.cube
TITLE "Tea Film"
LUT_3D_SIZE 6
0.030000 0.020000 0.000000
0.279019 0.020000 0.000000
0.494686 0.020000 0.000000
0.699333 0.020000 0.000000
0.897135 0.020000 0.000000
1.000000 0.020000 0.000000
0.030000 0.222412 0.000000
0.279019 0.222412 0.000000
0.494686 0.222412 0.000000
0.699333 0.222412 0.000000
0.897135 0.222412 0.000000
1.000000 0.222412 0.000000
0.030000 0.419250 0.000000
0.279019 0.419250 0.000000
0.494686 0.419250 0.000000
0.699333 0.419250 0.000000
0.897135 0.419250 0.000000
1.000000 0.419250 0.000000
0.030000 0.614038 0.000000
0.279019 0.614038 0.000000
0.494686 0.614038 0.000000
0.699333 0.614038 0.000000
0.897135 0.614038 0.000000
1.000000 0.614038 0.000000
0.030000 0.807507 0.000000
0.279019 0.807507 0.000000
0.494686 0.807507 0.000000
0.699333 0.807507 0.000000
0.897135 0.807507 0.000000
1.000000 0.807507 0.000000
0.030000 1.000000 0.000000
0.279019 1.000000 0.000000
0.494686 1.000000 0.000000
0.699333 1.000000 0.000000
0.897135 1.000000 0.000000
1.000000 1.000000 0.000000
0.030000 0.020000 0.125682
0.279019 0.020000 0.125682
0.494686 0.020000 0.125682
0.699333 0.020000 0.125682
0.897135 0.020000 0.125682
1.000000 0.020000 0.125682
0.030000 0.222412 0.125682
0.279019 0.222412 0.125682
0.494686 0.222412 0.125682
0.699333 0.222412 0.125682
0.897135 0.222412 0.125682
1.000000 0.222412 0.125682
0.030000 0.419250 0.125682
0.279019 0.419250 0.125682
0.494686 0.419250 0.125682
0.699333 0.419250 0.125682
0.897135 0.419250 0.125682
1.000000 0.419250 0.125682
0.030000 0.614038 0.125682
0.279019 0.614038 0.125682
0.494686 0.614038 0.125682
0.699333 0.614038 0.125682
0.897135 0.614038 0.125682
1.000000 0.614038 0.125682
0.030000 0.807507 0.125682
0.279019 0.807507 0.125682
0.494686 0.807507 0.125682
0.699333 0.807507 0.125682
0.897135 0.807507 0.125682
1.000000 0.807507 0.125682
0.030000 1.000000 0.125682
0.279019 1.000000 0.125682
0.494686 1.000000 0.125682
0.699333 1.000000 0.125682
0.897135 1.000000 0.125682
1.000000 1.000000 0.125682
0.030000 0.020000 0.278907
0.279019 0.020000 0.278907
0.494686 0.020000 0.278907
0.699333 0.020000 0.278907
0.897135 0.020000 0.278907
1.000000 0.020000 0.278907
0.030000 0.222412 0.278907
0.279019 0.222412 0.278907
0.494686 0.222412 0.278907
0.699333 0.222412 0.278907
0.897135 0.222412 0.278907
1.000000 0.222412 0.278907
0.030000 0.419250 0.278907
0.279019 0.419250 0.278907
0.494686 0.419250 0.278907
0.699333 0.419250 0.278907
0.897135 0.419250 0.278907
1.000000 0.419250 0.278907
0.030000 0.614038 0.278907
0.279019 0.614038 0.278907
0.494686 0.614038 0.278907
0.699333 0.614038 0.278907
0.897135 0.614038 0.278907
1.000000 0.614038 0.278907
0.030000 0.807507 0.278907
0.279019 0.807507 0.278907
0.494686 0.807507 0.278907
0.699333 0.807507 0.278907
0.897135 0.807507 0.278907
1.000000 0.807507 0.278907
0.030000 1.000000 0.278907
0.279019 1.000000 0.278907
0.494686 1.000000 0.278907
0.699333 1.000000 0.278907
0.897135 1.000000 0.278907
1.000000 1.000000 0.278907
0.030000 0.020000 0.444594
0.279019 0.020000 0.444594
0.494686 0.020000 0.444594
0.699333 0.020000 0.444594
0.897135 0.020000 0.444594
1.000000 0.020000 0.444594
0.030000 0.222412 0.444594
0.279019 0.222412 0.444594
0.494686 0.222412 0.444594
0.699333 0.222412 0.444594
0.897135 0.222412 0.444594
1.000000 0.222412 0.444594
0.030000 0.419250 0.444594
0.279019 0.419250 0.444594
0.494686 0.419250 0.444594
0.699333 0.419250 0.444594
0.897135 0.419250 0.444594
1.000000 0.419250 0.444594
0.030000 0.614038 0.444594
0.279019 0.614038 0.444594
0.494686 0.614038 0.444594
0.699333 0.614038 0.444594
0.897135 0.614038 0.444594
1.000000 0.614038 0.444594
0.030000 0.807507 0.444594
0.279019 0.807507 0.444594
0.494686 0.807507 0.444594
0.699333 0.807507 0.444594
0.897135 0.807507 0.444594
1.000000 0.807507 0.444594
0.030000 1.000000 0.444594
0.279019 1.000000 0.444594
0.494686 1.000000 0.444594
0.699333 1.000000 0.444594
0.897135 1.000000 0.444594
1.000000 1.000000 0.444594
0.030000 0.020000 0.618933
0.279019 0.020000 0.618933
0.494686 0.020000 0.618933
0.699333 0.020000 0.618933
0.897135 0.020000 0.618933
1.000000 0.020000 0.618933
0.030000 0.222412 0.618933
0.279019 0.222412 0.618933
0.494686 0.222412 0.618933
0.699333 0.222412 0.618933
0.897135 0.222412 0.618933
1.000000 0.222412 0.618933
0.030000 0.419250 0.618933
0.279019 0.419250 0.618933
0.494686 0.419250 0.618933
0.699333 0.419250 0.618933
0.897135 0.419250 0.618933
1.000000 0.419250 0.618933
0.030000 0.614038 0.618933
0.279019 0.614038 0.618933
0.494686 0.614038 0.618933
0.699333 0.614038 0.618933
0.897135 0.614038 0.618933
1.000000 0.614038 0.618933
0.030000 0.807507 0.618933
0.279019 0.807507 0.618933
0.494686 0.807507 0.618933
0.699333 0.807507 0.618933
0.897135 0.807507 0.618933
1.000000 0.807507 0.618933
0.030000 1.000000 0.618933
0.279019 1.000000 0.618933
0.494686 1.000000 0.618933
0.699333 1.000000 0.618933
0.897135 1.000000 0.618933
1.000000 1.000000 0.618933
0.030000 0.020000 0.800000
0.279019 0.020000 0.800000
0.494686 0.020000 0.800000
0.699333 0.020000 0.800000
0.897135 0.020000 0.800000
1.000000 0.020000 0.800000
0.030000 0.222412 0.800000
0.279019 0.222412 0.800000
0.494686 0.222412 0.800000
0.699333 0.222412 0.800000
0.897135 0.222412 0.800000
1.000000 0.222412 0.800000
0.030000 0.419250 0.800000
0.279019 0.419250 0.800000
0.494686 0.419250 0.800000
0.699333 0.419250 0.800000
0.897135 0.419250 0.800000
1.000000 0.419250 0.800000
0.030000 0.614038 0.800000
0.279019 0.614038 0.800000
0.494686 0.614038 0.800000
0.699333 0.614038 0.800000
0.897135 0.614038 0.800000
1.000000 0.614038 0.800000
0.030000 0.807507 0.800000
0.279019 0.807507 0.800000
0.494686 0.807507 0.800000
0.699333 0.807507 0.800000
0.897135 0.807507 0.800000
1.000000 0.807507 0.800000
0.030000 1.000000 0.800000
0.279019 1.000000 0.800000
0.494686 1.000000 0.800000
0.699333 1.000000 0.800000
0.897135 1.000000 0.800000
1.000000 1.000000 0.800000
