entry/src/main/resources/rawfile/filters/VEL_Warm_Pastel.cube
TITLE "Warm Pastel"
LUT_3D_SIZE 6
0.000000 0.000000 0.000000
0.218521 0.000000 0.000000
0.465580 0.000000 0.000000
0.672883 0.000000 0.000000
0.832404 0.000000 0.000000
0.963516 0.000000 0.000000
0.065812 0.154113 0.000000
0.304899 0.168498 0.012539
0.573520 0.143740 0.006806
0.782486 0.109855 0.009072
0.961628 0.051891 0.029440
1.000000 0.146401 0.152077
0.166879 0.312990 0.000000
0.361324 0.375293 0.008049
0.612307 0.375842 0.016388
0.794510 0.352500 0.010217
0.946393 0.319514 0.005732
1.000000 0.339141 0.125075
0.272483 0.489934 0.000000
0.433161 0.577520 0.000078
0.655499 0.600288 0.017482
0.823910 0.592728 0.020102
0.964261 0.566230 0.013454
1.000000 0.538842 0.143108
0.372921 0.655836 0.000000
0.502784 0.746147 0.000000
0.689200 0.790518 0.006845
0.852651 0.805064 0.024512
0.989107 0.793772 0.023639
1.000000 0.725707 0.223737
0.469017 0.807233 0.000000
0.575638 0.900853 0.000000
0.728127 0.961843 0.001685
0.865336 0.966094 0.036179
0.991886 0.965573 0.066761
1.000000 0.882033 0.454520
0.048591 0.000000 0.070677
0.254707 0.000000 0.104463
0.497522 0.000000 0.101082
0.696548 0.000000 0.099558
0.851101 0.000000 0.096339
0.980999 0.000000 0.089955
0.109418 0.143692 0.095822
0.317687 0.156120 0.113472
0.577696 0.134998 0.109465
0.786387 0.103677 0.114432
0.971124 0.055898 0.141578
1.000000 0.163348 0.245816
0.190704 0.334933 0.056637
0.381858 0.372377 0.088161
0.621770 0.373948 0.094565
0.800540 0.352390 0.086012
0.952004 0.321685 0.075747
1.000000 0.362483 0.197075
0.308709 0.536683 0.005769
0.469433 0.596510 0.026744
0.679407 0.616738 0.045662
0.840875 0.609701 0.045610
0.979471 0.585243 0.035990
1.000000 0.567027 0.193006
0.410361 0.694579 0.000000
0.539740 0.783399 0.000830
0.714287 0.809319 0.024148
0.871655 0.824397 0.042319
0.997316 0.805642 0.051606
1.000000 0.749286 0.299417
0.502025 0.845862 0.000000
0.606614 0.938417 0.000000
0.747495 0.966094 0.031437
0.874965 0.966094 0.071029
0.993253 0.963529 0.104680
1.000000 0.898631 0.576980
0.103850 0.000000 0.129497
0.297045 0.000000 0.225787
0.528823 0.000000 0.237659
0.717313 0.000000 0.239141
0.866145 0.000000 0.237750
0.993366 0.000000 0.233546
0.183128 0.108602 0.225056
0.371134 0.137007 0.266217
0.609085 0.124785 0.275280
0.809280 0.096911 0.294030
0.984894 0.055704 0.329703
1.000000 0.173561 0.394388
0.239321 0.302571 0.204516
0.405491 0.339765 0.242478
0.621257 0.340548 0.251681
0.794781 0.321308 0.247629
0.943807 0.290997 0.242333
1.000000 0.367589 0.369401
0.317151 0.506745 0.171956
0.467708 0.552014 0.212918
0.668191 0.575224 0.238715
0.825515 0.566833 0.238830
0.963647 0.543542 0.229912
1.000000 0.569759 0.380022
0.408923 0.707377 0.123723
0.537447 0.752118 0.164430
0.707191 0.778812 0.191910
0.863013 0.795857 0.212496
0.993042 0.783139 0.211349
1.000000 0.758365 0.466673
0.514919 0.901290 0.044804
0.621121 0.947087 0.085355
0.758675 0.965938 0.126764
0.884420 0.966094 0.170381
0.996559 0.958052 0.211976
1.000000 0.911980 0.714168
0.158922 0.000000 0.191949
0.347753 0.000000 0.331898
0.565401 0.000000 0.377419
0.741390 0.000000 0.388084
0.884013 0.000000 0.389362
0.999975 0.009543 0.388107
0.279907 0.074007 0.368686
0.445010 0.107622 0.423821
0.661971 0.110258 0.458645
0.847225 0.082084 0.493518
0.996626 0.062149 0.519659
1.000000 0.186456 0.526417
0.315144 0.270235 0.348666
0.458290 0.308007 0.393672
0.649054 0.316600 0.413259
0.811003 0.303511 0.416768
0.956640 0.278888 0.418967
1.000000 0.379208 0.516560
0.375772 0.477016 0.324060
0.504013 0.518878 0.368416
0.682775 0.544304 0.400589
0.828369 0.535276 0.401281
0.962958 0.514262 0.395399
1.000000 0.580828 0.533325
0.439046 0.672893 0.279275
0.558097 0.719990 0.330060
0.715419 0.749690 0.366393
0.863370 0.767206 0.392021
0.990847 0.755663 0.389677
1.000000 0.769218 0.621344
0.520143 0.862675 0.226917
0.622646 0.909681 0.278142
0.757371 0.942999 0.317936
0.891492 0.963659 0.351787
1.000000 0.945458 0.416424
1.000000 0.924407 0.845206
0.217261 0.000000 0.260829
0.407784 0.000000 0.435616
0.602786 0.000000 0.510946
0.767761 0.000000 0.540825
0.903782 0.000000 0.548771
1.000000 0.028904 0.544287
0.398030 0.033570 0.533602
0.538724 0.068846 0.595633
0.730558 0.080099 0.654854
0.891417 0.062136 0.692034
0.999966 0.079878 0.684168
1.000000 0.201214 0.645980
0.395644 0.226416 0.494342
0.526661 0.271847 0.551479
0.698961 0.297752 0.591566
0.843484 0.290399 0.602441
0.981362 0.269007 0.610059
1.000000 0.393316 0.649311
0.455478 0.447067 0.488073
0.565115 0.490121 0.535675
0.708834 0.507990 0.561027
0.843236 0.504641 0.568136
0.973430 0.489087 0.568812
1.000000 0.595414 0.666034
0.499615 0.645489 0.447091
0.599824 0.689430 0.497256
0.738053 0.720648 0.536644
0.871951 0.735942 0.560423
0.993391 0.727594 0.564379
1.000000 0.784563 0.743271
0.554412 0.831412 0.394189
0.649443 0.880015 0.452843
0.773318 0.915602 0.498488
0.901220 0.941041 0.533444
1.000000 0.922300 0.603016
1.000000 0.942479 0.937145
0.278874 0.000000 0.335653
0.464945 0.000000 0.529235
0.640611 0.000000 0.630448
0.795108 0.000000 0.681401
0.924276 0.000000 0.696941
1.000000 0.049546 0.678813
0.530745 0.002667 0.689524
0.651366 0.017828 0.778549
0.797172 0.035275 0.832183
0.930493 0.046071 0.859533
1.000000 0.102851 0.813666
1.000000 0.217728 0.748369
0.493196 0.185745 0.651966
0.604160 0.230709 0.709727
0.747466 0.259899 0.753747
0.884117 0.269284 0.782357
0.999834 0.272474 0.788031
1.000000 0.410437 0.763562
0.517107 0.390393 0.627958
0.619647 0.440399 0.684750
0.752622 0.475066 0.727154
0.878697 0.486430 0.748179
0.995660 0.484319 0.754208
1.000000 0.613184 0.776879
0.574972 0.618009 0.620933
0.662881 0.664526 0.674150
0.772295 0.688673 0.703492
0.887953 0.698908 0.720358
0.997806 0.706781 0.738022
1.000000 0.803772 0.839719
0.613275 0.806348 0.576028
0.693629 0.852537 0.630790
0.800003 0.885868 0.671901
0.918507 0.913708 0.707534
1.000000 0.907497 0.796606
1.000000 0.965728 0.999344
