entry/src/main/resources/rawfile/filters/VEL_Film_Fade.cube
TITLE "Film Fade"
LUT_3D_SIZE 6
0.043030 0.054566 0.107698
0.125100 0.053718 0.109569
0.512422 0.000000 0.101665
0.840162 0.000000 0.077217
0.968325 0.000000 0.095668
1.000000 0.273991 0.213336
0.006564 0.130694 0.118166
0.153220 0.174100 0.100671
0.546555 0.198705 0.057641
0.826071 0.206163 0.003111
0.957136 0.229065 0.040551
1.000000 0.341863 0.192542
0.000000 0.499907 0.161273
0.000049 0.492020 0.146267
0.566038 0.571228 0.000000
0.820530 0.517913 0.000000
0.932161 0.451543 0.000000
1.000000 0.483690 0.163501
0.069645 0.685375 0.360168
0.234256 0.679362 0.345462
0.453272 0.679901 0.299608
0.744731 0.714002 0.195493
0.923715 0.682103 0.117097
1.000000 0.630097 0.131261
0.523232 0.777450 0.548104
0.532319 0.772207 0.537582
0.576108 0.765002 0.520103
0.691021 0.787275 0.505486
0.866584 0.825398 0.457629
1.000000 0.825071 0.391663
0.682841 0.908110 0.683879
0.691548 0.906462 0.681175
0.720064 0.905495 0.676738
0.768600 0.908003 0.670652
0.863646 0.937572 0.663871
0.985611 0.960967 0.629526
0.020990 0.056571 0.166787
0.123985 0.051195 0.165193
0.526354 0.000000 0.184367
0.830963 0.000000 0.173717
0.959580 0.105001 0.167524
1.000000 0.286915 0.207489
0.000000 0.151560 0.198417
0.155315 0.173251 0.207067
0.554330 0.176710 0.195752
0.821625 0.202052 0.175659
0.949344 0.265040 0.170446
1.000000 0.348540 0.193437
0.000000 0.521166 0.331893
0.093202 0.521078 0.301516
0.566123 0.563143 0.215623
0.803483 0.504623 0.187966
0.923571 0.469108 0.197382
1.000000 0.493446 0.217999
0.365745 0.687706 0.474024
0.371954 0.684888 0.445835
0.486596 0.673484 0.402089
0.741946 0.710333 0.354195
0.909328 0.682068 0.315908
0.999998 0.637165 0.290377
0.563676 0.779773 0.584046
0.572009 0.777604 0.576163
0.606188 0.769289 0.558829
0.698234 0.784406 0.542902
0.865606 0.825227 0.514409
1.000000 0.827482 0.469183
0.688051 0.910976 0.696556
0.698187 0.910615 0.695294
0.723575 0.907883 0.688276
0.769610 0.908356 0.681216
0.863443 0.937646 0.676341
0.985306 0.961211 0.645072
0.000000 0.053004 0.456449
0.170197 0.011330 0.465162
0.561542 0.000000 0.470127
0.815447 0.120817 0.457828
0.927864 0.338579 0.456708
1.000000 0.469791 0.490712
0.000000 0.208203 0.478200
0.095415 0.199331 0.497909
0.575270 0.225535 0.488942
0.794188 0.341145 0.476119
0.904950 0.438392 0.479867
1.000000 0.489337 0.479957
0.000000 0.521969 0.514436
0.177713 0.532630 0.518820
0.552991 0.538620 0.510906
0.752747 0.543538 0.502303
0.882404 0.556702 0.499708
0.999802 0.574216 0.491819
0.471177 0.694566 0.585508
0.525762 0.691525 0.585371
0.590342 0.679021 0.563268
0.736155 0.702492 0.547153
0.872072 0.683698 0.529214
0.989533 0.664989 0.500299
0.621904 0.787219 0.651635
0.643210 0.786126 0.651937
0.653741 0.778913 0.627594
0.706900 0.774829 0.607132
0.863526 0.823990 0.603058
0.999462 0.826432 0.576561
0.724483 0.913951 0.745205
0.724470 0.914379 0.737957
0.729122 0.912996 0.718182
0.773787 0.913496 0.710473
0.860734 0.936899 0.706977
0.984909 0.962295 0.683821
0.000000 0.082423 0.665571
0.172265 0.070367 0.668935
0.584361 0.091096 0.672524
0.811242 0.230103 0.663406
0.893623 0.479759 0.635140
0.994952 0.571645 0.652259
0.000000 0.237776 0.662164
0.178035 0.254179 0.666235
0.579717 0.317418 0.667676
0.789596 0.409003 0.660473
0.874323 0.541559 0.640288
0.984587 0.590143 0.648728
0.000000 0.503133 0.648375
0.154942 0.512045 0.648729
0.561233 0.547500 0.654381
0.749850 0.594335 0.655784
0.855325 0.632247 0.655921
0.982007 0.643067 0.653738
0.417332 0.682866 0.660242
0.487691 0.683223 0.659247
0.607723 0.683429 0.656027
0.724758 0.688154 0.655097
0.843366 0.689356 0.648446
0.977748 0.691900 0.635517
0.636607 0.800206 0.716933
0.655474 0.800362 0.716545
0.693279 0.794694 0.707900
0.736555 0.784715 0.686188
0.860216 0.820488 0.682751
0.992904 0.814618 0.661543
0.690889 0.921468 0.778970
0.704788 0.921511 0.778235
0.754929 0.922099 0.782882
0.787572 0.925694 0.767040
0.854444 0.934084 0.754323
0.985147 0.965335 0.747192
0.082780 0.214206 0.779110
0.315813 0.233671 0.779388
0.585744 0.309880 0.780529
0.795184 0.453909 0.782837
0.908244 0.521290 0.771520
0.978314 0.614811 0.758071
0.194994 0.348507 0.773242
0.364099 0.371779 0.774951
0.596620 0.432475 0.775336
0.785864 0.526920 0.776982
0.892438 0.564827 0.764648
0.972963 0.638177 0.758481
0.255647 0.533891 0.757063
0.410392 0.552310 0.758846
0.600496 0.580894 0.762976
0.769778 0.628315 0.771462
0.876406 0.649970 0.766524
0.970952 0.690446 0.767308
0.375826 0.673522 0.752480
0.439013 0.674623 0.751362
0.550590 0.672295 0.746056
0.724211 0.691176 0.759385
0.858593 0.718023 0.765978
0.971395 0.740650 0.772414
0.565369 0.788377 0.770310
0.591961 0.789116 0.770534
0.652151 0.790660 0.770736
0.735655 0.795821 0.773485
0.841827 0.800705 0.771928
0.984113 0.807885 0.767879
0.702260 0.933754 0.858705
0.719084 0.934722 0.859718
0.755764 0.936587 0.859393
0.807985 0.940204 0.857195
0.868382 0.941626 0.841262
0.985449 0.970288 0.844297
0.523232 0.508537 0.920424
0.574695 0.512556 0.919008
0.691270 0.541506 0.915742
0.821448 0.586618 0.913774
0.940694 0.637058 0.913451
1.000000 0.651804 0.908263
0.525694 0.547137 0.913695
0.577413 0.556274 0.913541
0.688534 0.578134 0.911826
0.813897 0.611708 0.910357
0.931756 0.651803 0.909815
1.000000 0.664021 0.904686
0.532790 0.640077 0.911787
0.564066 0.634740 0.912125
0.670444 0.644748 0.911631
0.796431 0.665531 0.913008
0.918866 0.696166 0.915018
1.000000 0.708257 0.910090
0.380685 0.708806 0.904741
0.448567 0.706422 0.905763
0.583976 0.703665 0.908418
0.741930 0.712754 0.912263
0.893024 0.742427 0.915815
0.999158 0.764978 0.914308
0.484529 0.824247 0.918669
0.506027 0.821358 0.918479
0.562899 0.814968 0.916489
0.645534 0.803619 0.917630
0.839268 0.810905 0.928106
0.994375 0.863758 0.937826
0.612573 0.940490 0.945342
0.627402 0.939354 0.944082
0.674903 0.941350 0.945238
0.753643 0.948757 0.950094
0.859461 0.959549 0.956933
0.985168 0.977798 0.973098
