entry/src/main/resources/rawfile/filters/VEL_Classic_Teal_Orange.cube
TITLE "Classic Teal & Orange"
LUT_3D_SIZE 16
-0.000047 -0.000047 0.024650
-0.000039 -0.000039 0.020134
0.012634 -0.000050 0.017163
0.075064 -0.000234 0.009583
0.152106 -0.000458 0.001378
0.215510 -0.000628 -0.000622
0.277130 -0.000780 -0.000780
0.339666 -0.000919 -0.000919
0.404656 -0.001050 -0.001050
0.461721 -0.001163 -0.001163
0.514939 -0.001270 -0.001270
0.567120 -0.001366 -0.001366
0.617412 -0.001464 -0.001464
0.666225 -0.001570 -0.001570
0.705815 -0.001654 -0.001654
0.738078 -0.001676 -0.001726
-0.000084 0.012368 0.028605
-0.000070 0.009673 0.025394
0.014066 0.009622 0.018990
0.068838 0.006083 0.004283
0.129049 0.009175 0.001340
0.183498 0.010637 -0.000252
0.228301 0.009432 -0.000662
0.279785 0.007791 -0.000784
0.350768 0.006122 -0.000941
0.416987 0.004656 -0.001075
0.473700 0.003953 -0.001185
0.529810 0.004401 -0.001295
0.584452 0.005473 -0.001403
0.637238 0.006957 -0.001506
0.684506 0.009001 -0.001609
0.719480 0.011447 -0.001683
-0.000255 0.045041 0.044114
0.000690 0.039565 0.040738
0.023337 0.037396 0.033499
0.078309 0.035704 0.004393
0.131235 0.040728 0.001289
0.188717 0.047907 -0.000582
0.242657 0.052644 -0.000732
0.291258 0.054723 -0.000845
0.342182 0.054375 -0.000948
0.395539 0.052550 -0.001050
0.440424 0.051347 -0.001140
0.483072 0.050921 -0.001218
0.529191 0.050470 -0.001304
0.576868 0.050984 -0.001398
0.623398 0.052014 -0.001489
0.664517 0.053879 -0.001570
-0.000505 0.091779 0.068459
0.004814 0.090582 0.065768
0.033183 0.082430 0.061609
0.092676 0.077347 0.024934
0.156167 0.079062 0.001153
0.213647 0.090091 -0.000752
0.270014 0.101647 -0.000889
0.319185 0.110924 -0.000994
0.373633 0.119019 -0.001105
0.433486 0.126987 -0.001218
0.490075 0.133893 -0.001319
0.536210 0.138721 -0.001407
0.581463 0.143394 -0.001489
0.626398 0.148005 -0.001578
0.669012 0.152712 -0.001661
0.708713 0.157350 -0.001747
0.008448 0.144012 0.097413
0.013405 0.143852 0.093960
0.037721 0.142532 0.089876
0.106712 0.131107 0.082976
0.178744 0.128009 0.012533
0.245485 0.137522 0.001424
0.313958 0.153290 -0.000970
0.374711 0.166912 -0.001218
0.431907 0.179192 -0.001324
0.491242 0.191472 -0.001438
0.551370 0.203434 -0.001547
0.599963 0.212537 -0.001639
0.638756 0.219566 -0.001712
0.676944 0.226502 -0.001794
0.713138 0.233166 -0.001872
0.746402 0.239232 -0.001947
0.022935 0.195158 0.122717
0.026867 0.195655 0.119190
0.038548 0.197533 0.113181
0.121433 0.185858 0.116031
0.190500 0.182124 0.076955
0.264974 0.183449 0.008600
0.345770 0.201360 0.002451
0.416485 0.219101 0.002142
0.478037 0.233129 -0.000824
0.539303 0.246988 -0.001394
0.599545 0.260354 -0.001498
0.653913 0.271419 -0.001847
0.692105 0.278855 -0.001922
0.726648 0.285468 -0.001995
0.758389 0.291528 -0.002075
0.786990 0.296979 -0.002141
0.035099 0.241487 0.141543
0.038769 0.242509 0.138127
0.045579 0.245726 0.132199
0.124551 0.242828 0.133515
0.202053 0.231359 0.117268
0.273599 0.234897 0.052145
0.358179 0.244498 0.009469
0.439865 0.265254 0.005972
0.506361 0.281618 0.003309
0.567671 0.296887 0.002969
0.628430 0.311326 0.002221
0.684485 0.323852 -0.001196
0.724574 0.332200 -0.001259
0.757119 0.338326 -0.001740
0.786157 0.344176 -0.001781
0.812877 0.349337 -0.002306
0.044282 0.287492 0.156111
0.047627 0.288935 0.152669
0.052724 0.293747 0.146623
0.118375 0.298954 0.140976
0.211795 0.279101 0.136846
0.277757 0.281420 0.099008
0.358556 0.290311 0.031576
0.445200 0.303848 0.011186
0.516379 0.322516 0.010168
0.581250 0.339081 0.006558
0.643017 0.354415 0.003903
0.699741 0.368734 0.003957
0.742439 0.378776 0.003953
0.775029 0.384286 -0.001152
0.803321 0.390055 -0.001196
0.828274 0.395357 -0.001239
0.050808 0.336303 0.167701
0.053586 0.338399 0.164205
0.056744 0.345759 0.158006
0.108199 0.357799 0.145941
0.217311 0.337799 0.142973
0.288477 0.331050 0.115967
0.360026 0.339521 0.069738
0.441945 0.351272 0.024664
0.514420 0.361898 0.013260
0.585482 0.378888 0.012429
0.648023 0.395480 0.011008
0.707511 0.410121 0.006724
0.754263 0.420496 0.004484
0.785561 0.427155 0.004515
0.813119 0.432834 0.004603
0.839142 0.436966 0.000602
0.053532 0.385798 0.176376
0.055974 0.389417 0.172911
0.057958 0.400161 0.166274
0.097417 0.419906 0.149446
0.217120 0.407138 0.138384
0.296033 0.386728 0.124403
0.368214 0.391681 0.085197
0.441055 0.402724 0.047849
0.512589 0.412987 0.023155
0.579644 0.423200 0.015850
0.648575 0.436753 0.014499
0.709900 0.451861 0.014239
0.759372 0.463346 0.011252
0.794290 0.468870 0.006205
0.822021 0.474008 0.005166
0.846488 0.478957 0.005217
0.053854 0.440175 0.183219
0.056228 0.444761 0.179564
0.057156 0.457736 0.172212
0.087803 0.479583 0.151504
0.212801 0.476736 0.128819
0.302890 0.450848 0.121795
0.377113 0.448676 0.095515
0.444640 0.453165 0.060075
0.511466 0.465459 0.038838
0.576855 0.474795 0.023119
0.641822 0.484309 0.017108
0.707075 0.495449 0.016312
0.763405 0.506538 0.015955
0.799279 0.513246 0.014713
0.827170 0.517563 0.011894
0.853143 0.521000 0.007408
0.052258 0.499943 0.187680
0.054349 0.506308 0.183642
0.054287 0.520447 0.175380
0.078430 0.542237 0.151308
0.206829 0.547782 0.116203
0.308273 0.521412 0.111839
0.382075 0.505312 0.094822
0.455175 0.511429 0.068459
0.511754 0.513848 0.045552
0.574632 0.525918 0.033455
0.639678 0.535931 0.023179
0.702704 0.544808 0.019158
0.761193 0.552385 0.018538
0.803472 0.557095 0.018172
0.832634 0.560695 0.017632
0.857897 0.564461 0.016782
0.048536 0.565556 0.189344
0.050219 0.574129 0.184673
0.049604 0.587815 0.175261
0.069204 0.608225 0.147898
0.199863 0.619797 0.102115
0.310741 0.595372 0.097854
0.389064 0.573182 0.086188
0.460781 0.569700 0.068196
0.522501 0.573981 0.050175
0.573419 0.574894 0.035539
0.636489 0.586564 0.029368
0.700168 0.595260 0.023157
0.760121 0.601449 0.020747
0.802529 0.603393 0.020564
0.834541 0.604215 0.020705
0.862640 0.605841 0.019801
0.042731 0.634442 0.187702
0.044566 0.642929 0.182734
0.043502 0.655142 0.171851
0.059426 0.672988 0.141469
0.193677 0.687024 0.086328
0.310720 0.666381 0.081971
0.395244 0.644600 0.073231
0.463171 0.627908 0.061559
0.527873 0.631929 0.049065
0.582560 0.634429 0.038006
0.635537 0.636409 0.028688
0.698029 0.646536 0.026979
0.758898 0.651905 0.023504
0.803814 0.653393 0.022557
0.834903 0.652072 0.022545
0.862761 0.650631 0.022745
0.036465 0.693370 0.183935
0.037935 0.702884 0.177844
0.037178 0.714329 0.166126
0.050312 0.730902 0.132916
0.189512 0.745721 0.070954
0.309831 0.728879 0.066266
0.398447 0.708793 0.059743
0.470112 0.692645 0.051056
0.529445 0.685039 0.043362
0.585934 0.688641 0.036217
0.641497 0.691455 0.029325
0.697131 0.695079 0.024462
0.757786 0.701895 0.025526
0.804470 0.702563 0.024288
0.836858 0.700568 0.024056
0.864417 0.698190 0.024132
0.030188 0.744684 0.178195
0.031657 0.752292 0.171678
0.032505 0.761366 0.161195
0.044505 0.775438 0.124214
0.189665 0.788887 0.060118
0.309757 0.775193 0.054171
0.399318 0.759143 0.047910
0.473873 0.745830 0.041934
0.530242 0.734583 0.036635
0.586108 0.734840 0.032021
0.642824 0.738769 0.027764
0.699779 0.742866 0.024391
0.757484 0.747086 0.022951
0.805682 0.749076 0.025609
0.838766 0.746870 0.025477
0.866548 0.743831 0.025507
-0.000060 -0.000060 0.031175
-0.000069 0.000253 0.036101
0.012486 -0.000023 0.032123
0.078406 -0.000246 0.024966
0.160624 -0.000483 0.015718
0.244980 -0.000702 0.005134
0.315230 -0.000865 0.000772
0.383398 -0.001011 -0.000990
0.447239 -0.001134 -0.001134
0.503038 -0.001244 -0.001244
0.554202 -0.001343 -0.001343
0.603790 -0.001438 -0.001438
0.651739 -0.001539 -0.001539
0.697820 -0.001632 -0.001632
0.734768 -0.001719 -0.001719
0.764614 -0.001787 -0.001787
-0.000103 0.012908 0.041925
-0.000113 0.014391 0.045114
0.004301 0.014632 0.040064
0.062638 0.013759 0.033773
0.132590 0.008490 0.020081
0.210129 0.004887 0.005727
0.273686 0.003412 0.002104
0.330015 0.001504 0.000559
0.397396 0.000824 -0.001037
0.465548 -0.000840 -0.001174
0.522516 -0.001105 -0.001280
0.575229 -0.001207 -0.001385
0.625767 -0.001280 -0.001481
0.674748 -0.001338 -0.001586
0.718882 -0.001299 -0.001683
0.751841 0.002110 -0.001753
-0.000255 0.044040 0.054437
-0.000235 0.044616 0.055257
0.013328 0.041428 0.050728
0.072654 0.041901 0.035044
0.142444 0.039801 0.008544
0.206991 0.041302 0.002080
0.256330 0.043764 -0.000723
0.299527 0.044757 -0.000849
0.345076 0.044342 -0.000945
0.397950 0.041722 -0.001050
0.447246 0.040149 -0.001146
0.494139 0.040173 -0.001234
0.544228 0.039977 -0.001329
0.595210 0.040191 -0.001429
0.644724 0.040723 -0.001531
0.689402 0.041815 -0.001624
-0.000501 0.090447 0.076898
0.002741 0.090760 0.077417
0.023403 0.087567 0.073211
0.086014 0.082161 0.055870
0.158650 0.080839 0.008668
0.216238 0.086855 -0.000108
0.268175 0.097444 -0.000873
0.317565 0.106149 -0.000980
0.370847 0.113940 -0.001087
0.429784 0.121487 -0.001202
0.488921 0.127854 -0.001309
0.536792 0.132451 -0.001398
0.581936 0.136752 -0.001481
0.626892 0.141160 -0.001570
0.669969 0.145579 -0.001654
0.709172 0.150174 -0.001740
0.005958 0.143588 0.105455
0.010144 0.143626 0.104622
0.027973 0.144450 0.099964
0.101094 0.133595 0.093687
0.176909 0.131832 0.033577
0.244107 0.136005 0.002991
0.311486 0.150772 -0.000955
0.372075 0.164206 -0.001207
0.428231 0.176178 -0.001309
0.487465 0.188260 -0.001421
0.548108 0.200157 -0.001539
0.598824 0.209664 -0.001632
0.637711 0.216568 -0.001705
0.676136 0.223417 -0.001787
0.712395 0.230016 -0.001866
0.746932 0.235996 -0.001947
0.019781 0.195656 0.131463
0.024986 0.195775 0.129762
0.035341 0.197513 0.125559
0.112344 0.190888 0.123175
0.185681 0.184344 0.095579
0.263333 0.185485 0.015723
0.342397 0.199671 0.002804
0.413684 0.217165 0.002142
0.475490 0.231120 -0.000824
0.536433 0.244796 -0.001376
0.597221 0.258094 -0.001489
0.652567 0.269417 -0.001840
0.692324 0.277209 -0.001922
0.726981 0.283891 -0.001995
0.758926 0.289911 -0.002064
0.787555 0.295702 -0.002141
0.032019 0.243010 0.150725
0.037251 0.243899 0.149007
0.045291 0.246931 0.145130
0.109338 0.250144 0.138663
0.197872 0.234250 0.128105
0.270511 0.238508 0.073751
0.355244 0.245892 0.012543
0.436442 0.264273 0.006280
0.503941 0.280781 0.003287
0.565888 0.295931 0.002956
0.626653 0.310217 0.002208
0.684017 0.323050 -0.001218
0.725237 0.331663 -0.001280
0.757737 0.337741 -0.001740
0.786995 0.343588 -0.001794
0.813592 0.348353 -0.002306
0.041360 0.289945 0.165721
0.046430 0.291154 0.163791
0.053408 0.295509 0.160380
0.101928 0.305130 0.148006
0.206871 0.284596 0.145041
0.274939 0.284769 0.110265
0.356914 0.294491 0.045848
0.442658 0.305729 0.013413
0.514248 0.322637 0.010586
0.579668 0.339224 0.006844
0.641810 0.354444 0.003916
0.698783 0.368892 0.003970
0.743326 0.379180 0.003937
0.776052 0.384635 -0.001196
0.804186 0.390416 -0.001174
0.829329 0.395605 -0.001259
0.047927 0.340102 0.177901
0.052440 0.342138 0.175826
0.058360 0.348359 0.172658
0.092378 0.364777 0.155620
0.210167 0.347602 0.148542
0.284834 0.334927 0.124772
0.356449 0.342435 0.080049
0.440573 0.355896 0.034719
0.512973 0.364943 0.015594
0.583639 0.380244 0.012932
0.646369 0.396024 0.011431
0.706429 0.410677 0.006886
0.754353 0.421454 0.004524
0.786392 0.428132 0.004510
0.814041 0.433928 0.004620
0.839885 0.438294 0.001140
0.050861 0.391761 0.187212
0.055038 0.394703 0.184838
0.060305 0.404801 0.181517
0.084743 0.424825 0.162221
0.206487 0.419220 0.143067
0.292178 0.393463 0.130955
0.365685 0.396588 0.094132
0.438754 0.407250 0.058059
0.512807 0.419026 0.031614
0.578692 0.427013 0.018578
0.646636 0.438989 0.015113
0.708592 0.453396 0.014435
0.759243 0.465069 0.012579
0.794937 0.470848 0.007184
0.823166 0.475560 0.005293
0.847483 0.480604 0.005225
0.051475 0.446739 0.194867
0.055270 0.450958 0.192141
0.059726 0.463037 0.187974
0.077974 0.485304 0.166411
0.198457 0.490866 0.132857
0.298689 0.462107 0.126288
0.373742 0.454640 0.102492
0.443426 0.459521 0.067145
0.509882 0.470965 0.046867
0.577350 0.481799 0.030701
0.641930 0.490268 0.020909
0.706077 0.499240 0.017604
0.763129 0.509346 0.016558
0.799948 0.516092 0.016387
0.828078 0.520273 0.014849
0.854090 0.523432 0.009764
0.049932 0.507408 0.200806
0.053193 0.513804 0.197569
0.056890 0.526828 0.192392
0.070660 0.548770 0.168626
0.187897 0.562201 0.120878
0.302226 0.534395 0.115468
0.378442 0.513619 0.100099
0.452993 0.518695 0.075160
0.511730 0.521012 0.050748
0.573784 0.532579 0.040660
0.640133 0.543448 0.029599
0.703171 0.551613 0.023103
0.761564 0.557476 0.020401
0.804114 0.561333 0.019314
0.833495 0.564321 0.018370
0.858690 0.568090 0.018205
0.046163 0.573634 0.204108
0.048836 0.581926 0.200330
0.052137 0.594685 0.194237
0.062360 0.614651 0.168495
0.176161 0.631705 0.107498
0.302578 0.608878 0.101864
0.385782 0.584668 0.090314
0.457734 0.576849 0.073458
0.521610 0.581418 0.055859
0.573876 0.582761 0.040869
0.636413 0.593751 0.035615
0.701070 0.602958 0.028842
0.761100 0.608297 0.024726
0.803783 0.609506 0.023408
0.835664 0.609823 0.023099
0.863593 0.611275 0.021722
0.040558 0.642001 0.204244
0.042756 0.650279 0.199704
0.045521 0.661862 0.192835
0.053774 0.678882 0.166482
0.165194 0.697261 0.093584
0.300657 0.679758 0.087003
0.390589 0.655614 0.077168
0.461144 0.637702 0.066066
0.525948 0.638811 0.053834
0.581740 0.641805 0.043107
0.636197 0.644262 0.033641
0.698522 0.653909 0.032229
0.759787 0.659256 0.028472
0.805285 0.660170 0.026610
0.836395 0.658513 0.026012
0.864027 0.656715 0.025971
0.034456 0.701358 0.202389
0.036070 0.710541 0.196805
0.038430 0.721194 0.189254
0.046100 0.736878 0.163686
0.155516 0.755756 0.080020
0.297328 0.742168 0.073117
0.392357 0.720146 0.064451
0.467571 0.702735 0.055273
0.526339 0.691704 0.047657
0.584520 0.695372 0.040839
0.641403 0.698587 0.034043
0.697664 0.702067 0.028698
0.758308 0.708801 0.030316
0.805656 0.709463 0.028881
0.838505 0.707408 0.028328
0.865914 0.704599 0.028183
0.028734 0.751585 0.200046
0.030141 0.758850 0.194384
0.032278 0.767636 0.186250
0.041478 0.780711 0.161506
0.152032 0.798965 0.071918
0.294718 0.790099 0.063515
0.392894 0.771638 0.055631
0.470471 0.756889 0.046896
0.529677 0.744685 0.041214
0.584191 0.741241 0.036214
0.642095 0.745227 0.032211
0.699718 0.749289 0.028632
0.757988 0.753679 0.026207
0.806807 0.755784 0.030112
0.840346 0.753188 0.029767
0.867994 0.750019 0.029806
-0.000078 0.002995 0.039922
-0.000103 0.007625 0.050595
0.002656 0.007226 0.062311
0.070021 0.002911 0.057592
0.161551 0.001958 0.046180
0.252403 -0.000723 0.035009
0.334948 -0.000908 0.027752
0.423932 -0.001093 0.022070
0.502061 -0.001244 0.017234
0.563704 -0.001362 0.013759
0.615546 -0.001464 0.011433
0.664064 -0.001563 0.009167
0.708014 -0.001654 0.007770
0.748333 -0.001747 0.006506
0.781827 -0.001827 0.005218
0.808975 -0.001898 0.004143
-0.000134 0.017235 0.052864
-0.000147 0.019635 0.056318
0.001638 0.022764 0.067911
0.060857 0.020455 0.061182
0.139865 0.014555 0.051689
0.222846 0.009639 0.042564
0.302680 0.006316 0.034887
0.385094 0.003494 0.027645
0.475607 0.001439 0.017934
0.553743 -0.001329 0.010576
0.607028 -0.001447 0.007782
0.654372 -0.001539 0.006269
0.699020 -0.001639 0.004860
0.740285 -0.001726 0.003305
0.777328 -0.001814 0.001804
0.805950 -0.001891 -0.000889
-0.000273 0.045640 0.069257
-0.000286 0.047487 0.073816
0.002339 0.050432 0.078622
0.063299 0.053238 0.073431
0.134897 0.054954 0.064896
0.218439 0.047184 0.042545
0.292604 0.044072 0.023295
0.357021 0.042917 0.014397
0.429461 0.040700 0.009653
0.505836 0.035445 0.008011
0.561141 0.032226 0.008099
0.604311 0.030361 0.006834
0.646369 0.028135 0.005447
0.689110 0.026098 0.004178
0.729651 0.024622 0.002892
0.765434 0.023719 0.001578
-0.000509 0.090617 0.089676
-0.000513 0.091395 0.092330
0.006812 0.093607 0.095599
0.076822 0.091934 0.088020
0.152644 0.094178 0.067763
0.232108 0.094913 0.032332
0.303048 0.099464 0.012839
0.366848 0.104019 0.007706
0.421619 0.109415 0.007161
0.477280 0.114393 0.005601
0.533765 0.118535 0.002743
0.578955 0.121351 0.001125
0.619270 0.124325 -0.001329
0.658582 0.127708 -0.001609
0.695836 0.131642 -0.001690
0.730652 0.135756 -0.001767
0.001230 0.144618 0.118482
0.004801 0.144929 0.119496
0.013052 0.146965 0.120715
0.089820 0.144135 0.115137
0.168398 0.142802 0.091817
0.252029 0.146636 0.034506
0.326552 0.156145 0.011461
0.390414 0.166139 0.007566
0.443898 0.176155 0.004665
0.502554 0.186306 -0.001152
0.559369 0.197448 -0.001547
0.608483 0.206835 -0.001639
0.646307 0.213428 -0.001719
0.683769 0.220052 -0.001794
0.720701 0.226152 -0.001872
0.754787 0.231702 -0.001947
0.011350 0.197726 0.145645
0.016115 0.198270 0.145873
0.026109 0.200272 0.145923
0.089273 0.203264 0.138415
0.179873 0.191946 0.126378
0.264457 0.197397 0.067908
0.348537 0.207639 0.017627
0.422711 0.220483 0.009046
0.482415 0.232510 0.005601
0.543572 0.244734 0.000750
0.601713 0.257276 -0.001690
0.654968 0.268650 -0.001840
0.695247 0.276591 -0.001922
0.729782 0.282961 -0.001995
0.762307 0.288953 -0.002075
0.791464 0.294567 -0.002141
0.024005 0.247092 0.166788
0.029877 0.248188 0.166946
0.037935 0.251231 0.166148
0.084976 0.260704 0.157055
0.191985 0.244509 0.149733
0.265052 0.246670 0.114889
0.360098 0.258177 0.044760
0.439699 0.271300 0.014840
0.508090 0.284530 0.010446
0.569143 0.297538 0.005629
0.628638 0.310833 0.002009
0.685391 0.323456 -0.001218
0.727657 0.332026 -0.001357
0.760118 0.337843 -0.001726
0.790144 0.343341 -0.002006
0.817022 0.348040 -0.002316
0.034448 0.295718 0.184438
0.039293 0.296937 0.183350
0.046571 0.301247 0.182207
0.081444 0.314437 0.172198
0.196865 0.301360 0.163387
0.271551 0.294024 0.135991
0.356357 0.305033 0.085137
0.449185 0.318757 0.034678
0.516918 0.330465 0.015802
0.580817 0.343306 0.011937
0.642777 0.356986 0.006990
0.700516 0.370826 0.004897
0.746722 0.380765 0.003819
0.779703 0.386131 -0.001152
0.807979 0.391493 -0.001239
0.833228 0.396658 -0.001280
0.040999 0.347888 0.198329
0.045755 0.349651 0.196947
0.052322 0.355902 0.195335
0.077908 0.371735 0.184510
0.193267 0.369616 0.164553
0.280498 0.346771 0.148116
0.353242 0.351192 0.107314
0.442720 0.367829 0.063079
0.519889 0.377965 0.033368
0.585595 0.388065 0.017969
0.646723 0.401191 0.014172
0.707150 0.414827 0.013175
0.756231 0.425278 0.009243
0.788979 0.431606 0.008225
0.816983 0.436977 0.007822
0.842594 0.441467 0.005650
0.044790 0.401941 0.209603
0.049028 0.404878 0.207828
0.054802 0.414494 0.205698
0.073795 0.433159 0.194044
0.179505 0.443355 0.158478
0.286402 0.411795 0.150391
0.363727 0.408935 0.117861
0.437631 0.417492 0.081078
0.515117 0.430600 0.051031
0.583091 0.439157 0.032608
0.649892 0.449258 0.022601
0.709898 0.460838 0.017564
0.760628 0.471096 0.016147
0.796942 0.476575 0.015511
0.825375 0.480933 0.012986
0.850617 0.485390 0.012164
0.045905 0.457767 0.218514
0.049663 0.461958 0.216329
0.054681 0.473756 0.213647
0.068750 0.494899 0.201090
0.160904 0.513670 0.149185
0.290387 0.487274 0.143316
0.369938 0.468774 0.122314
0.444507 0.473202 0.087275
0.510440 0.481961 0.064654
0.579087 0.493174 0.045230
0.645438 0.502350 0.033163
0.709883 0.510689 0.026610
0.766317 0.519412 0.022116
0.802836 0.525284 0.020367
0.830798 0.528980 0.019479
0.856522 0.531960 0.018744
0.044877 0.518463 0.225602
0.048176 0.525183 0.223043
0.052364 0.537843 0.219551
0.063463 0.558104 0.206488
0.138338 0.581949 0.138211
0.289191 0.561705 0.132218
0.375192 0.534187 0.118143
0.452231 0.532975 0.093310
0.514424 0.535420 0.067249
0.574215 0.543630 0.053475
0.641799 0.555109 0.041841
0.706231 0.563586 0.034070
0.765425 0.569176 0.029752
0.808065 0.572704 0.027152
0.836837 0.575660 0.024918
0.861693 0.578961 0.023976
0.041828 0.584593 0.230795
0.044563 0.592723 0.227558
0.047963 0.605079 0.222830
0.056937 0.623262 0.210410
0.120315 0.648895 0.133232
0.284523 0.636255 0.119526
0.381183 0.608507 0.108674
0.455466 0.591859 0.091498
0.522397 0.595598 0.072458
0.576512 0.596293 0.054513
0.637440 0.604803 0.046627
0.702796 0.614218 0.039923
0.763890 0.619556 0.034840
0.807484 0.620677 0.032851
0.839382 0.620648 0.031754
0.866864 0.622144 0.029535
0.036922 0.652230 0.232971
0.039124 0.660422 0.229135
0.041928 0.671333 0.223707
0.049282 0.686946 0.211693
0.105165 0.710148 0.128693
0.277522 0.705671 0.106171
0.382951 0.680089 0.097083
0.461414 0.659508 0.084395
0.525614 0.653146 0.071439
0.583223 0.655364 0.058422
0.638987 0.656987 0.045845
0.699911 0.664706 0.042432
0.761876 0.670063 0.038939
0.808482 0.670853 0.036607
0.839824 0.668862 0.035689
0.867594 0.666898 0.035414
0.031463 0.711193 0.232717
0.033104 0.719980 0.228244
0.035471 0.730242 0.222393
0.040999 0.744429 0.210710
0.091393 0.764423 0.127158
0.269624 0.765768 0.094700
0.382033 0.744016 0.086949
0.466516 0.725219 0.076829
0.527544 0.709948 0.067252
0.585515 0.708848 0.058359
0.643581 0.711511 0.048736
0.700567 0.714383 0.040373
0.760426 0.719314 0.040320
0.808401 0.719741 0.039064
0.841449 0.717227 0.038369
0.869039 0.714280 0.038017
0.026513 0.759802 0.231456
0.027961 0.766753 0.226961
0.030043 0.775311 0.221259
0.035414 0.787291 0.209540
0.083979 0.805997 0.125580
0.262941 0.812157 0.087494
0.379611 0.795087 0.079849
0.467789 0.779414 0.071350
0.532831 0.766704 0.063661
0.585378 0.756500 0.057340
0.644553 0.758627 0.050463
0.702936 0.761863 0.043992
0.760921 0.764801 0.037358
0.809550 0.765728 0.040706
0.843268 0.762774 0.040309
0.870694 0.759223 0.040083
-0.000116 0.012366 0.051914
-0.000144 0.017417 0.060379
-0.000212 0.027679 0.084116
0.046368 0.023950 0.104905
0.136715 0.012481 0.105656
0.238672 0.006041 0.097338
0.330563 0.004583 0.089594
0.425954 0.001686 0.082812
0.510220 -0.001259 0.078158
0.574437 -0.001385 0.074611
0.626472 -0.001489 0.071213
0.675197 -0.001586 0.067352
0.721376 -0.001683 0.063713
0.763503 -0.001787 0.060601
0.799665 -0.001872 0.057341
0.827708 -0.001947 0.054917
-0.000174 0.024296 0.064104
-0.000198 0.028419 0.070471
-0.000243 0.035954 0.083790
0.034435 0.039001 0.104999
0.120773 0.033304 0.105197
0.221343 0.020325 0.095923
0.307121 0.012601 0.089011
0.392995 0.008819 0.083978
0.484703 0.007282 0.079327
0.566290 0.003150 0.074101
0.624769 -0.000824 0.069949
0.675506 -0.001464 0.065947
0.723007 -0.001669 0.062050
0.766203 -0.001787 0.058241
0.804766 -0.001885 0.054378
0.836089 -0.001971 0.051275
-0.000308 0.050410 0.084733
-0.000330 0.054269 0.090928
-0.000361 0.059554 0.099506
0.032425 0.068627 0.122261
0.124754 0.067758 0.113272
0.220631 0.063793 0.105565
0.313136 0.053736 0.096302
0.395736 0.043558 0.088598
0.482658 0.033745 0.081739
0.569940 0.025724 0.076391
0.636442 0.021120 0.072970
0.685534 0.018620 0.070311
0.731373 0.016351 0.067495
0.772988 0.014674 0.064397
0.809870 0.013541 0.060965
0.842191 0.012798 0.057538
-0.000524 0.092027 0.111584
-0.000540 0.095074 0.115030
-0.000566 0.099454 0.122048
0.034377 0.109219 0.137858
0.131427 0.112833 0.131714
0.215260 0.116216 0.124343
0.302136 0.116495 0.110790
0.389575 0.112778 0.092178
0.471408 0.111567 0.074909
0.550581 0.111958 0.060503
0.619794 0.112810 0.050554
0.670557 0.113058 0.044440
0.711842 0.113662 0.040192
0.750325 0.114289 0.036658
0.785400 0.115137 0.033823
0.816769 0.116069 0.031481
-0.000798 0.145568 0.138662
-0.000802 0.146695 0.140655
0.001170 0.148492 0.143733
0.045697 0.158825 0.155144
0.148717 0.160038 0.147140
0.234920 0.166746 0.132848
0.330756 0.174286 0.108902
0.420165 0.181885 0.082140
0.493455 0.189209 0.063186
0.563258 0.196884 0.050488
0.632368 0.204033 0.040632
0.688843 0.209129 0.034260
0.729064 0.211798 0.031039
0.765370 0.214228 0.028526
0.797898 0.216565 0.026690
0.827197 0.218938 0.025430
-0.001043 0.199759 0.166850
0.003923 0.200415 0.168038
0.007449 0.202605 0.170308
0.046617 0.214152 0.177530
0.162635 0.211501 0.170378
0.247033 0.215060 0.155204
0.350192 0.228081 0.118790
0.443746 0.242243 0.086220
0.514923 0.253556 0.065395
0.580575 0.263953 0.051404
0.644432 0.273494 0.040730
0.701428 0.281336 0.032788
0.742855 0.286344 0.028621
0.775531 0.290133 0.026518
0.805570 0.293692 0.025114
0.833361 0.296760 0.024088
0.008925 0.251295 0.191444
0.011647 0.252540 0.192382
0.017277 0.256421 0.194098
0.048707 0.269352 0.198080
0.167976 0.272173 0.191368
0.255120 0.263593 0.176525
0.353541 0.278567 0.146151
0.455773 0.296812 0.103042
0.532981 0.310738 0.076513
0.598072 0.322515 0.059779
0.659195 0.333192 0.047937
0.716721 0.342277 0.038473
0.759620 0.347852 0.033060
