entry/src/main/resources/rawfile/filters/VEL_Warm_Film.cube
TITLE "Warm Film"
LUT_3D_SIZE 6
0.056825 0.143282 0.168154
0.093254 0.146066 0.170083
0.229224 0.150341 0.171918
0.500920 0.141778 0.171359
0.824469 0.147704 0.170117
1.000000 0.330236 0.246479
0.054359 0.165722 0.175094
0.104135 0.173331 0.171909
0.275080 0.189394 0.166941
0.545705 0.207498 0.158497
0.838777 0.249225 0.145064
1.000000 0.383929 0.225458
0.000830 0.288966 0.204331
0.105315 0.285306 0.201874
0.337587 0.340957 0.172010
0.635312 0.388687 0.130623
0.861304 0.415666 0.090820
1.000000 0.493397 0.157699
0.000000 0.532598 0.282624
0.155635 0.516414 0.272782
0.372030 0.531125 0.247290
0.657932 0.604549 0.177280
0.890238 0.636061 0.107737
1.000000 0.636005 0.126830
0.386417 0.765417 0.482280
0.412853 0.753384 0.465324
0.504287 0.740833 0.447777
0.653651 0.773691 0.434315
0.858007 0.819634 0.398104
1.000000 0.823099 0.412223
0.731594 0.923476 0.766522
0.734008 0.921581 0.762518
0.760421 0.923091 0.765512
0.809024 0.930901 0.781241
0.881928 0.951483 0.793204
0.990005 0.968124 0.781476
0.058784 0.145345 0.181927
0.092943 0.147175 0.182759
0.238614 0.151208 0.193959
0.509714 0.146910 0.208476
0.828591 0.167832 0.216817
1.000000 0.345837 0.252277
0.058242 0.169753 0.193179
0.109230 0.176155 0.196377
0.276457 0.189914 0.201321
0.551431 0.203826 0.206898
0.841258 0.250972 0.209729
1.000000 0.393986 0.242310
0.061131 0.304016 0.249827
0.132186 0.304271 0.239611
0.347658 0.343042 0.217163
0.631619 0.375457 0.193547
0.860334 0.409833 0.182781
1.000000 0.496542 0.225597
0.163166 0.547868 0.358532
0.210489 0.532296 0.329261
0.386699 0.529583 0.307100
0.658882 0.602598 0.260502
0.885459 0.629218 0.222948
1.000000 0.636321 0.235645
0.431351 0.768309 0.528288
0.445617 0.756899 0.508168
0.524779 0.744750 0.489840
0.658483 0.771618 0.481694
0.856630 0.819733 0.459050
1.000000 0.825231 0.471962
0.735543 0.923482 0.774188
0.739006 0.922177 0.771339
0.766155 0.924494 0.775800
0.814364 0.932926 0.792360
0.885383 0.952949 0.805500
0.991037 0.969698 0.795788
0.056046 0.148965 0.248347
0.130047 0.151068 0.255805
0.263328 0.154220 0.268128
0.585247 0.115605 0.327795
0.852179 0.173396 0.366538
1.000000 0.440024 0.472288
0.014688 0.184551 0.271063
0.129712 0.188347 0.281749
0.301525 0.201944 0.294429
0.596267 0.214893 0.342765
0.839809 0.302338 0.392023
1.000000 0.463682 0.458279
0.003831 0.313688 0.329526
0.155881 0.321970 0.334656
0.368582 0.347412 0.347313
0.624572 0.376515 0.361919
0.852486 0.432641 0.385900
1.000000 0.533160 0.436143
0.256752 0.569201 0.479704
0.336111 0.560675 0.469250
0.452860 0.552133 0.444225
0.666111 0.604201 0.426543
0.874671 0.619007 0.408692
1.000000 0.655675 0.450126
0.520490 0.776915 0.629853
0.546974 0.768908 0.621135
0.579685 0.761527 0.590637
0.673870 0.768695 0.582652
0.854828 0.821930 0.581260
1.000000 0.829680 0.589852
0.764892 0.925039 0.810636
0.763973 0.924982 0.805937
0.781013 0.928664 0.805016
0.825223 0.937429 0.819370
0.890023 0.954758 0.832026
0.991757 0.972122 0.825495
0.026560 0.155343 0.406696
0.174267 0.155153 0.420764
0.413674 0.152395 0.461405
0.611176 0.140230 0.485794
0.899686 0.252123 0.566151
1.000000 0.518465 0.635001
0.000000 0.200596 0.435383
0.162208 0.205578 0.448227
0.433607 0.226105 0.486448
0.631976 0.247315 0.508478
0.887228 0.362325 0.576917
1.000000 0.559631 0.641234
0.000000 0.343130 0.475238
0.056313 0.343773 0.477958
0.426779 0.377038 0.519303
0.652755 0.433326 0.548744
0.851691 0.512868 0.592996
0.994025 0.631948 0.652774
0.200351 0.566293 0.576069
0.309179 0.562287 0.570253
0.496808 0.575484 0.578670
0.667558 0.603357 0.591904
0.852354 0.637688 0.608245
0.999918 0.699791 0.646995
0.549436 0.792013 0.715656
0.571099 0.785021 0.706968
0.640531 0.782880 0.703187
0.709184 0.784017 0.692407
0.854614 0.826407 0.697382
1.000000 0.832508 0.695657
0.758407 0.930178 0.836018
0.770236 0.930596 0.838531
0.810768 0.935026 0.851085
0.840264 0.945286 0.855783
0.895948 0.957320 0.865380
0.993988 0.975839 0.862361
0.120119 0.169207 0.678285
0.292137 0.165889 0.688566
0.553924 0.171899 0.717528
0.787841 0.282776 0.759425
0.916698 0.358689 0.760397
1.000000 0.605966 0.784299
0.056939 0.237525 0.691626
0.281925 0.242466 0.700296
0.554425 0.271974 0.725491
0.780362 0.385504 0.762496
0.902572 0.449582 0.761367
1.000000 0.641756 0.785623
0.000000 0.392179 0.700936
0.170638 0.393204 0.708838
0.520034 0.431683 0.730138
0.750914 0.530570 0.761234
0.872766 0.584799 0.763192
0.993410 0.701108 0.789708
0.026070 0.590295 0.736901
0.199659 0.578877 0.727502
0.422218 0.572273 0.723784
0.702865 0.640671 0.763423
0.858643 0.715653 0.787834
0.976874 0.780415 0.814511
0.484438 0.781758 0.785556
0.518157 0.777261 0.780399
0.614404 0.782724 0.783649
0.731058 0.801454 0.798767
0.850372 0.827004 0.814733
0.986848 0.855923 0.834247
0.768502 0.936412 0.882649
0.777824 0.937704 0.884294
0.808807 0.943012 0.890759
0.853754 0.953643 0.903017
0.906703 0.963700 0.910792
0.993942 0.979510 0.909676
0.552209 0.389792 0.944884
0.613920 0.409793 0.945168
0.741793 0.476188 0.946795
0.860801 0.572375 0.946291
0.959155 0.694374 0.944433
1.000000 0.731731 0.935775
0.556936 0.463475 0.944970
0.615081 0.479344 0.944365
0.736249 0.532724 0.944559
0.852469 0.618525 0.945870
0.949189 0.720627 0.944709
1.000000 0.743331 0.930654
0.534853 0.584329 0.945733
0.587569 0.587428 0.941831
0.706669 0.618103 0.938681
0.825322 0.678445 0.938951
0.927752 0.755633 0.937782
0.999475 0.775384 0.923561
0.402979 0.685051 0.947659
0.470996 0.675448 0.942886
0.636175 0.692272 0.938866
0.790114 0.743629 0.939860
0.911634 0.808417 0.941316
0.988498 0.837043 0.932741
0.519353 0.826599 0.944906
0.527974 0.817317 0.939187
0.588561 0.811261 0.936780
0.690685 0.814583 0.941741
0.880212 0.863759 0.952078
0.985613 0.911540 0.955398
0.725826 0.936873 0.940734
0.738329 0.939126 0.942934
0.777294 0.946041 0.949398
0.834083 0.958867 0.961529
0.907536 0.972039 0.973248
0.985321 0.983780 0.982788
