entry/src/main/resources/rawfile/filters/VEL_Sunset_Glow.cube
TITLE "Sunset Glow"
LUT_3D_SIZE 16
0.022349 0.030242 0.023762
0.038378 0.031686 0.025167
0.065319 0.032912 0.026733
0.096139 0.030580 0.026341
0.128953 0.025104 0.024729
0.170503 0.014849 0.026517
0.220632 0.006391 0.033232
0.300732 0.003891 0.037574
0.408423 0.000452 0.041304
0.539485 -0.001314 0.044111
0.669123 -0.001570 0.045480
0.769553 -0.001801 0.046654
0.838512 -0.001971 0.050243
0.895929 -0.002141 0.059664
0.937962 -0.002267 0.073990
0.968007 -0.002365 0.092187
0.029708 0.048767 0.035363
0.036716 0.048844 0.033399
0.066267 0.049239 0.027878
0.096393 0.046559 0.026611
0.129531 0.041644 0.024954
0.172297 0.032535 0.023120
0.228502 0.014076 0.028054
0.307526 0.004033 0.038351
0.413320 -0.000637 0.041643
0.544645 -0.001324 0.044018
0.671630 -0.001578 0.045372
0.769579 -0.001801 0.046341
0.837043 -0.001971 0.049598
0.894296 -0.002130 0.059017
0.936643 -0.002267 0.073892
0.967904 -0.002365 0.093042
0.035862 0.069246 0.048061
0.043582 0.065451 0.049746
0.052397 0.067186 0.042604
0.090145 0.069971 0.029904
0.130921 0.065027 0.025439
0.179078 0.060235 0.022790
0.239341 0.048843 0.020837
0.320766 0.016481 0.024887
0.422674 0.001105 0.041905
0.554659 -0.001338 0.044023
0.676827 -0.001586 0.044457
0.770405 -0.001801 0.045691
0.835770 -0.001971 0.049071
0.893107 -0.002130 0.058303
0.935130 -0.002256 0.073700
0.967200 -0.002355 0.094587
0.043850 0.092687 0.064181
0.054636 0.088460 0.067196
0.059418 0.087799 0.065028
0.072750 0.090523 0.055506
0.116255 0.096460 0.037519
0.182152 0.095165 0.023488
0.246313 0.089109 0.020621
0.330829 0.077643 0.018461
0.440660 0.044134 0.017259
0.562056 0.007764 0.042534
0.677013 0.001332 0.042721
0.766825 -0.000648 0.043318
0.832261 -0.001669 0.046548
0.887354 -0.001394 0.055854
0.927618 -0.001753 0.070773
0.959669 -0.002336 0.091115
0.054523 0.120880 0.084375
0.066452 0.118858 0.088001
0.078689 0.116613 0.094101
0.083807 0.119479 0.086064
0.102590 0.122540 0.073647
0.160751 0.133750 0.049927
0.256079 0.140845 0.025328
0.372572 0.137349 0.016956
0.489556 0.125340 0.015340
0.612500 0.105992 0.014521
0.713548 0.085174 0.014402
0.792009 0.065450 0.015230
0.851607 0.056485 0.017248
0.902216 0.068780 0.021909
0.940535 0.085379 0.030212
0.970018 0.099529 0.041635
0.070309 0.158975 0.110432
0.083543 0.158490 0.114980
0.099942 0.156266 0.121719
0.108671 0.155151 0.122251
0.117548 0.157210 0.109611
0.142191 0.160536 0.092611
0.214372 0.177044 0.063726
0.346606 0.199483 0.031430
0.504826 0.209238 0.014381
0.634519 0.197794 0.012338
0.724995 0.188663 0.012428
0.797505 0.185903 0.013492
0.852538 0.186637 0.015726
0.900360 0.197095 0.021589
0.937475 0.210662 0.031469
0.967801 0.225333 0.045716
0.092331 0.208417 0.142983
0.106813 0.208678 0.147513
0.126802 0.206480 0.154466
0.145201 0.202426 0.162472
0.150993 0.203742 0.153991
0.165392 0.205954 0.137793
0.196275 0.209193 0.114462
0.289144 0.234992 0.079033
0.448309 0.272681 0.039279
0.619159 0.297220 0.013617
0.735108 0.294447 0.009971
0.803322 0.295152 0.011862
0.853915 0.297407 0.015168
0.897781 0.306762 0.022450
0.933635 0.315832 0.035212
0.963718 0.324236 0.052757
0.125457 0.268755 0.181873
0.141794 0.271023 0.187793
0.164723 0.270543 0.195538
0.187819 0.267633 0.204416
0.204946 0.264296 0.209461
0.209607 0.264693 0.191042
0.226830 0.263440 0.168363
0.261172 0.264021 0.136436
0.367571 0.298069 0.096382
0.543159 0.350867 0.052151
0.693817 0.384954 0.019828
0.793374 0.395089 0.011674
0.850191 0.392285 0.016250
0.891996 0.395465 0.025767
0.926434 0.397936 0.040970
0.957277 0.402046 0.063263
0.166888 0.329598 0.220913
0.179886 0.328813 0.224490
0.201819 0.329006 0.232090
0.226906 0.327860 0.241275
0.254247 0.326052 0.254200
0.267124 0.327556 0.250467
0.279977 0.331387 0.230327
0.305457 0.333533 0.203940
0.350024 0.338932 0.166350
0.474233 0.384421 0.122593
0.642810 0.445698 0.076744
0.763114 0.480376 0.040399
0.841220 0.488389 0.027042
0.894508 0.483749 0.042241
0.928514 0.481610 0.064973
0.956940 0.478424 0.093171
0.236982 0.418671 0.282066
0.247134 0.416341 0.284063
0.265661 0.415530 0.288930
0.292169 0.413975 0.297491
0.323101 0.412095 0.312265
0.353121 0.410789 0.329325
0.359611 0.415366 0.310345
0.376188 0.418313 0.284027
0.405689 0.420484 0.251056
0.457054 0.427862 0.205280
0.571357 0.469188 0.160172
0.709248 0.520863 0.117890
0.803544 0.546030 0.083460
0.872986 0.553554 0.075565
0.921285 0.547372 0.098782
0.953089 0.539579 0.134769
0.327645 0.512203 0.355693
0.336547 0.510977 0.357769
0.353600 0.509781 0.362984
0.379714 0.508583 0.372962
0.410200 0.507353 0.388736
0.443113 0.506271 0.409316
0.460626 0.507632 0.412350
0.466397 0.509747 0.385747
0.483214 0.511090 0.353218
0.510315 0.510062 0.313069
0.559776 0.515913 0.261566
0.645960 0.541487 0.215074
0.756522 0.580556 0.180155
0.836559 0.600313 0.156691
0.896374 0.603464 0.163053
0.938848 0.594969 0.191768
0.432102 0.593479 0.443258
0.439032 0.592700 0.445597
0.453538 0.592120 0.451668
0.473027 0.591028 0.461035
0.496716 0.589789 0.474367
0.523665 0.588910 0.492424
0.549963 0.588723 0.512916
0.553428 0.590006 0.497505
0.560035 0.591403 0.469860
0.575029 0.590998 0.434615
0.600426 0.589745 0.392092
0.641009 0.591017 0.340211
0.702759 0.602402 0.291607
0.792567 0.632673 0.274195
0.858258 0.645138 0.267828
0.908371 0.647400 0.296457
0.505243 0.647927 0.514574
0.511141 0.647632 0.517106
0.524714 0.649280 0.525156
0.543920 0.651121 0.536753
0.566188 0.653650 0.552406
0.590436 0.655989 0.571166
0.616667 0.659592 0.594075
0.633684 0.663155 0.606627
0.638741 0.667731 0.592096
0.647970 0.670828 0.570935
0.665091 0.673935 0.545093
0.688335 0.674716 0.510680
0.720576 0.674814 0.471314
0.763765 0.678733 0.439789
0.824847 0.693862 0.432793
0.873213 0.699345 0.441408
0.609480 0.718944 0.624977
0.603179 0.712620 0.616190
0.606615 0.710060 0.616099
0.618238 0.709885 0.622945
0.633945 0.711577 0.634537
0.651283 0.713193 0.648409
0.670412 0.715542 0.665411
0.688806 0.718586 0.683784
0.696482 0.722440 0.684032
0.700046 0.724872 0.670126
0.708553 0.727516 0.653079
0.722089 0.728749 0.630116
0.741766 0.729247 0.601810
0.765340 0.725752 0.563722
0.795026 0.722647 0.531324
0.841973 0.733313 0.532751
0.674802 0.765345 0.701033
0.670336 0.760948 0.694582
0.671701 0.758233 0.693406
0.678666 0.757748 0.697227
0.689908 0.758590 0.705311
0.702880 0.759692 0.715409
0.716880 0.761364 0.727479
0.730575 0.763211 0.740644
0.742454 0.766032 0.752351
0.744521 0.768334 0.744671
0.748752 0.770728 0.734509
0.756420 0.772988 0.721857
0.769018 0.775531 0.707093
0.785811 0.776686 0.686450
0.805967 0.774801 0.658776
0.824192 0.766559 0.623619
0.728953 0.804772 0.764163
0.725437 0.801062 0.759166
0.726201 0.799183 0.758133
0.730705 0.798808 0.760565
0.738581 0.799414 0.765990
0.748518 0.800227 0.773161
0.759696 0.801602 0.782147
0.770853 0.803278 0.791773
0.782164 0.805334 0.802477
0.788123 0.808027 0.805609
0.791753 0.811604 0.801348
0.797488 0.815041 0.796141
0.806482 0.819516 0.790826
0.818354 0.823526 0.783338
0.834698 0.827935 0.775350
0.855171 0.832461 0.769032
0.023437 0.036056 0.039813
0.039214 0.037336 0.040290
0.067455 0.035057 0.036471
0.097742 0.036738 0.030811
0.130693 0.037830 0.026520
0.173484 0.030787 0.023298
0.228204 0.014794 0.027368
0.304776 0.004351 0.038237
0.409813 -0.000243 0.041489
0.540311 -0.001319 0.043973
0.668855 -0.001570 0.045146
0.766647 -0.001794 0.046519
0.834399 -0.001959 0.049600
0.891806 -0.002130 0.058706
0.934035 -0.002256 0.072529
0.965315 -0.002355 0.090654
0.018486 0.056689 0.048866
0.040360 0.056842 0.047036
0.065624 0.055368 0.042951
0.096571 0.054028 0.037014
0.132315 0.051381 0.029512
0.176998 0.046541 0.023082
0.236599 0.032132 0.021031
0.314555 0.008553 0.035448
0.419440 -0.000832 0.041684
0.552424 -0.001343 0.044149
0.676177 -0.001586 0.044842
0.769769 -0.001801 0.045925
0.835191 -0.001971 0.049027
0.891445 -0.002130 0.058315
0.933215 -0.002256 0.072389
0.964864 -0.002355 0.091377
0.023861 0.080176 0.057577
0.047588 0.076742 0.060381
0.057454 0.075759 0.056199
0.095192 0.076410 0.045112
0.136047 0.072980 0.035640
0.186338 0.069658 0.026504
0.248550 0.062034 0.020813
0.332495 0.037735 0.019046
0.439534 0.006782 0.041560
0.568179 -0.001285 0.043806
0.683118 -0.001601 0.044296
0.771335 -0.001801 0.045243
0.835188 -0.001971 0.048281
0.890813 -0.002119 0.057465
0.931952 -0.002246 0.072391
0.963708 -0.002346 0.092340
0.036753 0.104370 0.073282
0.055590 0.100548 0.076385
0.065884 0.096523 0.077984
0.078128 0.098411 0.068385
0.124495 0.103523 0.051955
0.190964 0.101039 0.034154
0.258046 0.097048 0.023876
0.347081 0.088658 0.018512
0.458774 0.061788 0.016989
0.578652 0.012003 0.032927
0.687033 0.001676 0.041692
0.772394 0.000900 0.042347
0.837075 -0.001447 0.046276
0.889888 -0.000948 0.056093
0.928514 -0.001531 0.071383
0.958918 -0.002326 0.091079
0.050131 0.129939 0.091236
0.065232 0.127368 0.094210
0.081091 0.123018 0.099107
0.086816 0.122926 0.094281
0.103764 0.124762 0.082356
0.160452 0.134858 0.061545
0.254848 0.140851 0.035782
0.362465 0.138678 0.021779
0.476421 0.130690 0.015730
0.597931 0.113344 0.014389
0.702544 0.096232 0.014140
0.784488 0.079935 0.014879
0.846370 0.073149 0.016687
0.897894 0.080529 0.021335
0.937037 0.093335 0.029390
0.967853 0.106707 0.040648
0.066311 0.166484 0.116018
0.081094 0.164628 0.119431
0.099615 0.160668 0.124912
0.111603 0.157334 0.128448
0.118809 0.159369 0.116259
0.143109 0.162276 0.100653
0.213170 0.177192 0.073301
0.342130 0.196972 0.040812
0.492995 0.205727 0.020065
0.620483 0.197893 0.012648
0.715643 0.190928 0.012365
0.791015 0.188783 0.013325
0.847674 0.189564 0.015391
0.896062 0.198509 0.020880
0.933910 0.210391 0.030369
0.965401 0.226236 0.044501
0.088560 0.216411 0.148198
0.104539 0.215644 0.152046
0.126398 0.211591 0.157889
0.146296 0.206629 0.165462
0.153936 0.205638 0.160242
0.166361 0.207132 0.143565
0.195198 0.208855 0.121176
0.285286 0.232975 0.087438
0.444318 0.269679 0.047979
0.612804 0.293315 0.018959
0.725115 0.292475 0.011554
0.796565 0.292682 0.011863
0.848380 0.294778 0.014794
0.893248 0.303785 0.021391
0.929646 0.312462 0.033235
0.961020 0.322157 0.050617
0.121325 0.274905 0.185941
0.137686 0.275331 0.190440
0.160676 0.272050 0.196368
0.184546 0.267528 0.204106
0.204988 0.262571 0.212275
0.208996 0.263407 0.194883
0.226409 0.263388 0.173467
0.260509 0.264167 0.143551
0.366381 0.297498 0.104181
0.540332 0.348235 0.059828
0.689745 0.381013 0.025013
0.787274 0.391885 0.011844
0.846431 0.389638 0.015629
0.888545 0.392893 0.024456
0.923110 0.394552 0.038700
0.953645 0.397295 0.058933
0.168087 0.341124 0.228667
0.181542 0.339397 0.231835
0.203158 0.337195 0.237859
0.228365 0.334068 0.245477
0.256080 0.330788 0.257360
0.271580 0.330803 0.257232
0.282949 0.334058 0.236693
0.307543 0.335803 0.210906
0.350615 0.340051 0.173641
0.474325 0.384543 0.130103
0.641595 0.444152 0.084531
0.762049 0.478149 0.046562
0.838196 0.486635 0.025981
0.892713 0.482805 0.041225
0.927788 0.481617 0.064404
0.956851 0.479618 0.093797
0.236605 0.425951 0.287313
0.248231 0.424202 0.289725
0.267643 0.422137 0.294110
0.293999 0.420048 0.302286
0.325884 0.417830 0.316461
0.358300 0.415439 0.335255
0.363771 0.418136 0.317216
0.378022 0.419832 0.289768
0.405749 0.420876 0.256748
0.455276 0.426999 0.211896
0.568805 0.467353 0.166923
0.707657 0.518821 0.124869
0.802872 0.544337 0.090076
0.871464 0.552765 0.074944
0.920704 0.547336 0.098184
0.953188 0.540187 0.135853
0.328016 0.517230 0.360480
0.338406 0.516851 0.363394
0.356075 0.515485 0.368284
0.381479 0.513639 0.377753
0.412024 0.511513 0.392558
0.444642 0.509365 0.412140
0.463460 0.508943 0.417592
0.467339 0.510193 0.390460
0.483005 0.510881 0.357633
0.509191 0.509326 0.317911
0.557087 0.514278 0.266793
0.643748 0.539807 0.220209
0.754733 0.578714 0.185754
0.835400 0.598514 0.161446
0.895007 0.602395 0.159769
0.938193 0.594495 0.189669
0.430984 0.595930 0.446001
0.438938 0.595405 0.448846
0.452666 0.594170 0.453802
0.471936 0.592770 0.462711
0.496133 0.591460 0.476107
0.523820 0.590589 0.493978
0.550720 0.590569 0.514469
0.555578 0.591262 0.502399
0.560596 0.591642 0.473942
0.574407 0.590422 0.438005
0.598420 0.588300 0.394565
0.638005 0.588951 0.343182
0.699704 0.599707 0.293863
0.790166 0.630073 0.274470
0.856173 0.642107 0.258413
0.907048 0.644315 0.284990
0.509360 0.652780 0.521254
0.515170 0.652427 0.523677
0.527895 0.653470 0.530741
0.546381 0.654684 0.541388
0.567611 0.656460 0.555875
0.591807 0.658356 0.574055
0.618254 0.661988 0.596950
0.636670 0.665303 0.611665
0.640792 0.669204 0.596785
0.649259 0.672087 0.575442
0.665534 0.674652 0.549191
0.688392 0.675340 0.514947
0.720626 0.675466 0.476061
0.763634 0.679608 0.445902
0.824965 0.695057 0.440184
0.873770 0.700255 0.444326
0.610517 0.721385 0.628314
0.605519 0.715640 0.620579
0.609074 0.713250 0.620612
0.620344 0.712959 0.627077
0.635642 0.714023 0.638043
0.652767 0.715342 0.651365
0.671504 0.717397 0.667768
0.689917 0.720047 0.685545
0.697973 0.723460 0.687135
0.700941 0.725508 0.672778
0.708999 0.727817 0.655616
0.722232 0.729186 0.632804
0.741975 0.729911 0.605093
0.765528 0.726780 0.567780
0.795549 0.723827 0.536231
0.842518 0.734347 0.535559
0.675337 0.766903 0.702922
0.671224 0.762467 0.696895
0.672963 0.760438 0.696140
0.680070 0.759892 0.700059
0.691284 0.760468 0.708080
0.704006 0.761290 0.717568
0.717788 0.762875 0.729391
0.731299 0.764602 0.742052
0.743595 0.766836 0.754373
0.745239 0.768891 0.746373
0.749280 0.771193 0.736291
0.756778 0.773405 0.723528
0.769189 0.775983 0.708846
0.786031 0.776968 0.688336
0.806231 0.775371 0.661260
0.824712 0.767477 0.627255
0.729064 0.805730 0.765044
0.725867 0.802133 0.760608
0.726585 0.800501 0.759628
0.731401 0.800187 0.762217
0.739494 0.800761 0.767594
0.749375 0.801511 0.774732
0.760478 0.802978 0.783576
0.771614 0.804209 0.792924
0.782588 0.806185 0.803319
0.788995 0.808834 0.806954
0.792183 0.812169 0.802661
0.797533 0.815333 0.797020
0.806168 0.819366 0.791199
0.818128 0.823277 0.783475
0.834351 0.827724 0.775461
0.854719 0.832181 0.768296
0.017732 0.044252 0.069403
0.036440 0.044544 0.065115
0.057956 0.044422 0.060050
0.089697 0.043095 0.055964
0.129389 0.036866 0.045436
0.171891 0.037054 0.038591
0.229163 0.026673 0.032691
0.304935 0.011109 0.037707
0.407939 0.000522 0.041771
0.539772 -0.001314 0.044229
0.666812 -0.001570 0.044720
0.764542 -0.001787 0.045570
0.832665 -0.001959 0.048794
0.891060 -0.002130 0.057853
0.933427 -0.002256 0.072560
0.965125 -0.002355 0.091217
0.017123 0.060472 0.072383
0.038139 0.061693 0.069350
0.059062 0.061681 0.065528
0.091383 0.059197 0.060654
0.125636 0.059087 0.053615
0.175026 0.054598 0.044755
0.235932 0.044085 0.034211
0.315811 0.019473 0.031085
0.420504 0.000712 0.042188
0.552331 -0.001338 0.043993
0.674681 -0.001586 0.044655
0.768026 -0.001794 0.045044
0.833871 -0.001959 0.048913
0.890801 -0.002119 0.058104
0.932674 -0.002246 0.072649
0.964602 -0.002355 0.091740
0.013530 0.083808 0.077701
0.033851 0.083645 0.075702
0.060239 0.083738 0.073393
0.091452 0.082255 0.068388
0.130165 0.080802 0.062481
0.183403 0.076436 0.051093
0.248605 0.068654 0.038252
0.333074 0.051403 0.027070
0.444034 0.013641 0.033220
0.568038 -0.000637 0.043756
0.681866 -0.001601 0.043742
0.769666 -0.001801 0.043942
0.834349 -0.001959 0.047525
0.890044 -0.002119 0.057088
0.931371 -0.002246 0.072551
0.963350 -0.002346 0.092637
0.013749 0.111511 0.086977
0.036182 0.110346 0.085539
0.069315 0.106994 0.089088
0.082459 0.106482 0.084390
0.130599 0.109289 0.073372
0.189175 0.105703 0.058910
0.257944 0.101233 0.044642
0.350090 0.094042 0.031687
0.461095 0.075200 0.021844
0.581214 0.041704 0.016110
0.686285 0.006965 0.041129
0.771227 0.002070 0.041383
0.836439 0.001125 0.045376
0.888783 0.001561 0.055605
0.927437 0.001470 0.071325
0.957980 0.001423 0.091240
0.030685 0.137334 0.099356
0.049855 0.137367 0.100885
0.079957 0.134086 0.106744
0.093806 0.130696 0.108760
0.109222 0.132285 0.096689
0.167198 0.140950 0.080325
0.260935 0.143121 0.055999
0.362860 0.141616 0.039035
0.477885 0.135269 0.026499
0.597503 0.123799 0.017349
0.701580 0.113249 0.014205
0.784031 0.103186 0.014709
0.845649 0.099383 0.016477
0.897341 0.105395 0.021239
0.936405 0.114781 0.029369
0.967603 0.123649 0.041305
0.048089 0.175531 0.122940
0.067546 0.176205 0.126362
0.096937 0.172114 0.132220
0.118435 0.166975 0.139367
0.125715 0.167266 0.130671
0.149497 0.169910 0.115438
0.222502 0.183919 0.090506
0.355678 0.201761 0.057537
0.501444 0.206846 0.034636
0.620997 0.202885 0.021741
0.716096 0.200928 0.013719
0.790959 0.201214 0.013231
0.847403 0.202540 0.015229
0.895670 0.211442 0.020664
0.933637 0.222803 0.030519
0.965483 0.237770 0.045053
0.071718 0.227433 0.155146
0.094540 0.227713 0.159472
0.122797 0.223387 0.165152
0.149751 0.217637 0.173185
0.163349 0.214192 0.174688
0.174080 0.215807 0.157278
0.202789 0.216943 0.136392
0.296590 0.241037 0.103975
0.458768 0.275936 0.063737
0.620150 0.295608 0.032712
0.726468 0.295783 0.018789
0.796207 0.300638 0.012902
0.847994 0.303010 0.014765
0.892608 0.311350 0.021339
0.929304 0.319376 0.033565
0.961086 0.327737 0.051553
0.109036 0.287022 0.193905
0.129045 0.287645 0.198110
0.157233 0.284105 0.203586
0.187296 0.279139 0.211899
0.213550 0.273142 0.222092
0.219694 0.272559 0.209485
0.234906 0.272040 0.187013
0.268295 0.272495 0.158800
0.377612 0.305799 0.120128
0.551986 0.354991 0.075445
0.698627 0.385161 0.038391
0.788989 0.393998 0.020945
0.846141 0.394553 0.016070
0.888269 0.397322 0.024688
0.922684 0.398320 0.039038
0.953466 0.400153 0.059617
0.159184 0.353461 0.236927
0.175080 0.351591 0.239846
0.201037 0.348448 0.245468
0.229997 0.345465 0.253471
0.261683 0.342209 0.265369
0.284687 0.340482 0.272295
0.293779 0.343665 0.251770
0.316600 0.344750 0.225339
0.359363 0.348616 0.189722
0.484603 0.392727 0.146812
0.649531 0.449760 0.101423
0.767297 0.481036 0.062966
0.839936 0.488395 0.037206
0.892331 0.486037 0.042325
0.928082 0.484155 0.065718
0.957432 0.482028 0.095819
0.232583 0.436558 0.295043
0.245956 0.434795 0.297761
0.266613 0.432798 0.302429
0.295460 0.430711 0.310530
0.330264 0.428772 0.324568
0.366308 0.426279 0.343607
0.376213 0.427673 0.333211
0.388029 0.429060 0.305199
0.414410 0.429522 0.272629
0.463076 0.434995 0.228692
0.575947 0.473866 0.184030
0.712082 0.522758 0.143015
0.806121 0.546295 0.107107
0.872224 0.554195 0.082003
0.920803 0.549043 0.099723
0.953515 0.541750 0.138087
0.326240 0.525010 0.367840
0.337938 0.524867 0.371100
0.356488 0.523598 0.376279
0.382756 0.521903 0.385394
0.415425 0.519693 0.400169
0.450571 0.517729 0.420139
0.474719 0.516907 0.432761
0.477253 0.517909 0.406438
0.490880 0.517952 0.373147
0.515256 0.515871 0.333386
0.561911 0.519768 0.283506
0.647797 0.544312 0.237816
0.756660 0.581216 0.204516
0.836817 0.599908 0.178968
0.895212 0.603426 0.162913
0.938683 0.595519 0.192753
0.429480 0.601175 0.451607
0.437943 0.600651 0.454531
0.451936 0.599339 0.459472
0.472154 0.598082 0.468319
0.497622 0.597036 0.481913
0.526618 0.596264 0.499986
0.554366 0.596176 0.520257
0.562739 0.596503 0.514777
0.566512 0.596630 0.486807
0.579187 0.595172 0.451326
0.602039 0.592612 0.408328
0.639829 0.592237 0.357931
0.701629 0.603058 0.310633
0.790893 0.632251 0.292550
0.856564 0.643342 0.273592
0.907350 0.644738 0.286873
0.509316 0.657287 0.526521
0.515197 0.656866 0.528926
0.527917 0.657672 0.535574
0.546595 0.658524 0.546057
0.568471 0.660428 0.560592
0.593402 0.662341 0.578583
0.620516 0.665772 0.601226
0.641516 0.668901 0.620139
0.645304 0.672835 0.606227
0.652888 0.675396 0.585235
0.668241 0.677850 0.559608
0.690360 0.678511 0.526282
0.722080 0.678508 0.487986
0.764800 0.682585 0.459146
0.825244 0.697662 0.454322
0.874200 0.701356 0.448139
0.609441 0.723461 0.630684
0.604838 0.718139 0.623456
0.608859 0.716068 0.623756
0.620318 0.715596 0.630317
0.635875 0.716613 0.641181
0.653477 0.717856 0.654303
0.672667 0.719994 0.670550
0.691466 0.722676 0.688453
0.701294 0.725934 0.693239
0.703830 0.727907 0.679391
0.711145 0.730020 0.662506
0.724008 0.731268 0.640020
0.743107 0.731775 0.612789
0.766308 0.728669 0.575910
0.796263 0.725750 0.544678
0.843361 0.735861 0.541508
0.673995 0.768311 0.704032
0.670155 0.764166 0.698273
0.672226 0.762089 0.697622
0.679616 0.761597 0.701707
0.690939 0.762273 0.709657
0.703984 0.763008 0.719284
0.718096 0.764770 0.731072
0.732062 0.766180 0.743731
0.745216 0.768486 0.756858
0.747217 0.770400 0.750254
0.750960 0.772587 0.740337
0.758012 0.774878 0.727886
0.770177 0.777230 0.713249
0.786823 0.778312 0.693222
0.806830 0.776660 0.666366
0.825361 0.769097 0.633222
0.728072 0.806783 0.765776
0.724832 0.803340 0.761187
0.725796 0.801516 0.760479
0.730901 0.801307 0.763103
0.739263 0.802106 0.768719
0.749208 0.802868 0.775690
0.760525 0.804116 0.784438
0.771838 0.805508 0.793835
0.783079 0.807356 0.804179
0.790237 0.809797 0.809381
0.793521 0.813066 0.805035
0.798525 0.816310 0.799407
0.807033 0.820184 0.793563
0.818632 0.823956 0.785710
0.834696 0.828229 0.777481
0.855049 0.832650 0.769316
0.009179 0.050996 0.095886
0.026107 0.051492 0.093828
0.051115 0.052061 0.087402
0.078442 0.053177 0.082384
0.112730 0.052878 0.079518
0.168822 0.038550 0.071043
0.227815 0.019729 0.059728
0.303738 0.012371 0.060998
0.407985 0.001101 0.062902
0.540872 -0.001319 0.059025
0.668543 -0.001570 0.047715
0.765291 -0.001787 0.045740
0.833433 -0.001959 0.048732
0.891474 -0.002130 0.057763
0.933561 -0.002256 0.073134
0.964908 -0.002355 0.092484
0.011964 0.066791 0.098081
0.030002 0.067765 0.095846
0.054368 0.067990 0.090851
0.080298 0.067997 0.087077
0.114944 0.066503 0.084135
0.171015 0.056639 0.075131
0.235090 0.045926 0.063599
0.314971 0.025075 0.060559
0.420385 0.007312 0.067358
0.552577 -0.001343 0.062446
0.675697 -0.001586 0.049938
0.768319 -0.001794 0.045124
0.834717 -0.001971 0.047847
0.891059 -0.002119 0.057365
0.932462 -0.002246 0.072730
0.964401 -0.002355 0.092992
0.012379 0.086171 0.101084
0.028819 0.086680 0.099254
0.056361 0.088208 0.097167
0.083940 0.089360 0.095521
0.124210 0.086414 0.091539
0.176566 0.081544 0.081716
0.243904 0.073433 0.071239
0.335608 0.051855 0.057923
0.444128 0.021740 0.063476
0.566059 0.003383 0.067190
0.681577 -0.001385 0.053451
0.769603 -0.001787 0.043969
0.835060 -0.001971 0.047288
0.890078 -0.002119 0.056660
0.931316 -0.002246 0.072818
0.962999 -0.002184 0.093609
0.008039 0.113414 0.109494
0.021312 0.113690 0.108091
0.050814 0.114709 0.106758
0.087633 0.116865 0.106418
0.128879 0.114644 0.099796
0.181883 0.112322 0.091995
0.253834 0.106602 0.079175
0.350965 0.095483 0.062392
0.464870 0.071762 0.046167
0.584455 0.031717 0.035566
0.688027 0.016397 0.045123
0.772183 0.010864 0.040559
0.837082 0.004098 0.044524
0.888884 0.004763 0.054702
0.927358 0.008225 0.071370
0.959226 0.019598 0.083384
0.004727 0.144446 0.119045
0.013460 0.145204 0.118631
0.050061 0.145949 0.117767
0.098290 0.143508 0.123812
0.116088 0.142772 0.117495
0.179168 0.148541 0.105596
0.262150 0.146263 0.088400
0.363561 0.144243 0.070144
0.481073 0.136312 0.052579
0.601770 0.122546 0.037959
0.704155 0.117316 0.026295
0.785529 0.124352 0.017230
0.846084 0.127396 0.016524
0.897061 0.132605 0.021054
0.936079 0.138607 0.029605
0.967379 0.143287 0.042010
0.014713 0.183618 0.138013
0.032331 0.185591 0.138766
0.068802 0.186403 0.140920
0.117659 0.183021 0.150049
0.136850 0.179128 0.151782
0.159345 0.181417 0.136201
0.237627 0.194065 0.116559
0.374438 0.206820 0.085865
0.507964 0.208290 0.062487
0.624915 0.206546 0.044981
0.719508 0.204143 0.032069
0.792859 0.211708 0.021079
0.848168 0.220169 0.015658
0.895801 0.228753 0.020924
0.933683 0.238936 0.031177
0.965518 0.251009 0.046241
0.037119 0.235814 0.166937
0.058185 0.238689 0.169246
0.097851 0.239837 0.173827
0.147304 0.234805 0.184344
0.176602 0.228341 0.193643
0.185713 0.228763 0.179533
0.215008 0.229612 0.158769
0.313611 0.253046 0.130011
0.480572 0.284463 0.090284
0.632355 0.297550 0.058280
0.729251 0.299791 0.040521
0.797358 0.306049 0.028404
0.848187 0.313617 0.019078
0.892892 0.322476 0.022117
0.929277 0.328853 0.034299
0.961163 0.335668 0.052661
0.073214 0.298474 0.203620
0.097188 0.302743 0.207787
0.140630 0.303380 0.214841
0.185122 0.296980 0.223442
