entry/src/main/resources/rawfile/filters/VEL_Cinematic_Teal.cube
TITLE "Cinematic Teal"
LUT_3D_SIZE 16
0.030809 0.031548 0.031848
0.037620 0.032187 0.032466
0.049902 0.033372 0.033614
0.071292 0.036453 0.036556
0.103819 0.041070 0.040389
0.153642 0.045341 0.041906
0.220457 0.051381 0.039867
0.318656 0.064051 0.039365
0.450199 0.086466 0.042079
0.572545 0.116544 0.046685
0.670255 0.145436 0.052056
0.741561 0.162115 0.055894
0.798154 0.175345 0.059138
0.841619 0.183636 0.061218
0.866200 0.186168 0.061873
0.876149 0.186744 0.061995
0.031871 0.038688 0.032943
0.038546 0.039180 0.033416
0.050550 0.042720 0.034506
0.071874 0.048038 0.037289
0.104852 0.054075 0.039735
0.153887 0.061260 0.040822
0.220616 0.070803 0.039049
0.318915 0.086357 0.038804
0.451013 0.110577 0.041582
0.573739 0.141504 0.046407
0.671580 0.170752 0.051898
0.742831 0.188034 0.055758
0.799661 0.201375 0.059036
0.842933 0.209558 0.061105
0.867383 0.211792 0.061757
0.877041 0.211249 0.061875
0.033808 0.051510 0.034957
0.042655 0.051705 0.035161
0.051346 0.052037 0.035337
0.072953 0.060243 0.037438
0.105518 0.069023 0.039284
0.154108 0.079774 0.040207
0.221285 0.093029 0.038460
0.320585 0.112310 0.038389
0.453645 0.139501 0.041476
0.576306 0.171742 0.046556
0.673947 0.200755 0.052099
0.744655 0.217556 0.055993
0.801136 0.230241 0.059269
0.844308 0.237529 0.061310
0.868501 0.238601 0.061911
0.878040 0.236288 0.061944
0.036153 0.073221 0.037703
0.048074 0.073300 0.037755
0.060087 0.073634 0.037618
0.073858 0.074197 0.037615
0.105901 0.086080 0.039062
0.154309 0.100623 0.039835
0.222575 0.118504 0.037949
0.325231 0.142819 0.038214
0.459721 0.174370 0.041869
0.580105 0.206527 0.047180
0.676928 0.235196 0.052795
0.746400 0.251966 0.056641
0.802918 0.264156 0.059848
0.845824 0.270497 0.061806
0.869763 0.269927 0.062317
0.879000 0.265598 0.062273
0.037836 0.103724 0.040272
0.052862 0.103742 0.039948
0.068296 0.103920 0.039788
0.085638 0.104369 0.039592
0.106275 0.105368 0.039441
0.154675 0.123257 0.039927
0.224713 0.145745 0.037865
0.334433 0.178982 0.038382
0.477668 0.222767 0.043468
0.591491 0.251483 0.049057
0.683181 0.274926 0.054267
0.749673 0.290467 0.057974
0.806024 0.302456 0.061083
0.848026 0.307489 0.062896
0.871402 0.304776 0.063190
0.880092 0.297706 0.062924
0.039279 0.144316 0.043554
0.057429 0.144314 0.042602
0.076252 0.144410 0.042442
0.098032 0.144947 0.042202
0.123674 0.146151 0.041779
0.155045 0.148123 0.040830
0.227695 0.174760 0.038626
0.346336 0.218586 0.039211
0.503229 0.280122 0.046865
0.621829 0.318631 0.054022
0.696858 0.324673 0.057356
0.761296 0.339747 0.060943
0.815643 0.349531 0.063671
0.855101 0.351513 0.065174
0.876338 0.345354 0.065043
0.883221 0.334170 0.064298
0.039646 0.195721 0.049659
0.060122 0.195900 0.046419
0.082476 0.196102 0.046271
0.108015 0.196815 0.046127
0.139980 0.199342 0.045929
0.180756 0.203387 0.044684
0.231843 0.208041 0.041077
0.358650 0.261321 0.041133
0.528573 0.338760 0.051289
0.658897 0.391609 0.060911
0.738109 0.407707 0.064796
0.779857 0.397869 0.065485
0.829222 0.402546 0.067609
0.865722 0.401437 0.068617
0.885545 0.392335 0.068060
0.891341 0.377632 0.066928
0.041047 0.265476 0.059611
0.061736 0.266061 0.051507
0.088461 0.266564 0.051057
0.116902 0.267629 0.050690
0.152278 0.271425 0.050008
0.207704 0.283013 0.048962
0.281976 0.296446 0.047493
0.378314 0.318190 0.046724
0.552948 0.401371 0.057457
0.688676 0.461059 0.068008
0.768059 0.485318 0.072801
0.813934 0.481135 0.073867
0.846642 0.464065 0.073042
0.877743 0.454738 0.072841
0.895861 0.442016 0.071648
0.900268 0.423577 0.069993
0.045654 0.364659 0.069219
0.067585 0.365450 0.056115
0.099446 0.366452 0.055144
0.133543 0.368454 0.054589
0.170214 0.371683 0.053835
0.227441 0.385113 0.053079
0.337679 0.421076 0.058484
0.464592 0.451418 0.064710
0.583809 0.481231 0.068870
0.709923 0.528111 0.075049
0.786329 0.553406 0.079172
0.835540 0.557212 0.081214
0.869296 0.540654 0.080457
0.892606 0.516257 0.078109
0.906313 0.494608 0.075687
0.910197 0.472051 0.073603
0.051895 0.470525 0.079680
0.074876 0.471508 0.062134
0.111949 0.472740 0.061231
0.150079 0.474896 0.059965
0.190101 0.478269 0.058396
0.237950 0.484826 0.057021
0.324047 0.511111 0.060594
0.502030 0.574485 0.080538
0.639855 0.599500 0.087757
0.724846 0.599115 0.083672
0.795133 0.615027 0.085103
0.844911 0.621728 0.087236
0.884996 0.615054 0.087551
0.910183 0.591021 0.085198
0.919913 0.556304 0.081087
0.919062 0.520774 0.077205
0.056468 0.562286 0.099598
0.071751 0.563582 0.073985
0.115161 0.564850 0.071739
0.157925 0.566922 0.070086
0.202431 0.570044 0.067945
0.254429 0.576624 0.066337
0.312793 0.586124 0.066255
0.415579 0.617841 0.070951
0.643753 0.693494 0.101481
0.751098 0.694956 0.098214
0.800578 0.677975 0.090722
0.849630 0.683197 0.092752
0.890830 0.679594 0.093644
0.921345 0.664558 0.092428
0.935149 0.631065 0.088451
0.933888 0.584601 0.083288
0.062315 0.637557 0.114780
0.078422 0.638696 0.089227
0.118446 0.639602 0.081066
0.162507 0.641073 0.079076
0.210349 0.644120 0.077039
0.266398 0.650463 0.075647
0.328176 0.659891 0.075099
0.399985 0.675186 0.075641
0.526350 0.713780 0.086519
0.728603 0.765043 0.109860
0.812740 0.753459 0.102585
0.851306 0.739531 0.098635
0.892823 0.737716 0.099521
0.924464 0.725360 0.098511
0.943082 0.700050 0.095343
0.948978 0.662752 0.091157
0.069443 0.704249 0.129163
0.085909 0.705356 0.103128
0.122750 0.706236 0.090739
0.169093 0.707687 0.089226
0.219662 0.711012 0.087228
0.275761 0.716702 0.085206
0.335448 0.724455 0.083617
0.403419 0.736290 0.083053
0.485049 0.755100 0.085313
0.627224 0.792428 0.100526
0.788060 0.818009 0.115826
0.860843 0.807806 0.113033
0.894560 0.793764 0.108678
0.926234 0.781314 0.105707
0.945294 0.756938 0.101344
0.952607 0.723230 0.097323
0.075231 0.758847 0.142333
0.091605 0.759864 0.116666
0.123578 0.760997 0.099352
0.172304 0.762686 0.098382
0.223410 0.765506 0.096293
0.278058 0.770328 0.093856
0.337161 0.776746 0.091331
0.402441 0.785730 0.089084
0.472387 0.797428 0.087755
0.558397 0.814871 0.092243
0.702299 0.843862 0.110345
0.839790 0.861645 0.125835
0.900195 0.855273 0.126815
0.930530 0.841140 0.122937
0.949123 0.813231 0.112602
0.954055 0.773968 0.102940
0.077908 0.791774 0.148911
0.093961 0.792899 0.123664
0.122018 0.794069 0.103770
0.170092 0.795529 0.102993
0.219552 0.797798 0.101149
0.272166 0.801638 0.098811
0.329002 0.806824 0.095889
0.390388 0.813348 0.092670
0.454975 0.821706 0.090222
0.523608 0.831730 0.090050
0.613312 0.847913 0.097684
0.757119 0.873715 0.117763
0.875604 0.889260 0.132596
0.924772 0.883570 0.134731
0.952929 0.867724 0.129349
0.958000 0.825259 0.112797
0.079001 0.807651 0.151351
0.094461 0.808564 0.127049
0.117853 0.809634 0.105501
0.164011 0.810876 0.104849
0.210365 0.812544 0.103272
0.259619 0.815715 0.101128
0.311820 0.819960 0.098476
0.368957 0.825106 0.094919
0.427360 0.831546 0.092286
0.490214 0.839578 0.089986
0.557149 0.849392 0.091391
0.630349 0.861579 0.098921
0.809365 0.894547 0.125766
0.905181 0.904751 0.137150
0.936257 0.896749 0.136589
0.967720 0.888255 0.137419
0.030313 -0.080835 0.036614
0.036956 -0.080679 0.037555
0.048871 -0.080342 0.041517
0.070043 -0.079008 0.047065
0.102491 -0.076674 0.053234
0.152247 -0.074084 0.058374
0.219984 -0.071000 0.060205
0.320385 -0.063854 0.062719
0.454110 -0.038390 0.067582
0.577372 0.059920 0.065470
0.675097 0.103390 0.069133
0.745790 0.123936 0.072952
0.801871 0.139138 0.076091
0.844815 0.148245 0.078019
0.869243 0.151493 0.078234
0.878897 0.152915 0.077503
0.032144 0.039000 0.039539
0.038723 0.039420 0.039943
0.051750 0.039092 0.039502
0.072553 0.040861 0.041065
0.104362 0.045378 0.044788
0.154022 0.050034 0.046670
0.221573 0.056196 0.044677
0.320241 0.068910 0.044324
0.452172 0.091304 0.047097
0.574482 0.121635 0.051764
0.672226 0.151197 0.057574
0.743290 0.168430 0.061819
0.800150 0.182202 0.065474
0.843563 0.191019 0.067919
0.868014 0.193880 0.068883
0.877944 0.194453 0.069037
0.033878 0.051609 0.043737
0.038014 0.051894 0.039200
0.051401 0.052109 0.039411
0.072901 0.058817 0.041696
0.105609 0.066755 0.043861
0.154556 0.076577 0.044973
0.222101 0.088796 0.043204
0.321676 0.106826 0.043119
0.454717 0.132883 0.046158
0.577296 0.164702 0.051428
0.674874 0.193683 0.057303
0.745690 0.210135 0.061622
0.802161 0.222545 0.065331
0.845254 0.229778 0.067785
0.869593 0.230941 0.068706
0.879171 0.229292 0.068813
0.036087 0.073294 0.049512
0.040873 0.073260 0.042348
0.058669 0.073544 0.042193
0.073819 0.074144 0.042259
0.105968 0.085202 0.043824
0.154637 0.099061 0.044680
0.223221 0.116159 0.042730
0.325984 0.139368 0.042933
0.460440 0.170008 0.046600
0.581046 0.202023 0.052109
0.677954 0.230498 0.058111
0.747538 0.246834 0.062317
0.803931 0.258750 0.065971
0.846839 0.264968 0.068323
0.870754 0.264415 0.069058
0.880108 0.260434 0.069087
0.037687 0.103738 0.055174
0.042932 0.103799 0.045241
0.065858 0.103909 0.044758
0.084580 0.104329 0.044597
0.106279 0.105356 0.044463
0.154879 0.122574 0.045002
0.225178 0.144414 0.042834
0.334909 0.176659 0.043189
0.477603 0.219199 0.048268
0.591860 0.247787 0.054140
0.683762 0.271237 0.059744
0.750148 0.286153 0.063779
0.806771 0.298015 0.067305
0.848993 0.303052 0.069512
0.872368 0.300457 0.069888
0.881279 0.293725 0.069717
0.039243 0.144325 0.061842
0.044715 0.144449 0.048893
0.072690 0.144494 0.047962
0.096009 0.144956 0.047738
0.122616 0.146147 0.047328
0.155069 0.148105 0.046334
0.228034 0.174129 0.043860
0.346752 0.217263 0.044186
0.503328 0.277572 0.051868
0.621558 0.315167 0.059299
0.697291 0.321676 0.063084
0.761683 0.336280 0.067006
0.816160 0.345893 0.070130
0.855691 0.347775 0.071835
0.877030 0.341662 0.071784
0.884299 0.330783 0.071094
0.039627 0.195731 0.070816
0.045648 0.195953 0.055351
0.077461 0.196234 0.052379
0.104887 0.196874 0.052159
0.137862 0.199291 0.051959
0.179694 0.203371 0.050661
0.232043 0.208039 0.046718
0.359088 0.260624 0.046398
0.528820 0.337238 0.056728
0.658738 0.389242 0.066623
0.737767 0.404601 0.070801
0.779781 0.394488 0.071888
0.829566 0.399475 0.074324
0.866547 0.398414 0.075433
0.886257 0.389210 0.074930
0.892103 0.374534 0.073805
0.040956 0.265431 0.083042
0.047212 0.265791 0.065339
0.081296 0.266710 0.057688
0.112475 0.267755 0.057190
0.149079 0.271352 0.056489
0.205094 0.282676 0.055265
0.280899 0.296429 0.053518
0.378631 0.318097 0.052468
0.553322 0.400577 0.063400
0.688983 0.459542 0.074336
0.768321 0.483249 0.079444
0.814096 0.478572 0.080626
0.846898 0.461239 0.079880
0.878418 0.452366 0.079772
0.896632 0.439489 0.078626
0.901052 0.421000 0.076978
0.045385 0.364529 0.095903
0.051971 0.365068 0.075025
0.089234 0.366645 0.062045
0.127268 0.368620 0.061398
0.165960 0.371721 0.060603
0.223793 0.384762 0.059663
0.334415 0.420322 0.064889
0.463414 0.451014 0.071301
0.584182 0.480976 0.075652
0.710541 0.527381 0.081968
0.786655 0.552164 0.086101
0.836107 0.555623 0.088210
0.869780 0.538561 0.087464
0.893001 0.514189 0.085181
0.907042 0.492529 0.082789
0.910762 0.469845 0.080694
0.051562 0.470402 0.109705
0.058430 0.471013 0.085571
0.098814 0.472799 0.068544
0.142162 0.475091 0.067265
0.184786 0.478283 0.065532
0.233970 0.484796 0.063939
0.319938 0.510381 0.067229
0.498624 0.573632 0.087562
0.639332 0.599393 0.095202
0.725274 0.598857 0.090882
0.795530 0.614325 0.092219
0.845354 0.620815 0.094434
0.885450 0.613802 0.094758
0.910542 0.589319 0.092435
0.920288 0.554492 0.088318
0.919565 0.519066 0.084422
0.056524 0.562284 0.131122
0.063188 0.562787 0.106386
0.098531 0.564998 0.079954
0.147650 0.567054 0.077890
0.195266 0.570178 0.075438
0.249322 0.576655 0.073580
0.309045 0.586093 0.073339
0.411706 0.617205 0.077836
0.641368 0.693066 0.109056
0.750782 0.694920 0.105833
0.800819 0.677882 0.098051
0.850046 0.682676 0.100120
0.891347 0.678779 0.101101
0.921846 0.663521 0.099883
0.935549 0.629681 0.095849
0.934409 0.583044 0.090634
0.062419 0.637707 0.147574
0.069488 0.638065 0.121760
0.098943 0.639826 0.089534
0.150166 0.641148 0.087111
0.201573 0.644160 0.084843
0.260200 0.650433 0.083217
0.323551 0.659818 0.082524
0.396062 0.674721 0.082833
0.521699 0.712694 0.093512
0.727736 0.765314 0.118066
0.812842 0.753497 0.110370
0.851698 0.739372 0.106229
0.893197 0.737388 0.107195
0.924947 0.724641 0.106174
0.943585 0.699033 0.102945
0.949368 0.661476 0.098641
0.069337 0.704299 0.162825
0.076831 0.704724 0.135872
0.100788 0.706440 0.099419
0.155325 0.707741 0.097639
0.210199 0.711074 0.095457
0.269109 0.716617 0.093215
0.330389 0.724424 0.091388
0.399617 0.736252 0.090675
0.481710 0.754712 0.092705
0.624212 0.792070 0.108201
0.787424 0.818172 0.124191
0.860944 0.807789 0.121244
0.894915 0.793565 0.116760
0.926468 0.780873 0.113698
0.945786 0.756419 0.109219
0.953154 0.722393 0.105080
0.075044 0.758997 0.176221
0.082527 0.759272 0.148919
0.104804 0.761036 0.113470
0.157766 0.762883 0.107083
0.213604 0.765679 0.104869
0.270911 0.770436 0.102237
0.331618 0.776684 0.099528
0.398422 0.785717 0.097041
0.469242 0.797449 0.095446
0.555737 0.814732 0.099867
0.700130 0.843664 0.118514
0.839406 0.861798 0.134476
0.900309 0.855277 0.135531
0.930908 0.841121 0.131556
0.949464 0.812742 0.120922
0.954527 0.773442 0.110955
0.077834 0.791975 0.182803
0.085380 0.792296 0.155756
0.106985 0.794056 0.122418
0.154636 0.795542 0.112195
0.209004 0.797930 0.109992
0.264531 0.801724 0.107459
0.323044 0.806803 0.104362
0.386020 0.813508 0.100850
0.451507 0.821585 0.098204
0.521045 0.831864 0.097799
0.610865 0.847609 0.105526
0.755293 0.873667 0.126204
0.875242 0.889469 0.141603
0.924974 0.883429 0.143787
0.953208 0.867662 0.138309
0.958367 0.824935 0.121257
0.078948 0.807676 0.184376
0.086603 0.808076 0.158461
0.106927 0.809504 0.127603
0.148534 0.811090 0.114236
0.199422 0.812934 0.112256
0.251518 0.815960 0.109902
0.305718 0.820002 0.107018
0.364354 0.825340 0.103209
0.423678 0.831641 0.100351
0.487369 0.839675 0.097794
0.554894 0.849429 0.099108
0.628409 0.861479 0.106823
0.807871 0.894479 0.134431
0.905054 0.904761 0.146233
0.936310 0.896676 0.145692
0.968004 0.888020 0.146654
0.031074 -0.080479 0.048661
0.040243 -0.080327 0.049463
0.049218 -0.080223 0.050416
0.070196 -0.078893 0.059027
0.102139 -0.076712 0.068279
0.151154 -0.074080 0.077519
0.220085 -0.071474 0.082105
0.319749 -0.065240 0.089360
0.456539 -0.043899 0.098615
0.582621 0.047965 0.100311
0.679940 0.085653 0.098252
0.751077 0.104441 0.098365
0.806773 0.120365 0.100523
0.849169 0.130247 0.101013
0.873294 0.134439 0.099694
0.882586 0.137297 0.097168
0.032927 0.042287 0.051506
0.038720 0.039585 0.053496
0.051634 0.039083 0.053109
0.072184 0.040707 0.058791
0.103633 0.045003 0.066443
0.152418 0.049966 0.074303
0.221084 0.054757 0.077518
0.320891 0.062470 0.081537
0.457016 0.077008 0.083877
0.581646 0.103498 0.084789
0.678915 0.133750 0.089757
0.750047 0.151225 0.093172
0.806155 0.165102 0.095537
0.849094 0.173916 0.096312
0.873359 0.177594 0.095599
0.882860 0.179217 0.093791
0.033980 0.051844 0.052439
0.038112 0.052085 0.052684
0.051311 0.052112 0.052684
0.074305 0.052427 0.052600
0.108976 0.055361 0.054656
0.159878 0.059655 0.055852
0.229838 0.064349 0.052210
0.330292 0.075718 0.050248
0.461274 0.096855 0.051741
0.581353 0.126932 0.055593
0.676782 0.155387 0.060876
0.746355 0.171909 0.064624
0.802477 0.185248 0.067944
0.845254 0.193487 0.070123
0.869218 0.196035 0.070854
0.879807 0.202786 0.077331
0.036024 0.073540 0.061532
0.040524 0.073473 0.060095
0.051412 0.073808 0.052880
0.073760 0.074094 0.052805
0.107357 0.082273 0.053552
0.157954 0.093443 0.053026
0.228697 0.107463 0.049353
0.331601 0.127848 0.048064
0.465020 0.156037 0.050642
0.584854 0.187987 0.055369
0.680513 0.216063 0.060933
0.749338 0.231989 0.064832
0.805282 0.243913 0.068195
0.847726 0.250310 0.070329
0.871238 0.250281 0.070985
0.881328 0.246512 0.077422
0.037497 0.103843 0.070524
0.042377 0.103853 0.068074
0.051657 0.104464 0.053855
0.080393 0.104543 0.053192
0.106334 0.105465 0.052550
0.156392 0.120527 0.051801
0.228462 0.140635 0.048192
0.338157 0.170194 0.047477
0.478461 0.208789 0.051598
0.593153 0.237537 0.056892
0.685388 0.261805 0.062245
0.751701 0.276481 0.066008
0.807181 0.287607 0.069245
0.849361 0.292656 0.071261
0.872649 0.290540 0.071770
0.882548 0.283769 0.077920
0.038982 0.144440 0.080691
0.044272 0.144515 0.077064
0.051290 0.145228 0.055353
0.087835 0.145240 0.054299
0.118895 0.146336 0.053578
0.155237 0.148220 0.052022
0.229713 0.172628 0.048244
0.349034 0.214206 0.047763
0.503589 0.271095 0.054649
0.619819 0.305586 0.061417
0.697277 0.313917 0.065212
0.761260 0.328053 0.068854
0.815426 0.337158 0.071695
0.855053 0.338942 0.073453
0.876380 0.333111 0.073499
0.885128 0.322717 0.079133
0.039137 0.195921 0.092733
0.044945 0.196069 0.087812
0.050278 0.196867 0.059887
0.093910 0.197249 0.057063
0.130827 0.199148 0.056691
0.176249 0.203563 0.055272
0.232458 0.208256 0.050628
0.360382 0.259453 0.049451
0.529635 0.334152 0.059278
0.657559 0.383271 0.068616
0.735453 0.396483 0.072461
0.777787 0.386220 0.073295
0.828999 0.392721 0.075971
0.865897 0.391746 0.077273
0.885691 0.382598 0.076839
0.892344 0.367672 0.081714
0.040395 0.265304 0.107149
0.046415 0.265613 0.100842
0.050484 0.266703 0.068526
0.099469 0.268104 0.060880
0.140375 0.270985 0.060267
0.197070 0.281355 0.058767
0.277467 0.296542 0.056697
0.379026 0.318262 0.055228
0.553929 0.399092 0.065723
0.689028 0.456556 0.076370
0.767654 0.478501 0.081138
0.812989 0.472452 0.082250
0.845855 0.454965 0.081626
0.878140 0.447014 0.081846
0.896113 0.434235 0.080757
0.901338 0.415410 0.084878
0.044954 0.364270 0.122869
0.051231 0.364694 0.114734
0.054278 0.365964 0.077287
0.111376 0.368534 0.064356
0.156642 0.371706 0.063494
0.214816 0.383108 0.062362
0.324172 0.417469 0.066786
0.459280 0.450148 0.073530
0.584617 0.481120 0.077998
0.710945 0.526035 0.084018
0.786815 0.549835 0.088199
0.836070 0.552266 0.090303
0.869078 0.533725 0.089569
0.892592 0.509212 0.087412
0.906792 0.488225 0.085171
0.911142 0.465426 0.088586
0.051397 0.470136 0.139375
0.058120 0.470650 0.129600
0.060107 0.471755 0.087319
0.124193 0.474785 0.070020
0.174312 0.478182 0.068149
0.226135 0.484357 0.066338
0.309986 0.507677 0.068896
0.488115 0.570513 0.088740
0.636675 0.599227 0.097624
0.725737 0.598929 0.093298
0.795916 0.613357 0.094654
0.845749 0.618850 0.096922
0.885601 0.611061 0.097288
0.910224 0.585326 0.094944
0.919804 0.550237 0.090854
0.920147 0.515524 0.092330
0.056459 0.562356 0.161485
0.063133 0.562768 0.151309
0.065128 0.563330 0.108722
0.126829 0.566659 0.081381
0.182706 0.569904 0.078595
0.239912 0.576010 0.076411
0.302173 0.585487 0.075871
0.403133 0.614906 0.079817
0.633229 0.690950 0.110941
0.749185 0.695095 0.108743
0.801014 0.677874 0.100820
0.850409 0.681834 0.102971
0.891694 0.677271 0.104026
0.922099 0.661261 0.102865
0.935563 0.626628 0.098752
0.934607 0.579606 0.098471
0.062554 0.638204 0.178700
0.069422 0.638562 0.167379
0.071904 0.638466 0.124231
0.127947 0.641081 0.091014
0.187357 0.643724 0.088375
0.249230 0.649650 0.086359
0.314863 0.658746 0.085453
0.387243 0.672683 0.085230
0.508961 0.708975 0.094724
0.724409 0.765513 0.121659
0.812408 0.753687 0.113709
0.851861 0.739323 0.109511
0.893451 0.736694 0.110534
0.925314 0.723536 0.109606
0.943826 0.697259 0.106296
0.949622 0.658646 0.106532
0.069446 0.704971 0.193716
0.076590 0.705301 0.181444
0.079543 0.705079 0.138604
0.130572 0.707633 0.101438
0.194027 0.710451 0.099478
0.257213 0.715963 0.096976
0.320961 0.723391 0.094849
0.392455 0.735189 0.094023
0.474501 0.753048 0.095522
0.615645 0.790468 0.110752
0.784873 0.818396 0.128057
0.860805 0.807946 0.125219
0.895098 0.793541 0.120613
0.926829 0.780238 0.117546
0.946113 0.755433 0.113040
0.953569 0.720706 0.113208
0.075126 0.759501 0.206694
0.082551 0.759671 0.194330
0.085595 0.759461 0.152033
0.130975 0.762466 0.111537
0.196520 0.765149 0.109432
0.258310 0.769797 0.106666
0.321903 0.775964 0.103663
0.390914 0.784923 0.101033
0.463436 0.796660 0.099152
0.549861 0.813581 0.103071
0.693846 0.842859 0.121862
0.837379 0.861713 0.138836
0.900209 0.855374 0.140111
0.931201 0.841027 0.136122
0.949683 0.812205 0.125231
0.954871 0.772400 0.119241
0.077896 0.792344 0.212161
0.085467 0.792594 0.200027
0.088879 0.792534 0.159377
0.127392 0.795424 0.117316
0.191499 0.797518 0.115068
0.251365 0.801155 0.112313
0.312954 0.806226 0.109048
0.378505 0.812817 0.105269
0.445639 0.821081 0.102364
0.516612 0.831293 0.101725
0.605493 0.846745 0.109102
0.750420 0.872972 0.130130
0.874192 0.889321 0.146488
0.924923 0.883549 0.148881
0.953468 0.867521 0.143376
0.958816 0.824377 0.129775
0.078991 0.808213 0.212013
0.086608 0.808464 0.200305
0.094200 0.808515 0.166107
0.121354 0.810970 0.129158
0.179335 0.812921 0.122184
0.236770 0.815644 0.119286
0.294480 0.819850 0.116136
0.355578 0.825041 0.112011
0.417119 0.831331 0.108705
0.482134 0.839294 0.105710
0.550819 0.849151 0.106802
0.625235 0.861155 0.114606
0.804102 0.894029 0.142809
0.904268 0.904793 0.155452
0.936474 0.896647 0.154954
0.968345 0.887749 0.156109
0.032959 -0.079524 0.069762
0.044682 -0.079286 0.070328
0.056951 -0.078968 0.071383
0.070623 -0.078571 0.072712
0.101787 -0.076608 0.085672
0.148976 -0.074040 0.099887
0.216541 -0.070652 0.111579
0.318703 -0.062854 0.120517
0.460141 -0.037494 0.134912
0.586037 0.049692 0.146144
0.683015 0.080099 0.147300
0.754952 0.094946 0.146015
0.811055 0.105295 0.143083
0.853544 0.111908 0.138750
0.877489 0.114820 0.133200
0.886699 0.116963 0.125875
0.034953 0.047074 0.072328
0.039361 0.040659 0.074728
0.056898 0.040375 0.074086
0.072005 0.041120 0.074125
0.102838 0.045184 0.085290
0.150037 0.050020 0.098221
0.217900 0.055393 0.108277
0.319888 0.063911 0.115286
0.460327 0.079076 0.125438
0.585930 0.098514 0.132923
0.682945 0.118448 0.131825
0.754869 0.131688 0.129239
0.811195 0.145630 0.129508
0.853933 0.154843 0.128055
0.877969 0.159792 0.125097
0.887263 0.162781 0.120657
0.035793 0.059857 0.073809
0.039879 0.058484 0.073941
0.051290 0.052669 0.075683
0.073703 0.052552 0.075800
0.106888 0.054902 0.083950
0.156285 0.059381 0.092519
0.227041 0.063071 0.097573
0.329703 0.069929 0.102584
0.467614 0.084021 0.108713
0.590563 0.104248 0.110867
0.685726 0.129076 0.112295
0.755785 0.145265 0.114052
0.811245 0.158449 0.115054
0.853481 0.167197 0.114681
0.877029 0.171119 0.112626
0.886224 0.184153 0.110814
0.036044 0.074039 0.075209
0.040560 0.073984 0.075144
0.051230 0.074151 0.075295
0.073362 0.074144 0.075096
0.107906 0.075726 0.075802
0.162704 0.080616 0.076788
0.241623 0.084505 0.071645
0.350902 0.092761 0.065661
0.484042 0.111401 0.063799
0.599113 0.140693 0.065409
0.688243 0.165536 0.068855
0.754902 0.180395 0.071353
0.809118 0.192450 0.073721
0.850041 0.199205 0.075399
0.872653 0.201004 0.075665
0.882850 0.214744 0.090000
0.037285 0.104097 0.087601
0.042143 0.104107 0.086629
0.050664 0.104568 0.082711
0.072855 0.104896 0.075102
0.105726 0.105140 0.073927
0.159509 0.116184 0.071273
0.237749 0.131580 0.063651
0.349011 0.154374 0.059609
0.485629 0.184559 0.060913
0.600873 0.215004 0.064411
0.691286 0.239776 0.068908
0.757134 0.254265 0.071938
0.811514 0.264905 0.074605
0.852432 0.269754 0.076185
0.874822 0.268076 0.076287
0.884238 0.264461 0.089976
0.038549 0.144598 0.101956
0.043825 0.144702 0.100101
0.050258 0.145372 0.092360
0.069230 0.146534 0.073261
0.111512 0.146821 0.070704
0.155250 0.148334 0.067626
0.234744 0.169989 0.060184
0.356979 0.208522 0.057386
0.508106 0.257694 0.062234
0.619279 0.285662 0.067266
0.699722 0.298302 0.070897
0.763125 0.311428 0.073970
0.816780 0.320149 0.076454
0.856153 0.322111 0.077806
0.877408 0.317000 0.077594
0.885941 0.307925 0.090794
0.038211 0.196546 0.118121
0.043881 0.196702 0.115150
0.048788 0.197161 0.104386
0.062502 0.199003 0.072068
0.115302 0.199544 0.069108
0.168188 0.204129 0.067316
0.233438 0.208892 0.060718
0.364956 0.257643 0.057308
0.534299 0.329039 0.066009
0.657674 0.371701 0.073962
0.731268 0.379299 0.076903
0.778299 0.373855 0.077972
0.829325 0.379669 0.080197
0.865811 0.378358 0.081171
0.885332 0.369295 0.080473
0.892294 0.354942 0.093001
0.039591 0.265866 0.136161
0.045481 0.266054 0.132082
0.049138 0.266656 0.119082
0.058705 0.269223 0.076346
0.119440 0.270950 0.069674
0.178917 0.278809 0.067633
