entry/src/main/resources/rawfile/filters/VEL_Golden_Cinematic.cube
TITLE "Golden Cinematic"
LUT_3D_SIZE 16
-0.000204 -0.000105 -0.000019
-0.008460 -0.000659 -0.000920
0.066981 0.003860 0.008115
0.128604 0.007499 0.017376
0.194356 0.004387 0.030367
0.274846 -0.000904 0.041343
0.367215 -0.000941 0.054171
0.469165 -0.001168 0.077401
0.578210 -0.001427 0.096346
0.686321 0.002157 0.112080
0.785734 0.006625 0.129228
0.864254 0.014501 0.146740
0.924430 0.017235 0.166384
0.970845 0.016523 0.187889
1.000026 0.189904 0.205076
1.000034 0.298956 0.246520
-0.001708 -0.006020 -0.000268
-0.008868 -0.006215 -0.000698
0.069317 0.005314 0.003781
0.131211 0.006628 0.009621
0.196654 -0.005358 0.025792
0.276754 -0.005465 0.037475
0.369487 -0.002837 0.053725
0.471324 -0.001391 0.077349
0.580232 -0.001466 0.096365
0.688241 0.002138 0.112197
0.787053 0.006724 0.129268
0.864840 0.014528 0.147002
0.924723 0.016860 0.166645
0.973795 0.031770 0.181733
1.000026 0.194296 0.204923
1.000034 0.301696 0.247059
0.010396 0.046470 0.002132
0.017330 0.051064 0.002168
0.075413 0.048873 0.004249
0.139710 0.068846 0.007966
0.208746 0.065799 0.013525
0.291177 0.038977 0.020271
0.380147 -0.006607 0.052485
0.481016 -0.008923 0.078601
0.589278 -0.008375 0.097093
0.695735 -0.006093 0.113097
0.792481 0.005426 0.129925
0.868301 0.013510 0.147834
0.926965 0.014997 0.167368
0.983071 0.071819 0.159577
1.000026 0.212905 0.204793
1.000034 0.313172 0.249046
0.032063 0.087925 0.005171
0.044914 0.090430 0.005029
0.091677 0.096041 0.005205
0.139459 0.094759 0.010547
0.227569 0.118948 0.013652
0.311995 0.118385 0.019656
0.407233 0.108251 0.029381
0.512526 0.092542 0.044233
0.621686 0.063941 0.053854
0.722028 0.045938 0.081182
0.811000 0.039740 0.107852
0.884159 0.050855 0.120522
0.944880 0.079140 0.123850
0.989473 0.138014 0.135569
1.000026 0.246769 0.208046
1.000033 0.334490 0.252987
0.075081 0.121791 0.007484
0.082231 0.123316 0.007393
0.109546 0.128469 0.006543
0.146056 0.127858 0.009775
0.213967 0.131677 0.017249
0.337100 0.173184 0.019697
0.441853 0.186800 0.027859
0.546092 0.188701 0.041906
0.652306 0.188881 0.051702
0.749730 0.184648 0.060588
0.833786 0.178311 0.071787
0.900690 0.174086 0.085985
0.954213 0.181618 0.104004
0.991448 0.217023 0.141099
1.000026 0.290011 0.213461
1.000033 0.365422 0.259731
0.106397 0.155911 0.008606
0.111697 0.157157 0.008422
0.131971 0.160933 0.007826
0.172676 0.168796 0.008250
0.209142 0.159778 0.015361
0.303813 0.173396 0.025318
0.460475 0.237854 0.028365
0.592852 0.277237 0.039134
0.694205 0.283735 0.049700
0.781183 0.281756 0.059445
0.854306 0.275770 0.071813
0.913864 0.269707 0.087151
0.961916 0.270481 0.106449
0.994188 0.291444 0.151884
1.000026 0.341151 0.221482
1.000032 0.404940 0.270029
0.139895 0.192080 0.008939
0.143962 0.192918 0.008757
0.160428 0.195622 0.008371
0.195378 0.203100 0.008032
0.248637 0.214385 0.010541
0.283325 0.195899 0.022343
0.407204 0.225677 0.037194
0.588735 0.310802 0.041678
0.737445 0.375166 0.048564
0.817088 0.375741 0.059489
0.877924 0.364395 0.073235
0.929505 0.353914 0.090122
0.970669 0.349200 0.110942
0.996875 0.363772 0.169935
1.000033 0.397637 0.232876
1.000030 0.453053 0.285533
0.174258 0.228512 0.008980
0.177781 0.229021 0.008780
0.191778 0.231470 0.008610
0.221169 0.237632 0.008359
0.272232 0.251443 0.009259
0.325169 0.259154 0.013483
0.366541 0.236813 0.033729
0.519458 0.288656 0.048111
0.708207 0.385109 0.050945
0.838076 0.447473 0.061082
0.903314 0.451004 0.077455
0.945163 0.434941 0.096177
0.980862 0.425667 0.118854
0.999328 0.435780 0.197249
1.000011 0.457691 0.249142
1.000029 0.507075 0.307656
0.209313 0.265244 0.009156
0.212207 0.265777 0.009172
0.224447 0.267970 0.009143
0.249570 0.273007 0.007388
0.292468 0.284777 0.006899
0.356861 0.306422 0.010964
0.403411 0.305339 0.019866
0.460678 0.286681 0.046080
0.634232 0.358891 0.055731
0.804494 0.448214 0.062997
0.907147 0.499791 0.080787
0.959683 0.512363 0.106276
0.991141 0.499886 0.133513
1.000026 0.505854 0.229958
1.000037 0.520181 0.272070
1.000029 0.565881 0.338458
0.245247 0.303930 0.009068
0.247836 0.304442 0.008450
0.258457 0.306396 0.007526
0.280417 0.310904 0.006083
0.317362 0.320826 0.007526
0.377002 0.342901 0.009035
0.445533 0.366776 0.013467
0.489418 0.357497 0.031062
0.563770 0.345249 0.055391
0.743356 0.428766 0.066337
0.878606 0.499373 0.081453
0.954386 0.540890 0.108550
0.996215 0.570241 0.176475
1.000026 0.573852 0.259973
1.000031 0.584455 0.303776
1.000029 0.627767 0.379293
0.284707 0.348387 0.005338
0.286914 0.348837 0.005361
0.296636 0.350860 0.005457
0.316914 0.355519 0.006712
0.349485 0.364362 0.008576
0.401060 0.383372 0.010576
0.474917 0.415260 0.011807
0.541598 0.435276 0.017697
0.590836 0.423190 0.043025
0.676473 0.412390 0.066034
0.836394 0.490978 0.082636
0.933420 0.542877 0.108024
0.991551 0.581548 0.151264
1.000003 0.627822 0.287019
1.000031 0.650639 0.347382
1.000028 0.690935 0.430607
0.329529 0.401779 0.005269
0.331651 0.402335 0.005429
0.340737 0.404571 0.006039
0.359079 0.409120 0.007591
0.389164 0.417574 0.009744
0.433935 0.433275 0.011724
0.504068 0.465316 0.013061
0.588728 0.505119 0.015105
0.648594 0.514191 0.025396
0.701339 0.497218 0.054944
0.790260 0.485298 0.081647
0.907870 0.542262 0.108243
0.975903 0.584742 0.147088
1.000026 0.633684 0.280206
1.000036 0.693068 0.379119
1.000028 0.751891 0.490250
0.383349 0.470436 0.005970
0.385528 0.471082 0.006175
0.394484 0.473585 0.007001
0.412291 0.478811 0.008626
0.440407 0.487080 0.010905
0.481775 0.501170 0.012863
0.543366 0.528512 0.014405
0.627713 0.569771 0.016381
0.709892 0.604322 0.019447
0.760368 0.597723 0.039942
0.807671 0.567945 0.072996
0.882942 0.547134 0.108036
0.960471 0.590015 0.148719
0.999448 0.635915 0.262267
1.000011 0.694620 0.372811
1.000028 0.774292 0.510855
0.451712 0.563424 0.006664
0.453752 0.564101 0.006868
0.462496 0.566854 0.007733
0.480120 0.572209 0.009511
0.507512 0.580693 0.011738
0.546173 0.593068 0.013899
0.599154 0.612411 0.016177
0.676171 0.648243 0.018612
0.760704 0.684780 0.021836
0.824927 0.697722 0.026954
0.860974 0.670466 0.066091
0.895207 0.625317 0.105604
0.951152 0.602997 0.155023
0.996900 0.646348 0.253772
1.000023 0.698743 0.372334
1.000028 0.774581 0.504882
0.536997 0.687044 0.006138
0.539163 0.687675 0.006433
0.547632 0.689928 0.007520
0.564545 0.694559 0.009961
0.590876 0.701598 0.012300
0.626633 0.710821 0.014945
0.672501 0.722099 0.018048
0.733879 0.740848 0.021674
0.807371 0.764829 0.024311
0.877965 0.783127 0.025518
0.918183 0.769193 0.068120
0.941206 0.730888 0.114239
0.965792 0.680211 0.170642
0.997881 0.673785 0.291060
1.000016 0.724436 0.405670
1.000028 0.776894 0.502766
0.635235 0.830822 0.003817
0.637097 0.831141 0.004466
0.644771 0.832364 0.006937
0.659935 0.834588 0.010789
0.683323 0.837891 0.014005
0.715137 0.841583 0.017610
0.755155 0.845528 0.021685
0.804787 0.850456 0.025609
0.865641 0.861140 0.026700
0.926815 0.868952 0.056880
0.980528 0.874815 0.106783
0.999579 0.843668 0.192267
1.000832 0.805051 0.332873
1.000433 0.772138 0.411970
1.000069 0.789788 0.506082
1.000028 0.829180 0.587078
-0.068430 -0.089419 0.004138
-0.068992 -0.089515 0.002676
0.032808 -0.089577 0.006573
0.117225 -0.089666 0.013075
0.188292 -0.090221 0.025329
0.271163 -0.090744 0.037276
0.365458 -0.091251 0.053542
0.468564 -0.092019 0.077740
0.577984 -0.093298 0.096683
0.686261 -0.094929 0.112490
0.785391 -0.095288 0.129075
0.863464 -0.092430 0.145924
0.923816 -0.088252 0.164310
0.971077 -0.084756 0.183760
1.000026 0.177340 0.202876
1.000033 0.290732 0.242647
0.001016 -0.004863 0.003304
-0.008570 -0.005926 0.001792
0.070450 0.010503 0.003356
0.132200 0.018721 0.008402
0.200817 0.010603 0.016713
0.279714 -0.004681 0.037337
0.372509 -0.004567 0.053905
0.474726 -0.002390 0.077908
0.583386 -0.001807 0.096612
0.690889 0.002023 0.112424
0.788730 0.006844 0.129364
0.865552 0.014542 0.147025
0.925000 0.016811 0.166914
0.974488 0.034861 0.180285
1.000026 0.195095 0.204818
1.000034 0.302015 0.247051
0.012219 0.051938 0.002676
0.018910 0.056418 0.002659
0.075813 0.051634 0.004737
0.140701 0.074833 0.008248
0.210492 0.076651 0.013192
0.293690 0.065339 0.020096
0.388977 0.025396 0.034560
0.485564 0.002270 0.076945
0.592873 0.002019 0.097485
0.698731 -0.006007 0.113392
0.794300 0.003779 0.130245
0.869214 0.012783 0.147939
0.927880 0.016644 0.166497
0.983410 0.074119 0.158075
1.000026 0.213908 0.204939
1.000034 0.313553 0.249106
0.035074 0.090417 0.005447
0.050816 0.093308 0.005047
0.094810 0.098538 0.005497
0.139567 0.095893 0.010914
0.228843 0.122811 0.013764
0.314443 0.125367 0.019670
0.410541 0.120025 0.029037
0.516424 0.111059 0.043801
0.625765 0.094235 0.053633
0.729317 0.069059 0.061592
0.818899 0.063300 0.082868
0.889312 0.069104 0.103384
0.947511 0.089792 0.114715
0.989537 0.146145 0.135942
1.000026 0.248351 0.208297
1.000033 0.334998 0.253184
0.078882 0.123891 0.007372
0.087924 0.125995 0.007268
0.114326 0.131517 0.006519
0.149182 0.130261 0.010029
0.213431 0.132161 0.017615
0.335908 0.174393 0.019703
0.444892 0.193218 0.027917
0.549885 0.197965 0.041490
0.656151 0.200630 0.051290
0.753035 0.198057 0.060435
0.836138 0.193176 0.071794
0.902149 0.189736 0.086045
0.955137 0.195539 0.104206
0.991755 0.226303 0.142034
1.000026 0.294029 0.213529
1.000033 0.367207 0.260208
0.111948 0.158407 0.008355
0.118172 0.159694 0.008288
0.137780 0.163503 0.007710
0.177655 0.171337 0.008433
0.211994 0.161915 0.015243
0.302617 0.173429 0.025512
0.457631 0.237384 0.028642
0.595094 0.282966 0.038879
0.697850 0.292306 0.049425
0.783917 0.291045 0.059352
0.856366 0.285265 0.071761
0.915137 0.278947 0.087273
0.962708 0.279085 0.106649
0.994401 0.298579 0.153187
1.000026 0.345846 0.222254
1.000031 0.408155 0.270963
0.145706 0.194297 0.008822
0.149783 0.194923 0.008654
0.165787 0.197821 0.008369
0.200114 0.205100 0.008044
0.252293 0.216298 0.010581
0.285609 0.197619 0.022621
0.405889 0.225389 0.037863
0.585305 0.309707 0.041899
0.738032 0.378787 0.048481
0.819275 0.382421 0.059560
0.879668 0.371229 0.073434
0.930653 0.360920 0.090388
0.971482 0.355779 0.111393
0.997103 0.369493 0.171523
1.000031 0.401828 0.233871
1.000030 0.455991 0.286650
0.179057 0.230235 0.008902
0.182516 0.230810 0.008884
0.196429 0.233234 0.008556
0.225416 0.239325 0.008373
0.276271 0.253569 0.009301
0.327626 0.260566 0.013671
0.368121 0.238331 0.033700
0.517715 0.288169 0.048353
0.705595 0.384263 0.050977
0.837225 0.448703 0.061140
0.904308 0.455445 0.077669
0.945856 0.439518 0.096440
0.981176 0.429957 0.119450
0.999384 0.439641 0.198816
1.000010 0.461005 0.250216
1.000029 0.509516 0.308740
0.212955 0.266685 0.009258
0.215889 0.267147 0.009152
0.227954 0.269292 0.009132
0.252925 0.274357 0.007006
0.296092 0.286639 0.006924
0.359738 0.308122 0.011061
0.405307 0.306604 0.020093
0.461544 0.287861 0.046020
0.632893 0.358357 0.055783
0.802844 0.447776 0.063141
0.906384 0.499677 0.080690
0.959968 0.514974 0.106586
0.991387 0.502781 0.134899
1.000026 0.508420 0.230932
1.000036 0.522406 0.273020
1.000029 0.567596 0.339463
0.248299 0.305165 0.008604
0.250724 0.305612 0.008435
0.261291 0.307532 0.007052
0.283387 0.312093 0.006257
0.320028 0.322281 0.007593
0.379463 0.344372 0.009138
0.447326 0.367943 0.013615
0.490871 0.358753 0.031222
0.564209 0.346160 0.055259
0.742187 0.428391 0.066273
0.877755 0.499293 0.081487
0.953777 0.540914 0.108468
0.996256 0.571052 0.176266
1.000026 0.575535 0.260708
1.000031 0.585880 0.304564
1.000028 0.628827 0.380131
0.286850 0.349282 0.005252
0.289055 0.349719 0.005292
0.298800 0.351896 0.005566
0.319015 0.356463 0.006822
0.351514 0.365444 0.008687
0.403234 0.384759 0.010622
0.476665 0.416497 0.011860
0.542860 0.436232 0.017812
0.591878 0.424244 0.043007
0.676529 0.412970 0.065966
0.835745 0.490737 0.082643
0.932978 0.542785 0.107992
0.991509 0.581534 0.150663
1.000026 0.628202 0.287184
1.000031 0.651686 0.348341
1.000028 0.691754 0.431586
0.331226 0.402605 0.005372
0.333387 0.403237 0.005520
0.342483 0.405493 0.006133
0.360611 0.409838 0.007710
0.390925 0.418577 0.009843
0.435597 0.434293 0.011772
0.505548 0.466407 0.013090
0.590063 0.506011 0.015081
0.649336 0.514940 0.025382
0.701871 0.498023 0.054973
0.790022 0.485362 0.081670
0.907423 0.542201 0.108212
0.975459 0.584763 0.147013
1.000026 0.633763 0.280223
1.000036 0.693228 0.379085
1.000028 0.752364 0.490979
0.384707 0.471236 0.006063
0.386847 0.471961 0.006267
0.395782 0.474378 0.007107
0.413398 0.479545 0.008712
0.441650 0.487811 0.010985
0.482880 0.501975 0.012901
0.544403 0.529362 0.014427
0.628718 0.570591 0.016415
0.710780 0.604962 0.019469
0.760765 0.598253 0.039908
0.808102 0.568479 0.072894
0.882782 0.547187 0.108000
0.960323 0.589975 0.148623
0.999370 0.635867 0.261875
1.000011 0.694631 0.372688
1.000028 0.774269 0.510697
0.452374 0.564043 0.006697
0.454497 0.564705 0.006914
0.463256 0.567408 0.007769
0.480720 0.572728 0.009557
0.508240 0.581264 0.011766
0.546803 0.593522 0.013922
0.599716 0.612910 0.016198
0.676645 0.648686 0.018632
0.761032 0.685179 0.021850
0.825396 0.698101 0.027003
0.861311 0.670842 0.066024
0.895354 0.625767 0.105625
0.950978 0.603078 0.155024
0.996745 0.646251 0.253270
1.000023 0.698686 0.372244
1.000028 0.774572 0.504842
0.537222 0.687329 0.006122
0.539288 0.687972 0.006415
0.547832 0.690277 0.007520
0.564843 0.694912 0.009986
0.591031 0.701908 0.012292
0.626835 0.710988 0.014943
0.672645 0.722231 0.018054
0.733908 0.741093 0.021680
0.807362 0.764920 0.024314
0.877935 0.783271 0.025507
0.918337 0.769640 0.068025
0.941278 0.731162 0.114206
0.965735 0.680518 0.170587
0.997790 0.673723 0.290661
1.000017 0.724219 0.405538
1.000028 0.777095 0.502984
0.634848 0.830924 -0.004412
0.636733 0.831291 -0.003535
0.644450 0.832469 0.005214
0.659678 0.834622 0.010284
0.683002 0.837907 0.013980
0.714870 0.841725 0.017790
0.754758 0.845708 0.022002
0.804234 0.850687 0.026068
0.865268 0.861303 0.027227
0.926620 0.869108 0.056615
0.980638 0.875067 0.106687
0.999557 0.843987 0.192295
1.000697 0.805252 0.332963
1.000319 0.772272 0.411940
1.000030 0.789691 0.506096
1.000028 0.829156 0.587085
-0.063388 -0.074522 0.048295
-0.063308 -0.074452 0.046733
0.021783 -0.070954 0.044415
0.116582 -0.071262 0.036299
0.194895 -0.081620 0.017288
0.283814 -0.076102 0.021582
0.386373 -0.065076 0.032347
0.497080 -0.072651 0.050190
0.607795 -0.082587 0.072890
0.712110 -0.087017 0.093928
0.803615 -0.090212 0.117454
0.878181 -0.084780 0.131586
0.940653 -0.052674 0.135283
0.988590 0.089503 0.138561
1.000026 0.216500 0.202291
1.000033 0.308709 0.245677
0.024878 0.053223 0.046181
0.027922 0.054949 0.044543
0.067035 0.061291 0.044083
0.132090 0.060096 0.030526
0.206072 0.067828 0.015704
0.293782 0.076967 0.019803
0.394473 0.080121 0.029443
0.503115 0.069965 0.044122
0.614926 0.050818 0.058213
0.718786 0.047369 0.080757
0.811054 0.047842 0.101335
0.883611 0.054016 0.118408
0.943033 0.074743 0.127750
0.988923 0.123059 0.137417
1.000026 0.232148 0.206578
1.000033 0.319270 0.250111
0.021028 0.072297 0.040525
0.029761 0.073928 0.039693
0.078187 0.083215 0.038828
0.140479 0.091682 0.028288
0.217634 0.104861 0.017552
0.305376 0.112655 0.020669
0.404554 0.112792 0.028997
0.513067 0.110960 0.043508
0.624722 0.105692 0.053381
0.729831 0.097960 0.061482
0.821386 0.093980 0.071939
0.892913 0.089839 0.085599
0.949443 0.105016 0.103084
0.989525 0.156223 0.136033
1.000026 0.248703 0.208222
1.000033 0.330418 0.252239
0.026812 0.094699 0.026504
0.042601 0.098954 0.026237
0.098230 0.110574 0.027140
0.140569 0.104989 0.022778
0.227662 0.131033 0.016643
0.324985 0.152279 0.019810
0.424353 0.160643 0.028108
0.532790 0.167250 0.042066
0.642921 0.172658 0.051891
0.744214 0.175069 0.060518
0.831051 0.172738 0.071662
0.899114 0.170349 0.085850
0.953290 0.176385 0.103721
0.990901 0.207186 0.139677
1.000026 0.278484 0.211744
1.000033 0.351384 0.256477
0.078084 0.129199 0.014494
0.088690 0.132074 0.015708
0.123891 0.140995 0.017252
0.160856 0.140422 0.014005
0.211611 0.134559 0.020304
0.329523 0.176490 0.020459
0.454545 0.216239 0.027163
0.564763 0.231885 0.040233
0.671540 0.242026 0.050342
0.766164 0.246451 0.059506
0.845292 0.244927 0.071404
0.908205 0.241627 0.086264
0.958534 0.243014 0.105221
0.992878 0.264205 0.146425
1.000026 0.317615 0.217168
1.000032 0.382014 0.263746
0.116348 0.162893 0.009550
0.124995 0.165020 0.009791
0.152941 0.172261 0.010102
0.191658 0.179583 0.009875
0.221816 0.169579 0.015970
0.299119 0.174420 0.026800
0.446826 0.234774 0.029882
0.601672 0.301062 0.038442
0.709914 0.320628 0.048711
0.794289 0.322172 0.058995
0.863799 0.317546 0.071817
0.920403 0.311423 0.087924
0.965543 0.309224 0.107957
0.995276 0.324770 0.158424
1.000014 0.364058 0.225512
1.000031 0.420627 0.274602
0.150513 0.197882 0.009109
0.157799 0.199476 0.008892
0.181672 0.205314 0.008587
0.214898 0.212669 0.008578
0.263016 0.222521 0.011005
0.292871 0.203569 0.022752
0.400608 0.224292 0.038923
0.574486 0.306261 0.042932
0.735444 0.384955 0.048422
0.826355 0.402945 0.059633
0.884932 0.392353 0.073911
0.934250 0.381796 0.091461
0.973733 0.375743 0.112912
0.997786 0.387426 0.177169
1.000024 0.415481 0.237050
1.000029 0.465877 0.290298
0.184821 0.233521 0.008830
0.190734 0.234887 0.008729
0.210217 0.239325 0.008595
0.238389 0.245379 0.008231
0.288319 0.260302 0.009587
0.335681 0.265875 0.014020
0.373034 0.243304 0.033769
0.512058 0.286461 0.048955
0.697162 0.381424 0.051405
0.834263 0.451848 0.061188
0.907059 0.467808 0.078428
0.948239 0.453582 0.097855
0.982954 0.443285 0.121199
0.999589 0.452081 0.204486
1.000007 0.470676 0.253384
1.000029 0.516900 0.312286
0.219132 0.269839 0.009243
0.224003 0.270921 0.009204
0.239431 0.274303 0.008593
0.263123 0.278476 0.006368
0.307265 0.292710 0.007220
0.368745 0.313790 0.011321
0.411779 0.311500 0.020388
0.464284 0.291883 0.046052
0.627631 0.356557 0.056267
0.797423 0.446323 0.063544
0.903077 0.499501 0.080394
0.961119 0.523001 0.107724
0.992027 0.512132 0.139566
1.000026 0.516595 0.234152
1.000035 0.529353 0.276066
1.000029 0.572995 0.342746
0.254277 0.308188 0.008080
0.258358 0.309049 0.007114
0.270769 0.311677 0.005891
0.292581 0.316269 0.006704
0.329249 0.327181 0.007908
0.388073 0.349738 0.009348
0.453573 0.372414 0.013826
0.496255 0.363369 0.031304
0.565950 0.349721 0.055158
0.738173 0.427025 0.066480
0.874586 0.498765 0.081512
0.952193 0.540902 0.107964
0.996029 0.573526 0.175994
1.000026 0.581204 0.263340
1.000031 0.590911 0.307505
1.000028 0.632860 0.383243
0.292956 0.352268 0.005124
0.296324 0.353192 0.005315
0.306703 0.355478 0.005945
0.326553 0.360160 0.007243
0.358814 0.369323 0.009125
0.410526 0.389330 0.010823
0.483035 0.421042 0.012008
0.547362 0.439822 0.017964
0.595604 0.428084 0.042903
0.677492 0.416109 0.065771
0.833193 0.490114 0.082643
0.931305 0.542682 0.107872
0.990720 0.581444 0.148169
1.000026 0.629595 0.287468
1.000031 0.655449 0.351067
1.000028 0.694544 0.434099
0.336868 0.405693 0.005670
0.339260 0.406377 0.005825
0.348744 0.408622 0.006569
0.366259 0.412904 0.008120
0.396707 0.421992 0.010161
0.441073 0.437977 0.011961
0.510816 0.470287 0.013207
0.594237 0.509597 0.015236
0.652797 0.518091 0.025409
0.704156 0.500913 0.054765
0.788780 0.485633 0.081659
0.906077 0.541911 0.108112
0.974560 0.584809 0.146936
1.000026 0.633874 0.279597
1.000037 0.693464 0.379035
1.000028 0.754260 0.492997
0.389116 0.473990 0.006379
0.391237 0.474620 0.006577
0.400274 0.477225 0.007411
0.417702 0.482300 0.008962
0.445584 0.490448 0.011244
0.487183 0.505084 0.012993
0.548259 0.532447 0.014519
0.631882 0.573299 0.016523
0.713029 0.607317 0.019543
0.762717 0.600583 0.039766
0.809203 0.570871 0.072715
0.881843 0.547449 0.107849
0.959477 0.589870 0.148445
0.999329 0.635927 0.260815
1.000012 0.694948 0.373144
1.000028 0.774563 0.511186
0.455148 0.566240 0.006855
0.457302 0.566900 0.007072
0.465958 0.569508 0.007927
0.483362 0.574923 0.009750
0.510463 0.583325 0.011858
0.549087 0.595615 0.013991
0.601880 0.614954 0.016263
0.678496 0.650578 0.018698
0.762248 0.686578 0.021899
0.826322 0.699695 0.026975
0.862017 0.672437 0.065950
0.895973 0.627741 0.105378
0.950311 0.603244 0.154753
0.996673 0.646038 0.252048
1.000024 0.699010 0.372543
1.000028 0.774927 0.505270
0.537900 0.688679 0.006061
0.539896 0.689234 0.006335
0.548382 0.691539 0.007457
0.565342 0.696163 0.009947
0.591545 0.703097 0.012245
0.627254 0.712170 0.014929
0.672874 0.723180 0.018048
0.733886 0.741742 0.021671
0.807246 0.765723 0.024333
0.877928 0.783829 0.025498
0.918672 0.770878 0.067792
0.941601 0.732536 0.113906
0.965673 0.681950 0.170299
0.997780 0.673738 0.289977
1.000017 0.724406 0.405539
1.000028 0.777394 0.503192
0.632864 0.830838 -0.009713
0.635146 0.831735 -0.009734
0.642729 0.832788 -0.008655
0.658028 0.835082 0.005278
0.681506 0.838278 0.011295
0.713338 0.842196 0.016619
0.753303 0.846163 0.021613
0.802812 0.850979 0.026078
0.863787 0.861625 0.027421
0.925314 0.869250 0.055949
0.980074 0.875867 0.106222
0.999365 0.845043 0.191798
1.000615 0.806200 0.332838
1.000281 0.772885 0.411569
1.000025 0.789575 0.505825
1.000028 0.829217 0.587089
-0.030295 0.045757 0.086509
0.005490 0.047032 0.086035
0.062029 0.054715 0.087202
0.105996 0.058156 0.085878
0.177614 0.059360 0.084122
0.275679 -0.019202 0.065202
0.390185 0.019965 0.040432
0.508538 0.067439 0.044650
0.626612 0.101260 0.052858
0.736225 0.130655 0.060625
0.827413 0.144202 0.070801
0.897272 0.146923 0.083607
0.951973 0.154285 0.099800
0.990495 0.184967 0.134481
1.000026 0.258352 0.206601
1.000032 0.330487 0.249871
0.055453 0.091462 0.085269
0.064504 0.092582 0.085132
0.087023 0.097174 0.086591
0.122049 0.099917 0.085473
0.188408 0.102798 0.083025
0.284137 0.088733 0.061283
0.397705 0.102669 0.039301
0.515514 0.125451 0.044418
0.632721 0.148262 0.052276
0.740523 0.169133 0.060517
0.830006 0.175848 0.071310
0.898814 0.175958 0.085636
0.952884 0.178985 0.103581
0.990743 0.203794 0.138919
1.000026 0.270965 0.210727
1.000033 0.340156 0.254239
0.060314 0.100519 0.083515
0.072959 0.102914 0.083802
0.097927 0.109839 0.084974
0.129825 0.115586 0.085527
0.197348 0.119716 0.080796
0.294207 0.122082 0.064068
0.409680 0.141893 0.045990
0.529734 0.167730 0.043875
0.645677 0.187515 0.051357
0.748333 0.197923 0.059988
0.834605 0.201199 0.071275
0.901478 0.199041 0.085725
0.954572 0.201206 0.103954
0.991297 0.223075 0.140704
1.000026 0.283848 0.212471
1.000033 0.349941 0.256265
0.068548 0.114994 0.080286
0.078625 0.116944 0.080983
0.103971 0.123437 0.082450
0.142659 0.135903 0.083858
0.216209 0.146813 0.075089
0.315509 0.162732 0.062424
0.431486 0.186918 0.046179
0.550409 0.212295 0.043091
0.663522 0.230002 0.050286
0.761697 0.239196 0.059380
0.843129 0.240970 0.071158
0.907008 0.238156 0.085968
0.957696 0.238415 0.104817
0.992580 0.256336 0.144939
1.000026 0.307533 0.215560
1.000033 0.368980 0.260700
0.080354 0.132652 0.072794
0.087621 0.135360 0.073314
0.112177 0.146723 0.074186
0.159330 0.160086 0.071448
0.214713 0.156728 0.067771
0.325702 0.187721 0.055273
0.457806 0.233126 0.037741
0.581845 0.267294 0.040492
0.689719 0.284902 0.049079
0.781221 0.292689 0.058887
0.855938 0.292256 0.071333
0.915204 0.287735 0.087020
0.962512 0.285767 0.106643
0.994191 0.300142 0.152577
1.000026 0.341140 0.221230
1.000032 0.396732 0.267734
0.093460 0.167258 0.054333
0.101847 0.170353 0.055897
0.134592 0.179822 0.060358
0.183480 0.190136 0.056932
0.234608 0.190275 0.051710
0.298416 0.183171 0.047996
0.435686 0.234081 0.035936
0.597916 0.309128 0.039305
0.724172 0.352320 0.048163
0.806121 0.356174 0.058910
0.872299 0.351781 0.072360
0.926175 0.344471 0.089101
0.968817 0.339577 0.109734
0.996272 0.351060 0.164872
1.000038 0.382384 0.229233
1.000030 0.432769 0.278730
0.135518 0.204715 0.039631
0.142609 0.206688 0.040339
0.168445 0.212444 0.042134
0.210508 0.220559 0.037802
0.269416 0.233135 0.028430
0.303766 0.216447 0.030073
0.394822 0.225313 0.041820
0.561029 0.302171 0.044471
0.728081 0.387661 0.048584
0.833243 0.425428 0.059983
0.891549 0.417500 0.074876
0.938494 0.406102 0.092946
0.976540 0.398109 0.115150
0.998474 0.407126 0.184120
1.000018 0.429657 0.240947
1.000029 0.475592 0.294291
0.180620 0.239369 0.020389
0.185701 0.240560 0.020924
0.205638 0.245242 0.022134
0.241383 0.252861 0.019735
