entry/src/main/resources/rawfile/filters/VEL_Cinematic_Teal.cube
TITLE "Cinematic Teal"
LUT_3D_SIZE 6
0.030809 0.031548 0.031848
0.071292 0.036453 0.036556
0.220457 0.051381 0.039867
0.572545 0.116544 0.046685
0.798154 0.175345 0.059138
0.876149 0.186744 0.061995
0.036153 0.073221 0.037703
0.073858 0.074197 0.037615
0.222575 0.118504 0.037949
0.580105 0.206527 0.047180
0.802918 0.264156 0.059848
0.879000 0.265598 0.062273
0.039646 0.195721 0.049659
0.108015 0.196815 0.046127
0.231843 0.208041 0.041077
0.658897 0.391609 0.060911
0.829222 0.402546 0.067609
0.891341 0.377632 0.066928
0.051895 0.470525 0.079680
0.150079 0.474896 0.059965
0.324047 0.511111 0.060594
0.724846 0.599115 0.083672
0.884996 0.615054 0.087551
0.919062 0.520774 0.077205
0.069443 0.704249 0.129163
0.169093 0.707687 0.089226
0.335448 0.724455 0.083617
0.627224 0.792428 0.100526
0.894560 0.793764 0.108678
0.952607 0.723230 0.097323
0.079001 0.807651 0.151351
0.164011 0.810876 0.104849
0.311820 0.819960 0.098476
0.490214 0.839578 0.089986
0.809365 0.894547 0.125766
0.967720 0.888255 0.137419
0.032959 -0.079524 0.069762
0.070623 -0.078571 0.072712
0.216541 -0.070652 0.111579
0.586037 0.049692 0.146144
0.811055 0.105295 0.143083
0.886699 0.116963 0.125875
0.036044 0.074039 0.075209
0.073362 0.074144 0.075096
0.241623 0.084505 0.071645
0.599113 0.140693 0.065409
0.809118 0.192450 0.073721
0.882850 0.214744 0.090000
0.038211 0.196546 0.118121
0.062502 0.199003 0.072068
0.233438 0.208892 0.060718
0.657674 0.371701 0.073962
0.829325 0.379669 0.080197
0.892294 0.354942 0.093001
0.051092 0.469721 0.174225
0.064765 0.473684 0.092180
0.290527 0.503167 0.073152
0.726399 0.599120 0.098213
0.886268 0.605830 0.101007
0.920457 0.509155 0.103427
0.069654 0.705848 0.230409
0.082719 0.705835 0.141863
0.303642 0.722053 0.099250
0.597875 0.786335 0.112050
0.895418 0.793547 0.124274
0.954234 0.717743 0.124408
0.079105 0.808683 0.243129
0.105007 0.809308 0.177299
0.274300 0.819049 0.129333
0.472588 0.838395 0.117168
0.796782 0.892561 0.153841
0.968956 0.887505 0.169022
0.040847 -0.067704 0.206233
0.103370 -0.065985 0.203499
0.200130 -0.066392 0.208999
0.607200 0.097093 0.308035
0.843087 0.119173 0.322076
0.891146 0.112061 0.264910
0.037340 0.117883 0.207977
0.074969 0.091616 0.225661
0.211837 0.087418 0.219760
0.630150 0.147277 0.293642
0.842040 0.160774 0.283753
0.893856 0.176467 0.232632
0.037619 0.198225 0.207426
0.058041 0.201246 0.210917
0.203915 0.205067 0.212972
0.645745 0.253117 0.178316
0.846814 0.263714 0.151200
0.896340 0.293481 0.179185
0.059071 0.508997 0.375251
0.071184 0.503396 0.344589
0.135547 0.491054 0.158885
0.732054 0.599741 0.159608
0.891323 0.560125 0.145950
0.923466 0.476775 0.181079
0.073192 0.717781 0.381671
0.085450 0.715325 0.352266
0.123502 0.716354 0.182037
0.491216 0.763541 0.139407
0.898173 0.793898 0.160565
0.958380 0.705685 0.196097
0.078763 0.811968 0.367876
0.104493 0.812676 0.338746
0.177014 0.817886 0.241572
0.417556 0.836973 0.194509
0.760499 0.889513 0.221738
0.971765 0.888286 0.246523
0.042575 0.115180 0.504173
0.136672 0.105347 0.491627
0.260348 0.109676 0.479781
0.582412 0.143620 0.498224
0.857667 0.148972 0.568594
0.945913 0.153127 0.528240
0.040838 0.232096 0.503351
0.069901 0.184254 0.552725
0.253463 0.161678 0.507966
0.602564 0.189116 0.512907
0.863107 0.189081 0.560467
0.944390 0.210902 0.504605
0.044756 0.351336 0.511680
0.060145 0.346606 0.525898
0.179456 0.295207 0.552261
0.634248 0.313529 0.554831
0.890009 0.283611 0.540926
0.944729 0.315001 0.455823
0.061616 0.511714 0.549559
0.076032 0.513721 0.552071
0.142692 0.523691 0.563267
0.676026 0.656113 0.650559
0.916845 0.553939 0.552256
0.964672 0.549770 0.568462
0.116355 0.778399 0.669101
0.133772 0.781941 0.661815
0.167192 0.781906 0.597613
0.332805 0.756653 0.405805
0.903464 0.796931 0.333517
0.973540 0.769122 0.497082
0.089613 0.832039 0.529905
0.114371 0.830314 0.512460
0.176021 0.826670 0.463342
0.391001 0.851065 0.457616
0.804910 0.912668 0.449134
0.972279 0.900629 0.446385
0.050347 0.189582 0.731612
0.142637 0.168428 0.734468
0.286177 0.171945 0.724541
0.562962 0.217866 0.798026
0.861054 0.190414 0.815455
0.940941 0.167800 0.724411
0.050767 0.303860 0.732659
0.071859 0.234413 0.757531
0.262343 0.209473 0.739123
0.551231 0.253552 0.801542
0.864820 0.231399 0.819415
0.940450 0.230760 0.718145
0.057089 0.426783 0.739057
0.071339 0.413659 0.749428
0.179003 0.342955 0.782212
0.494861 0.345792 0.813601
0.884248 0.326310 0.838486
0.945646 0.339337 0.711225
0.076556 0.580931 0.762958
0.089962 0.573938 0.765616
0.142956 0.545650 0.781898
0.437384 0.547675 0.812939
0.896193 0.564538 0.853884
0.958050 0.565861 0.763980
0.109205 0.753104 0.796883
0.126040 0.754015 0.798281
0.169377 0.759206 0.804821
0.364948 0.770532 0.816714
0.913260 0.906443 0.902162
0.976750 0.907537 0.902710
0.125501 0.856066 0.774691
0.157423 0.857859 0.771663
0.237595 0.864773 0.766261
0.432625 0.874808 0.784161
0.912215 0.970667 0.900635
0.978398 0.970142 0.900023
0.054990 0.208407 0.821807
0.135415 0.189449 0.829434
0.262448 0.185508 0.815715
0.402662 0.196403 0.826376
0.777188 0.226472 0.923951
0.946028 0.204773 0.903908
0.055273 0.309128 0.822857
0.086883 0.257925 0.828508
0.232185 0.232800 0.817617
0.386762 0.244115 0.823185
0.770793 0.281351 0.924360
0.945888 0.265046 0.903814
0.059454 0.420475 0.827621
0.087412 0.404315 0.832570
0.190639 0.358580 0.835607
0.351530 0.343534 0.827177
0.760478 0.395474 0.929055
0.950147 0.377686 0.909347
0.068639 0.537602 0.835129
0.095979 0.530187 0.838730
0.183646 0.511114 0.845737
0.410898 0.542331 0.857568
0.804979 0.610093 0.941978
0.959860 0.597009 0.929208
0.097048 0.698333 0.865112
0.126041 0.693986 0.866786
0.206630 0.685754 0.871371
0.410904 0.707102 0.878468
0.912594 0.906416 0.969257
0.977845 0.909234 0.970892
0.119536 0.837039 0.883472
0.150906 0.837697 0.884904
0.229277 0.841247 0.889275
0.421191 0.850027 0.896610
0.914344 0.968087 0.971115
0.981012 0.970825 0.973196
