entry/src/main/resources/rawfile/filters/VEL_Mono_Contrast.cube
TITLE "Mono Contrast"
LUT_3D_SIZE 16
0.000000 0.000000 0.000000
0.000000 0.000000 0.000000
0.000000 0.000000 0.000000
0.000000 0.000000 0.000000
0.013140 0.013140 0.013140
0.057196 0.057196 0.057196
0.112920 0.112920 0.112920
0.174034 0.174034 0.174034
0.239602 0.239602 0.239602
0.310716 0.310716 0.310716
0.385128 0.385128 0.385128
0.463788 0.463788 0.463788
0.554125 0.554125 0.554125
0.642101 0.642101 0.642101
0.720369 0.720369 0.720369
0.769635 0.769635 0.769635
0.000000 0.000000 0.000000
0.000162 0.000162 0.000162
0.002571 0.002571 0.002571
0.007061 0.007061 0.007061
0.027290 0.027290 0.027290
0.077564 0.077564 0.077564
0.135688 0.135688 0.135688
0.196513 0.196513 0.196513
0.261922 0.261922 0.261922
0.331314 0.331314 0.331314
0.403362 0.403362 0.403362
0.482249 0.482249 0.482249
0.568337 0.568337 0.568337
0.651155 0.651155 0.651155
0.725197 0.725197 0.725197
0.773843 0.773843 0.773843
0.000000 0.000000 0.000000
0.001917 0.001917 0.001917
0.033502 0.033502 0.033502
0.074754 0.074754 0.074754
0.082964 0.082964 0.082964
0.111859 0.111859 0.111859
0.159535 0.159535 0.159535
0.219365 0.219365 0.219365
0.282557 0.282557 0.282557
0.348690 0.348690 0.348690
0.418843 0.418843 0.418843
0.494605 0.494605 0.494605
0.577997 0.577997 0.577997
0.658522 0.658522 0.658522
0.728472 0.728472 0.728472
0.778406 0.778406 0.778406
0.005832 0.005832 0.005832
0.007740 0.007740 0.007740
0.046006 0.046006 0.046006
0.152270 0.152270 0.152270
0.222238 0.222238 0.222238
0.223268 0.223268 0.223268
0.226474 0.226474 0.226474
0.259141 0.259141 0.259141
0.307876 0.307876 0.307876
0.371463 0.371463 0.371463
0.439166 0.439166 0.439166
0.512691 0.512691 0.512691
0.592410 0.592410 0.592410
0.667699 0.667699 0.667699
0.732811 0.732811 0.732811
0.783935 0.783935 0.783935
0.043260 0.043260 0.043260
0.043984 0.043984 0.043984
0.067764 0.067764 0.067764
0.160888 0.160888 0.160888
0.288928 0.288928 0.288928
0.387096 0.387096 0.387096
0.401436 0.401436 0.401436
0.384279 0.384279 0.384279
0.387611 0.387611 0.387611
0.413501 0.413501 0.413501
0.467471 0.467471 0.467471
0.537208 0.537208 0.537208
0.610122 0.610122 0.610122
0.679053 0.679053 0.679053
0.739762 0.739762 0.739762
0.789109 0.789109 0.789109
0.111167 0.111167 0.111167
0.110235 0.110235 0.110235
0.116947 0.116947 0.116947
0.175501 0.175501 0.175501
0.295654 0.295654 0.295654
0.439841 0.439841 0.439841
0.547996 0.547996 0.547996
0.573149 0.573149 0.573149
0.557932 0.557932 0.557932
0.539910 0.539910 0.539910
0.547343 0.547343 0.547343
0.574469 0.574469 0.574469
0.631050 0.631050 0.631050
0.691310 0.691310 0.691310
0.748509 0.748509 0.748509
0.795193 0.795193 0.795193
0.181762 0.181762 0.181762
0.179549 0.179549 0.179549
0.178977 0.178977 0.178977
0.207975 0.207975 0.207975
0.308597 0.308597 0.308597
0.440293 0.440293 0.440293
0.574633 0.574633 0.574633
0.665963 0.665963 0.665963
0.694481 0.694481 0.694481
0.687583 0.687583 0.687583
0.670159 0.670159 0.670159
0.657420 0.657420 0.657420
0.671603 0.671603 0.671603
0.706684 0.706684 0.706684
0.758293 0.758293 0.758293
0.803565 0.803565 0.803565
0.253135 0.253135 0.253135
0.251044 0.251044 0.251044
0.247508 0.247508 0.247508
0.257455 0.257455 0.257455
0.329142 0.329142 0.329142
0.451815 0.451815 0.451815
0.575854 0.575854 0.575854
0.675061 0.675061 0.675061
0.738527 0.738527 0.738527
0.764222 0.764222 0.764222
0.765842 0.765842 0.765842
0.753242 0.753242 0.753242
0.738538 0.738538 0.738538
0.737941 0.737941 0.737941
0.771454 0.771454 0.771454
0.813388 0.813388 0.813388
0.326140 0.326140 0.326140
0.324241 0.324241 0.324241
0.320694 0.320694 0.320694
0.317396 0.317396 0.317396
0.360916 0.360916 0.360916
0.469400 0.469400 0.469400
0.584053 0.584053 0.584053
0.673585 0.673585 0.673585
0.738925 0.738925 0.738925
0.787938 0.787938 0.787938
0.814570 0.814570 0.814570
0.816868 0.816868 0.816868
0.808504 0.808504 0.808504
0.796942 0.796942 0.796942
0.793835 0.793835 0.793835
0.826473 0.826473 0.826473
0.403466 0.403466 0.403466
0.401041 0.401041 0.401041
0.397020 0.397020 0.397020
0.390080 0.390080 0.390080
0.407275 0.407275 0.407275
0.490756 0.490756 0.490756
0.595498 0.595498 0.595498
0.675725 0.675725 0.675725
0.736196 0.736196 0.736196
0.785111 0.785111 0.785111
0.825434 0.825434 0.825434
0.852305 0.852305 0.852305
0.855618 0.855618 0.855618
0.851436 0.851436 0.851436
0.844716 0.844716 0.844716
0.854692 0.854692 0.854692
0.485624 0.485624 0.485624
0.482399 0.482399 0.482399
0.478235 0.478235 0.478235
0.469867 0.469867 0.469867
0.464507 0.464507 0.464507
0.515924 0.515924 0.515924
0.606374 0.606374 0.606374
0.680681 0.680681 0.680681
0.738466 0.738466 0.738466
0.784748 0.784748 0.784748
0.823077 0.823077 0.823077
0.856393 0.856393 0.856393
0.884416 0.884416 0.884416
0.888607 0.888607 0.888607
0.887732 0.887732 0.887732
0.893426 0.893426 0.893426
0.569304 0.569304 0.569304
0.565297 0.565297 0.565297
0.560511 0.560511 0.560511
0.553610 0.553610 0.553610
0.542846 0.542846 0.542846
0.559180 0.559180 0.559180
0.620758 0.620758 0.620758
0.689963 0.689963 0.689963
0.745510 0.745510 0.745510
0.790123 0.790123 0.790123
0.828305 0.828305 0.828305
0.859132 0.859132 0.859132
0.889041 0.889041 0.889041
0.913377 0.913377 0.913377
0.918896 0.918896 0.918896
0.925083 0.925083 0.925083
0.648304 0.648304 0.648304
0.642278 0.642278 0.642278
0.636046 0.636046 0.636046
0.631698 0.631698 0.631698
0.623321 0.623321 0.623321
0.619303 0.619303 0.619303
0.644481 0.644481 0.644481
0.702696 0.702696 0.702696
0.754924 0.754924 0.754924
0.797131 0.797131 0.797131
0.835986 0.835986 0.835986
0.865312 0.865312 0.865312
0.893861 0.893861 0.893861
0.919751 0.919751 0.919751
0.941340 0.941340 0.941340
0.946401 0.946401 0.946401
0.719475 0.719475 0.719475
0.709576 0.709576 0.709576
0.702587 0.702587 0.702587
0.699343 0.699343 0.699343
0.694111 0.694111 0.694111
0.688637 0.688637 0.688637
0.690697 0.690697 0.690697
0.718506 0.718506 0.718506
0.767602 0.767602 0.767602
0.808239 0.808239 0.808239
0.845319 0.845319 0.845319
0.875455 0.875455 0.875455
0.904367 0.904367 0.904367
0.928191 0.928191 0.928191
0.947744 0.947744 0.947744
0.958875 0.958875 0.958875
0.782675 0.782675 0.782675
0.773418 0.773418 0.773418
0.764733 0.764733 0.764733
0.761957 0.761957 0.761957
0.760243 0.760243 0.760243
0.756956 0.756956 0.756956
0.754239 0.754239 0.754239
0.759238 0.759238 0.759238
0.792634 0.792634 0.792634
0.830206 0.830206 0.830206
0.863748 0.863748 0.863748
0.893674 0.893674 0.893674
0.919213 0.919213 0.919213
0.941136 0.941136 0.941136
0.955649 0.955649 0.955649
0.964176 0.964176 0.964176
0.841932 0.841932 0.841932
0.836055 0.836055 0.836055
0.825995 0.825995 0.825995
0.823484 0.823484 0.823484
0.820816 0.820816 0.820816
0.820325 0.820325 0.820325
0.823065 0.823065 0.823065
0.826604 0.826604 0.826604
0.839496 0.839496 0.839496
0.868348 0.868348 0.868348
0.898538 0.898538 0.898538
0.924005 0.924005 0.924005
0.942547 0.942547 0.942547
0.956458 0.956458 0.956458
0.966528 0.966528 0.966528
0.968627 0.968627 0.968627
0.000000 0.000000 0.000000
0.000000 0.000000 0.000000
0.000000 0.000000 0.000000
0.000000 0.000000 0.000000
0.014454 0.014454 0.014454
0.060842 0.060842 0.060842
0.119087 0.119087 0.119087
0.180556 0.180556 0.180556
0.244468 0.244468 0.244468
0.314006 0.314006 0.314006
0.386562 0.386562 0.386562
0.465818 0.465818 0.465818
0.555830 0.555830 0.555830
0.643764 0.643764 0.643764
0.720541 0.720541 0.720541
0.773037 0.773037 0.773037
0.000000 0.000000 0.000000
0.000028 0.000028 0.000028
0.000600 0.000600 0.000600
0.005241 0.005241 0.005241
0.030412 0.030412 0.030412
0.082123 0.082123 0.082123
0.139776 0.139776 0.139776
0.200416 0.200416 0.200416
0.264827 0.264827 0.264827
0.331956 0.331956 0.331956
0.403821 0.403821 0.403821
0.482187 0.482187 0.482187
0.569614 0.569614 0.569614
0.654047 0.654047 0.654047
0.725658 0.725658 0.725658
0.777283 0.777283 0.777283
0.002237 0.002237 0.002237
0.000547 0.000547 0.000547
0.011276 0.011276 0.011276
0.043566 0.043566 0.043566
0.071708 0.071708 0.071708
0.110117 0.110117 0.110117
0.161223 0.161223 0.161223
0.219831 0.219831 0.219831
0.283233 0.283233 0.283233
0.348827 0.348827 0.348827
0.417797 0.417797 0.417797
0.494661 0.494661 0.494661
0.578771 0.578771 0.578771
0.660328 0.660328 0.660328
0.729284 0.729284 0.729284
0.780737 0.780737 0.780737
0.024997 0.024997 0.024997
0.012115 0.012115 0.012115
0.035500 0.035500 0.035500
0.123182 0.123182 0.123182
0.182063 0.182063 0.182063
0.195479 0.195479 0.195479
0.213333 0.213333 0.213333
0.252763 0.252763 0.252763
0.307895 0.307895 0.307895
0.370874 0.370874 0.370874
0.437818 0.437818 0.437818
0.512329 0.512329 0.512329
0.592062 0.592062 0.592062
0.668070 0.668070 0.668070
0.733190 0.733190 0.733190
0.783687 0.783687 0.783687
0.077730 0.077730 0.077730
0.057518 0.057518 0.057518
0.068970 0.068970 0.068970
0.141845 0.141845 0.141845
0.262194 0.262194 0.262194
0.351747 0.351747 0.351747
0.365736 0.365736 0.365736
0.359425 0.359425 0.359425
0.373914 0.373914 0.373914
0.405006 0.405006 0.405006
0.464156 0.464156 0.464156
0.535565 0.535565 0.535565
0.609529 0.609529 0.609529
0.678350 0.678350 0.678350
0.739335 0.739335 0.739335
0.788618 0.788618 0.788618
0.138286 0.138286 0.138286
0.118176 0.118176 0.118176
0.122246 0.122246 0.122246
0.162699 0.162699 0.162699
0.276646 0.276646 0.276646
0.416268 0.416268 0.416268
0.520992 0.520992 0.520992
0.547424 0.547424 0.547424
0.533784 0.533784 0.533784
0.520735 0.520735 0.520735
0.535419 0.535419 0.535419
0.568628 0.568628 0.568628
0.629793 0.629793 0.629793
0.690549 0.690549 0.690549
0.747682 0.747682 0.747682
0.794522 0.794522 0.794522
0.203491 0.203491 0.203491
0.187072 0.187072 0.187072
0.184375 0.184375 0.184375
0.204247 0.204247 0.204247
0.292148 0.292148 0.292148
0.423006 0.423006 0.423006
0.559263 0.559263 0.559263
0.651927 0.651927 0.651927
0.680046 0.680046 0.680046
0.672117 0.672117 0.672117
0.655323 0.655323 0.655323
0.647005 0.647005 0.647005
0.667164 0.667164 0.667164
0.706594 0.706594 0.706594
0.757563 0.757563 0.757563
0.802943 0.802943 0.802943
0.272405 0.272405 0.272405
0.258575 0.258575 0.258575
0.256074 0.256074 0.256074
0.259669 0.259669 0.259669
0.317773 0.317773 0.317773
0.437666 0.437666 0.437666
0.562582 0.562582 0.562582
0.663923 0.663923 0.663923
0.729990 0.729990 0.729990
0.756357 0.756357 0.756357
0.757448 0.757448 0.757448
0.744794 0.744794 0.744794
0.731480 0.731480 0.731480
0.737343 0.737343 0.737343
0.770216 0.770216 0.770216
0.812722 0.812722 0.812722
0.341936 0.341936 0.341936
0.333154 0.333154 0.333154
0.329840 0.329840 0.329840
0.322964 0.322964 0.322964
0.355227 0.355227 0.355227
0.456309 0.456309 0.456309
0.573689 0.573689 0.573689
0.665381 0.665381 0.665381
0.732357 0.732357 0.732357
0.783487 0.783487 0.783487
0.810407 0.810407 0.810407
0.812566 0.812566 0.812566
0.804106 0.804106 0.804106
0.792097 0.792097 0.792097
0.791151 0.791151 0.791151
0.825555 0.825555 0.825555
0.412962 0.412962 0.412962
0.408819 0.408819 0.408819
0.404614 0.404614 0.404614
0.396968 0.396968 0.396968
0.405379 0.405379 0.405379
0.480237 0.480237 0.480237
0.586875 0.586875 0.586875
0.671523 0.671523 0.671523
0.733514 0.733514 0.733514
0.781318 0.781318 0.781318
0.824149 0.824149 0.824149
0.851574 0.851574 0.851574
0.854177 0.854177 0.854177
0.848129 0.848129 0.848129
0.843450 0.843450 0.843450
0.852172 0.852172 0.852172
0.486232 0.486232 0.486232
0.485911 0.485911 0.485911
0.482599 0.482599 0.482599
0.476290 0.476290 0.476290
0.468627 0.468627 0.468627
0.510505 0.510505 0.510505
0.600087 0.600087 0.600087
0.678416 0.678416 0.678416
0.736564 0.736564 0.736564
0.783416 0.783416 0.783416
0.821774 0.821774 0.821774
0.855738 0.855738 0.855738
0.883701 0.883701 0.883701
0.886821 0.886821 0.886821
0.885935 0.885935 0.885935
0.890805 0.890805 0.890805
0.560191 0.560191 0.560191
0.563760 0.563760 0.563760
0.561632 0.561632 0.561632
0.556105 0.556105 0.556105
0.546602 0.546602 0.546602
0.558391 0.558391 0.558391
0.616028 0.616028 0.616028
0.686961 0.686961 0.686961
0.741822 0.741822 0.741822
0.788727 0.788727 0.788727
0.824938 0.824938 0.824938
0.858384 0.858384 0.858384
0.888700 0.888700 0.888700
0.912940 0.912940 0.912940
0.918376 0.918376 0.918376
0.924320 0.924320 0.924320
0.628157 0.628157 0.628157
0.635914 0.635914 0.635914
0.635732 0.635732 0.635732
0.632203 0.632203 0.632203
0.626492 0.626492 0.626492
0.621060 0.621060 0.621060
0.642605 0.642605 0.642605
0.698711 0.698711 0.698711
0.751098 0.751098 0.751098
0.796104 0.796104 0.796104
0.832623 0.832623 0.832623
0.864811 0.864811 0.864811
0.893811 0.893811 0.893811
0.919709 0.919709 0.919709
0.941253 0.941253 0.941253
0.946402 0.946402 0.946402
0.694708 0.694708 0.694708
0.700867 0.700867 0.700867
0.701444 0.701444 0.701444
0.699246 0.699246 0.699246
0.695920 0.695920 0.695920
0.690933 0.690933 0.690933
0.692233 0.692233 0.692233
0.717454 0.717454 0.717454
0.766618 0.766618 0.766618
0.807682 0.807682 0.807682
0.843258 0.843258 0.843258
0.876704 0.876704 0.876704
0.904804 0.904804 0.904804
0.928333 0.928333 0.928333
0.948001 0.948001 0.948001
0.959120 0.959120 0.959120
0.764708 0.764708 0.764708
0.765381 0.765381 0.765381
0.763618 0.763618 0.763618
0.761748 0.761748 0.761748
0.760235 0.760235 0.760235
0.757019 0.757019 0.757019
0.756028 0.756028 0.756028
0.759824 0.759824 0.759824
0.791178 0.791178 0.791178
0.830029 0.830029 0.830029
0.863997 0.863997 0.863997
0.893948 0.893948 0.893948
0.919662 0.919662 0.919662
0.941381 0.941381 0.941381
0.956597 0.956597 0.956597
0.964975 0.964975 0.964975
0.832060 0.832060 0.832060
0.829732 0.829732 0.829732
0.825030 0.825030 0.825030
0.823405 0.823405 0.823405
0.821693 0.821693 0.821693
0.822209 0.822209 0.822209
0.824705 0.824705 0.824705
0.827661 0.827661 0.827661
0.840735 0.840735 0.840735
0.868980 0.868980 0.868980
0.899282 0.899282 0.899282
0.924657 0.924657 0.924657
0.942985 0.942985 0.942985
0.956838 0.956838 0.956838
0.966686 0.966686 0.966686
0.968627 0.968627 0.968627
0.000000 0.000000 0.000000
0.000000 0.000000 0.000000
0.000000 0.000000 0.000000
0.000000 0.000000 0.000000
0.010027 0.010027 0.010027
0.053766 0.053766 0.053766
0.118082 0.118082 0.118082
0.181963 0.181963 0.181963
0.248547 0.248547 0.248547
0.318367 0.318367 0.318367
0.390336 0.390336 0.390336
0.467670 0.467670 0.467670
0.557346 0.557346 0.557346
0.643981 0.643981 0.643981
0.720553 0.720553 0.720553
0.774139 0.774139 0.774139
0.000000 0.000000 0.000000
0.000000 0.000000 0.000000
0.000013 0.000013 0.000013
0.001742 0.001742 0.001742
0.025083 0.025083 0.025083
0.080591 0.080591 0.080591
0.140338 0.140338 0.140338
0.202600 0.202600 0.202600
0.268197 0.268197 0.268197
0.336161 0.336161 0.336161
0.407226 0.407226 0.407226
0.483913 0.483913 0.483913
0.570940 0.570940 0.570940
0.653641 0.653641 0.653641
0.725507 0.725507 0.725507
0.777511 0.777511 0.777511
0.002094 0.002094 0.002094
0.001730 0.001730 0.001730
0.004678 0.004678 0.004678
0.022758 0.022758 0.022758
0.059513 0.059513 0.059513
0.107227 0.107227 0.107227
0.163841 0.163841 0.163841
0.223239 0.223239 0.223239
0.286216 0.286216 0.286216
0.351125 0.351125 0.351125
0.420489 0.420489 0.420489
0.496024 0.496024 0.496024
0.579706 0.579706 0.579706
0.659505 0.659505 0.659505
0.729137 0.729137 0.729137
0.781564 0.781564 0.781564
0.029371 0.029371 0.029371
0.023247 0.023247 0.023247
0.035383 0.035383 0.035383
0.084817 0.084817 0.084817
0.134643 0.134643 0.134643
0.168183 0.168183 0.168183
0.202409 0.202409 0.202409
0.249730 0.249730 0.249730
0.308620 0.308620 0.308620
0.371469 0.371469 0.371469
0.438675 0.438675 0.438675
0.512468 0.512468 0.512468
0.591839 0.591839 0.591839
0.667233 0.667233 0.667233
0.733836 0.733836 0.733836
0.784258 0.784258 0.784258
0.093633 0.093633 0.093633
0.077937 0.077937 0.077937
0.082891 0.082891 0.082891
0.122028 0.122028 0.122028
0.223166 0.223166 0.223166
0.299281 0.299281 0.299281
0.321684 0.321684 0.321684
0.329710 0.329710 0.329710
0.356238 0.356238 0.356238
0.401140 0.401140 0.401140
0.465757 0.465757 0.465757
0.536161 0.536161 0.536161
0.608735 0.608735 0.608735
0.677720 0.677720 0.677720
0.738957 0.738957 0.738957
0.788562 0.788562 0.788562
0.153171 0.153171 0.153171
0.139063 0.139063 0.139063
0.139069 0.139069 0.139069
0.158856 0.158856 0.158856
0.249227 0.249227 0.249227
0.381626 0.381626 0.381626
0.479919 0.479919 0.479919
0.504840 0.504840 0.504840
0.495021 0.495021 0.495021
0.497301 0.497301 0.497301
0.518494 0.518494 0.518494
0.565770 0.565770 0.565770
0.628754 0.628754 0.628754
0.689660 0.689660 0.689660
0.746810 0.746810 0.746810
0.794071 0.794071 0.794071
0.218398 0.218398 0.218398
0.204787 0.204787 0.204787
0.203951 0.203951 0.203951
0.209969 0.209969 0.209969
0.270361 0.270361 0.270361
0.396522 0.396522 0.396522
0.534388 0.534388 0.534388
0.629182 0.629182 0.629182
0.654558 0.654558 0.654558
0.644489 0.644489 0.644489
0.627528 0.627528 0.627528
0.633262 0.633262 0.633262
0.660336 0.660336 0.660336
0.705254 0.705254 0.705254
0.756591 0.756591 0.756591
0.802056 0.802056 0.802056
0.287103 0.287103 0.287103
0.276323 0.276323 0.276323
0.273169 0.273169 0.273169
0.269615 0.269615 0.269615
0.305537 0.305537 0.305537
0.413619 0.413619 0.413619
0.542139 0.542139 0.542139
0.649719 0.649719 0.649719
0.718774 0.718774 0.718774
0.743461 0.743461 0.743461
0.740977 0.740977 0.740977
0.728539 0.728539 0.728539
0.718985 0.718985 0.718985
0.733148 0.733148 0.733148
0.768798 0.768798 0.768798
0.811864 0.811864 0.811864
0.356983 0.356983 0.356983
0.350131 0.350131 0.350131
0.344606 0.344606 0.344606
0.337431 0.337431 0.337431
0.351485 0.351485 0.351485
0.435235 0.435235 0.435235
0.554638 0.554638 0.554638
0.651827 0.651827 0.651827
0.723026 0.723026 0.723026
0.777292 0.777292 0.777292
0.801626 0.801626 0.801626
0.803416 0.803416 0.803416
0.794788 0.794788 0.794788
0.783774 0.783774 0.783774
0.786954 0.786954 0.786954
0.824596 0.824596 0.824596
0.426274 0.426274 0.426274
0.423851 0.423851 0.423851
0.419276 0.419276 0.419276
0.411854 0.411854 0.411854
0.407824 0.407824 0.407824
0.464011 0.464011 0.464011
0.570765 0.570765 0.570765
0.660445 0.660445 0.660445
0.724462 0.724462 0.724462
0.775382 0.775382 0.775382
0.819134 0.819134 0.819134
0.846595 0.846595 0.846595
0.848728 0.848728 0.848728
0.842532 0.842532 0.842532
0.838551 0.838551 0.838551
0.848340 0.848340 0.848340
0.498190 0.498190 0.498190
0.498467 0.498467 0.498467
0.496628 0.496628 0.496628
0.490914 0.490914 0.490914
0.480403 0.480403 0.480403
0.507984 0.507984 0.507984
0.587643 0.587643 0.587643
0.668865 0.668865 0.668865
0.729816 0.729816 0.729816
0.777621 0.777621 0.777621
0.817505 0.817505 0.817505
0.853398 0.853398 0.853398
0.879408 0.879408 0.879408
0.883107 0.883107 0.883107
0.882792 0.882792 0.882792
0.887900 0.887900 0.887900
0.570586 0.570586 0.570586
0.574129 0.574129 0.574129
0.571864 0.571864 0.571864
0.567914 0.567914 0.567914
0.558675 0.558675 0.558675
0.561235 0.561235 0.561235
0.606506 0.606506 0.606506
0.678617 0.678617 0.678617
0.735856 0.735856 0.735856
0.783500 0.783500 0.783500
0.822675 0.822675 0.822675
0.857034 0.857034 0.857034
0.887333 0.887333 0.887333
0.911796 0.911796 0.911796
0.917240 0.917240 0.917240
0.921814 0.921814 0.921814
0.634838 0.634838 0.634838
0.643002 0.643002 0.643002
0.642750 0.642750 0.642750
0.639089 0.639089 0.639089
0.632566 0.632566 0.632566
0.627133 0.627133 0.627133
0.641851 0.641851 0.641851
0.692522 0.692522 0.692522
0.746095 0.746095 0.746095
0.791723 0.791723 0.791723
0.829234 0.829234 0.829234
0.863401 0.863401 0.863401
0.893131 0.893131 0.893131
0.919449 0.919449 0.919449
0.939881 0.939881 0.939881
0.945176 0.945176 0.945176
0.694682 0.694682 0.694682
0.702573 0.702573 0.702573
0.704650 0.704650 0.704650
0.702557 0.702557 0.702557
0.699917 0.699917 0.699917
0.695026 0.695026 0.695026
0.695027 0.695027 0.695027
0.714237 0.714237 0.714237
0.762780 0.762780 0.762780
0.805995 0.805995 0.805995
0.842351 0.842351 0.842351
0.874957 0.874957 0.874957
0.904283 0.904283 0.904283
0.927284 0.927284 0.927284
0.946435 0.946435 0.946435
0.958993 0.958993 0.958993
0.757613 0.757613 0.757613
0.762751 0.762751 0.762751
0.765192 0.765192 0.765192
0.763872 0.763872 0.763872
0.762731 0.762731 0.762731
0.759863 0.759863 0.759863
0.759781 0.759781 0.759781
0.762419 0.762419 0.762419
0.790789 0.790789 0.790789
0.827838 0.827838 0.827838
0.863363 0.863363 0.863363
0.893601 0.893601 0.893601
0.919646 0.919646 0.919646
0.940332 0.940332 0.940332
0.956246 0.956246 0.956246
0.964630 0.964630 0.964630
0.820443 0.820443 0.820443
0.822319 0.822319 0.822319
0.825702 0.825702 0.825702
0.825239 0.825239 0.825239
0.825746 0.825746 0.825746
0.826674 0.826674 0.826674
0.827595 0.827595 0.827595
0.830305 0.830305 0.830305
0.841672 0.841672 0.841672
0.868733 0.868733 0.868733
0.898517 0.898517 0.898517
0.923818 0.923818 0.923818
0.943221 0.943221 0.943221
0.957153 0.957153 0.957153
0.966775 0.966775 0.966775
0.968627 0.968627 0.968627
0.000000 0.000000 0.000000
0.000000 0.000000 0.000000
0.000000 0.000000 0.000000
0.000322 0.000322 0.000322
0.004927 0.004927 0.004927
0.034298 0.034298 0.034298
0.095062 0.095062 0.095062
0.162910 0.162910 0.162910
0.234643 0.234643 0.234643
0.309578 0.309578 0.309578
0.385279 0.385279 0.385279
0.469123 0.469123 0.469123
0.561026 0.561026 0.561026
0.645747 0.645747 0.645747
0.720868 0.720868 0.720868
0.775015 0.775015 0.775015
0.000000 0.000000 0.000000
0.000000 0.000000 0.000000
0.000358 0.000358 0.000358
0.004004 0.004004 0.004004
0.019253 0.019253 0.019253
0.059496 0.059496 0.059496
0.119897 0.119897 0.119897
0.187817 0.187817 0.187817
0.258055 0.258055 0.258055
0.329716 0.329716 0.329716
0.406060 0.406060 0.406060
0.487101 0.487101 0.487101
0.574246 0.574246 0.574246
0.655696 0.655696 0.655696
0.725825 0.725825 0.725825
0.777713 0.777713 0.777713
0.001266 0.001266 0.001266
0.002198 0.002198 0.002198
0.006135 0.006135 0.006135
0.021932 0.021932 0.021932
0.050704 0.050704 0.050704
0.095518 0.095518 0.095518
0.153786 0.153786 0.153786
0.217785 0.217785 0.217785
0.282715 0.282715 0.282715
0.350289 0.350289 0.350289
0.422831 0.422831 0.422831
0.500035 0.500035 0.500035
0.582947 0.582947 0.582947
0.661406 0.661406 0.661406
0.729494 0.729494 0.729494
0.782779 0.782779 0.782779
0.028256 0.028256 0.028256
0.030062 0.030062 0.030062
0.040367 0.040367 0.040367
0.064692 0.064692 0.064692
0.106716 0.106716 0.106716
0.146139 0.146139 0.146139
0.193475 0.193475 0.193475
0.251167 0.251167 0.251167
0.311975 0.311975 0.311975
0.375162 0.375162 0.375162
0.442287 0.442287 0.442287
0.515316 0.515316 0.515316
0.594596 0.594596 0.594596
0.668550 0.668550 0.668550
0.734407 0.734407 0.734407
0.785718 0.785718 0.785718
0.105108 0.105108 0.105108
0.098961 0.098961 0.098961
0.103187 0.103187 0.103187
0.118630 0.118630 0.118630
0.177879 0.177879 0.177879
0.239266 0.239266 0.239266
0.274034 0.274034 0.274034
0.303183 0.303183 0.303183
0.345221 0.345221 0.345221
0.403113 0.403113 0.403113
0.467795 0.467795 0.467795
0.537223 0.537223 0.537223
0.610318 0.610318 0.610318
0.678186 0.678186 0.678186
0.739697 0.739697 0.739697
0.790448 0.790448 0.790448
0.173581 0.173581 0.173581
0.165705 0.165705 0.165705
0.168023 0.168023 0.168023
0.170799 0.170799 0.170799
0.221992 0.221992 0.221992
0.333488 0.333488 0.333488
0.415823 0.415823 0.415823
0.443914 0.443914 0.443914
0.449039 0.449039 0.449039
0.468054 0.468054 0.468054
0.503076 0.503076 0.503076
0.563806 0.563806 0.563806
0.628269 0.628269 0.628269
0.689422 0.689422 0.689422
0.746280 0.746280 0.746280
0.794807 0.794807 0.794807
0.238813 0.238813 0.238813
0.233074 0.233074 0.233074
0.232884 0.232884 0.232884
0.229403 0.229403 0.229403
0.256992 0.256992 0.256992
0.361389 0.361389 0.361389
0.496430 0.496430 0.496430
0.588620 0.588620 0.588620
0.609288 0.609288 0.609288
0.598544 0.598544 0.598544
0.595320 0.595320 0.595320
0.616054 0.616054 0.616054
0.653161 0.653161 0.653161
0.703319 0.703319 0.703319
0.755791 0.755791 0.755791
0.801545 0.801545 0.801545
0.308808 0.308808 0.308808
0.304369 0.304369 0.304369
0.300606 0.300606 0.300606
0.294876 0.294876 0.294876
0.303812 0.303812 0.303812
0.382785 0.382785 0.382785
0.511333 0.511333 0.511333
