entry/src/main/resources/rawfile/filters/VEL_Vivid_Teal.cube
TITLE "Vivid Teal"
LUT_3D_SIZE 6
0.000000 0.000000 0.000000
0.150514 0.005173 -0.000456
0.339549 0.023080 -0.000923
0.573508 0.058289 -0.001394
0.788317 0.094653 -0.001872
0.951044 0.124642 -0.002346
-0.000806 0.148823 0.124876
0.147792 0.156922 0.006596
0.353028 0.174176 -0.001207
0.585320 0.201467 -0.001594
0.796907 0.217011 -0.002018
0.956630 0.225723 -0.002468
-0.001624 0.335457 0.284765
0.010279 0.351284 0.280202
0.348170 0.352085 0.011017
0.602575 0.390604 -0.002097
0.807253 0.402005 -0.002422
0.964162 0.393778 -0.002797
-0.002450 0.567164 0.483159
0.012102 0.577292 0.482544
0.027186 0.609499 0.437667
0.589320 0.592470 0.012195
0.819017 0.597445 -0.003007
0.973623 0.573158 -0.003293
-0.003267 0.779904 0.665377
0.012018 0.784899 0.662886
0.020460 0.799617 0.652289
0.154852 0.829955 0.490737
0.792483 0.796780 0.012195
0.961719 0.751893 -0.003833
-0.003959 0.918237 0.781904
0.011926 0.920549 0.778585
0.023743 0.927255 0.770778
0.026046 0.940429 0.732535
0.294496 0.960937 0.425988
0.912340 0.911374 -0.004275
-0.000157 0.025518 0.042424
0.114262 0.032105 0.135219
0.352749 -0.000973 0.167451
0.594081 -0.001438 0.174799
0.808668 -0.001904 0.161249
0.971323 -0.002374 0.122861
-0.000849 0.155603 0.155628
0.130145 0.162719 0.153398
0.370035 0.163094 0.097174
0.632545 0.159558 0.019601
0.827035 0.167724 0.012047
0.975809 0.182176 0.012104
-0.001654 0.339483 0.309242
0.037969 0.354147 0.294449
0.342885 0.356303 0.121695
0.626780 0.386675 0.013483
0.827382 0.388178 0.012106
0.980758 0.374950 0.012072
-0.002468 0.569715 0.506852
0.012100 0.580732 0.497534
0.097016 0.611272 0.439368
0.586389 0.596344 0.057003
0.828912 0.594100 0.012047
0.982942 0.566630 0.012018
-0.003280 0.780983 0.687215
0.012018 0.786525 0.678959
0.020522 0.801790 0.660611
0.206389 0.829509 0.484991
0.790211 0.798482 0.025954
0.966712 0.749409 0.011945
-0.003959 0.918694 0.801644
0.011922 0.921414 0.794768
0.023792 0.928373 0.781821
0.026366 0.941459 0.743168
0.328484 0.959472 0.444171
0.910408 0.912558 0.012712
-0.000454 0.077688 0.111616
0.006100 0.109829 0.150900
0.266456 0.100413 0.305732
0.593364 -0.001506 0.387752
0.808838 -0.001947 0.384316
0.971702 -0.002412 0.355769
-0.000966 0.178777 0.203581
0.014009 0.197866 0.224653
0.219160 0.211743 0.302400
0.670652 0.050738 0.387792
0.862551 0.012133 0.346353
1.000027 0.058558 0.312676
-0.001712 0.351379 0.351369
0.011300 0.364772 0.362553
0.295035 0.366942 0.354214
0.597607 0.375121 0.252021
0.826252 0.368121 0.221426
0.999159 0.334499 0.196723
-0.002504 0.577771 0.540637
0.012097 0.587254 0.543674
0.217178 0.604896 0.492642
0.565786 0.600333 0.339795
0.849884 0.578755 0.171917
1.000027 0.546392 0.168860
-0.003306 0.784782 0.716123
0.012014 0.789942 0.711497
0.079878 0.804958 0.676497
0.313262 0.823640 0.534378
0.776960 0.802468 0.253050
0.981469 0.740792 0.077415
-0.003980 0.920288 0.826038
0.011922 0.922882 0.819743
0.023879 0.930461 0.797478
0.109776 0.943593 0.740391
0.449056 0.951605 0.522818
0.900293 0.915308 0.151328
-0.000752 0.134320 0.186438
0.006705 0.157453 0.214071
0.012207 0.216215 0.293904
0.453940 0.171800 0.510954
0.807934 -0.002041 0.598612
0.971322 -0.002477 0.566064
-0.001140 0.217429 0.261154
0.008101 0.235355 0.281532
0.022596 0.285075 0.347845
0.369461 0.278295 0.510328
0.851765 0.017811 0.608009
1.000027 0.042016 0.556622
-0.001808 0.383212 0.415965
0.011154 0.396084 0.429296
0.144109 0.422172 0.455619
0.377286 0.437485 0.513475
0.828090 0.338835 0.527822
0.998497 0.316679 0.508400
-0.002566 0.591879 0.591906
0.012092 0.600457 0.599578
0.125917 0.621150 0.612578
0.503202 0.614733 0.596272
0.793847 0.601500 0.489426
0.994502 0.553553 0.489742
-0.003344 0.791988 0.751946
0.012008 0.796307 0.754351
0.021111 0.809827 0.750784
0.426132 0.813034 0.680191
0.754329 0.803926 0.564970
0.987401 0.729241 0.411873
-0.004000 0.923450 0.854455
0.011918 0.925495 0.853078
0.024001 0.931864 0.844038
0.209141 0.941782 0.789424
0.589786 0.937258 0.675708
0.881945 0.914890 0.489063
-0.001056 0.197635 0.270260
0.007718 0.216244 0.292513
0.012348 0.267186 0.355475
0.044217 0.349373 0.485061
0.642716 0.248062 0.720355
0.970731 -0.002575 0.768394
-0.001362 0.270277 0.334222
0.009032 0.286403 0.352696
0.012971 0.332019 0.409294
0.076677 0.404815 0.523911
0.581559 0.344722 0.720889
0.996486 0.023376 0.779515
-0.001947 0.424498 0.481239
0.011843 0.436448 0.494608
0.026813 0.469577 0.531547
0.163919 0.516864 0.603432
0.543614 0.500034 0.730865
0.989709 0.325272 0.751819
-0.002668 0.619894 0.658753
0.012084 0.627496 0.666299
0.017858 0.649377 0.688019
0.319177 0.664005 0.697815
0.573486 0.680434 0.734188
0.987916 0.568355 0.746437
-0.003407 0.802026 0.802094
0.012000 0.806157 0.805482
0.021139 0.817825 0.814222
0.351054 0.823516 0.809053
0.697800 0.814665 0.795285
0.975931 0.762056 0.697813
-0.004041 0.927605 0.888394
0.011913 0.929590 0.889543
0.024173 0.934968 0.890734
0.068392 0.945290 0.877696
0.510966 0.941681 0.803516
0.882073 0.910411 0.740161
-0.001352 0.269972 0.366065
0.008977 0.285779 0.385018
0.012923 0.329909 0.438836
0.018255 0.401868 0.532607
0.164351 0.473908 0.695016
0.795682 0.338195 0.881842
-0.001609 0.335267 0.421808
0.010168 0.349354 0.437954
0.013635 0.389277 0.486562
0.018578 0.454948 0.570696
0.169876 0.521886 0.705770
0.756746 0.427208 0.877961
-0.002119 0.474253 0.553961
0.012128 0.484820 0.565898
0.015429 0.514923 0.600727
0.019718 0.565169 0.667050
0.210250 0.610703 0.761166
0.679615 0.585319 0.904172
-0.002781 0.650407 0.717098
0.012070 0.657095 0.724190
0.018250 0.676040 0.745394
0.021830 0.706614 0.788100
0.173116 0.735121 0.853548
0.757341 0.712206 0.914188
-0.003492 0.810628 0.850918
0.011990 0.814226 0.854333
0.021526 0.824571 0.863809
0.024253 0.840748 0.885714
0.198895 0.855696 0.917973
0.797024 0.834736 0.906680
-0.004081 0.933045 0.933115
0.011908 0.934735 0.934147
0.024286 0.939511 0.937776
0.040122 0.948020 0.940525
0.349839 0.950607 0.937640
0.860395 0.910906 0.902591
