entry/src/main/resources/rawfile/filters/VEL_Vivid_Teal.cube
TITLE "Vivid Teal"
LUT_3D_SIZE 16
0.000000 0.000000 0.000000
0.046764 0.000850 -0.000146
0.097334 0.002445 -0.000301
0.150514 0.005173 -0.000456
0.207752 0.009295 -0.000610
0.270311 0.015132 -0.000766
0.339549 0.023080 -0.000923
0.414940 0.033483 -0.001081
0.493844 0.045658 -0.001239
0.573508 0.058289 -0.001394
0.650961 0.070957 -0.001555
0.723312 0.083219 -0.001712
0.788317 0.094653 -0.001872
0.846913 0.105276 -0.002030
0.900669 0.115220 -0.002184
0.951044 0.124642 -0.002346
-0.000257 0.046035 0.036786
0.045433 0.049240 0.002165
0.102133 0.048926 -0.000398
0.154751 0.051440 -0.000526
0.212007 0.054959 -0.000668
0.274848 0.059923 -0.000815
0.343877 0.067053 -0.000966
0.419066 0.075786 -0.001117
0.497562 0.085498 -0.001275
0.576644 0.095670 -0.001429
0.653564 0.105879 -0.001586
0.725324 0.115638 -0.001740
0.790107 0.124567 -0.001898
0.848368 0.132878 -0.002052
0.901863 0.140694 -0.002215
0.952065 0.148185 -0.002365
-0.000531 0.096120 0.079693
0.003945 0.102776 0.069919
0.092373 0.101980 0.004003
0.158482 0.102009 -0.000695
0.216164 0.105741 -0.000802
0.278174 0.111549 -0.000926
0.347615 0.118607 -0.001062
0.423484 0.126472 -0.001202
0.502534 0.134713 -0.001343
0.581444 0.143333 -0.001489
0.657830 0.151652 -0.001639
0.728930 0.159268 -0.001794
0.792883 0.165755 -0.001947
0.850753 0.171486 -0.002097
0.903914 0.176819 -0.002256
0.953852 0.182029 -0.002403
-0.000806 0.148823 0.124876
0.004065 0.153387 0.123372
0.015823 0.161564 0.093478
0.147792 0.156922 0.006596
0.218647 0.159364 -0.000997
0.283746 0.165470 -0.001093
0.353028 0.174176 -0.001207
0.427555 0.184016 -0.001329
0.505982 0.193348 -0.001455
0.585320 0.201467 -0.001594
0.662001 0.208117 -0.001733
0.733359 0.213216 -0.001879
0.796907 0.217011 -0.002018
0.854388 0.220112 -0.002173
0.907037 0.222889 -0.002316
0.956630 0.225723 -0.002468
-0.001081 0.205393 0.173344
0.004018 0.208988 0.172778
0.006910 0.215755 0.167123
0.049260 0.225711 0.106700
0.208129 0.215916 0.008725
0.284561 0.222212 -0.001304
0.358574 0.231930 -0.001394
0.434542 0.242958 -0.001498
0.511976 0.253751 -0.001617
0.589531 0.263319 -0.001733
0.665150 0.270513 -0.001860
0.736087 0.274801 -0.001995
0.799792 0.276488 -0.002130
0.857374 0.276744 -0.002267
0.910420 0.276410 -0.002412
0.959765 0.276366 -0.002548
-0.001352 0.267195 0.226273
0.003977 0.270171 0.225909
0.008095 0.275702 0.224697
0.010721 0.285506 0.209534
0.096286 0.296828 0.094905
0.274428 0.280538 0.010095
0.357295 0.291749 -0.001609
0.439077 0.304308 -0.001698
0.518823 0.315960 -0.001801
0.596629 0.325947 -0.001904
0.671030 0.333492 -0.002018
0.739868 0.338124 -0.002141
0.802350 0.339397 -0.002267
0.859525 0.338233 -0.002393
0.912338 0.335999 -0.002531
0.962272 0.333649 -0.002668
-0.001624 0.335457 0.284765
0.003924 0.338155 0.284428
0.008074 0.343033 0.284337
0.010279 0.351284 0.280202
0.023032 0.364007 0.250216
0.174556 0.372816 0.096262
0.348170 0.352085 0.011017
0.436004 0.367204 -0.001916
0.521757 0.380406 -0.002006
0.602575 0.390604 -0.002097
0.677677 0.397764 -0.002205
0.746027 0.401496 -0.002306
0.807253 0.402005 -0.002422
0.862628 0.400537 -0.002548
0.914682 0.397655 -0.002668
0.964162 0.393778 -0.002797
-0.001904 0.409992 0.348538
0.003855 0.412399 0.348273
0.008048 0.416703 0.348397
0.011610 0.423645 0.347267
0.012460 0.434623 0.336561
0.052118 0.449916 0.284307
0.256937 0.453021 0.102015
0.428557 0.429583 0.004583
0.517584 0.445866 -0.002226
0.603387 0.457398 -0.002306
0.682221 0.464053 -0.002403
0.751457 0.466543 -0.002504
0.812693 0.465430 -0.002609
0.867823 0.462134 -0.002717
0.918859 0.458157 -0.002828
0.967054 0.454212 -0.002949
-0.002173 0.488157 0.415505
0.003782 0.490210 0.415266
0.008018 0.493974 0.415205
0.012124 0.500017 0.414892
0.013695 0.508948 0.411091
0.015924 0.522123 0.390251
0.097055 0.539023 0.303906
0.341673 0.534546 0.107460
0.509850 0.510734 0.004605
0.598855 0.524895 -0.002531
0.681249 0.532528 -0.002618
0.754903 0.533420 -0.002701
0.817018 0.530474 -0.002797
0.872671 0.525378 -0.002904
0.923725 0.519545 -0.003007
0.971777 0.513734 -0.003120
-0.002450 0.567164 0.483159
0.003700 0.568976 0.482967
0.007980 0.572129 0.482666
0.012102 0.577292 0.482544
0.015034 0.584804 0.480646
0.015827 0.595341 0.471100
0.027186 0.609499 0.437667
0.144498 0.626492 0.304070
0.428337 0.614230 0.110593
0.589320 0.592470 0.012195
0.676891 0.601354 -0.002844
0.752518 0.602774 -0.002919
0.819017 0.597445 -0.003007
0.876005 0.590003 -0.003106
0.926886 0.581604 -0.003201
0.973623 0.573158 -0.003293
-0.002717 0.644271 0.549271
0.003599 0.645702 0.548914
0.007939 0.648418 0.548346
0.012078 0.652782 0.548212
0.016176 0.658875 0.546869
0.017120 0.667302 0.542355
0.017992 0.678775 0.524232
0.057673 0.693348 0.473309
0.196790 0.707963 0.285386
0.510223 0.690196 0.110681
0.666389 0.670835 0.016029
0.748088 0.672014 -0.003147
0.814921 0.666018 -0.003228
0.874258 0.655028 -0.003306
0.926217 0.643290 -0.003382
0.973365 0.632594 -0.003468
-0.002993 0.716600 0.611283
0.003478 0.717784 0.610887
0.007891 0.720046 0.610114
0.012047 0.723440 0.609558
0.016157 0.728188 0.608370
0.018450 0.734932 0.605115
0.019244 0.743446 0.595525
0.021572 0.754812 0.567651
0.107008 0.768194 0.491147
0.256331 0.778632 0.247333
0.584764 0.756859 0.110045
0.734406 0.739052 0.015920
0.807290 0.731710 -0.003431
0.866963 0.720393 -0.003504
0.921245 0.706100 -0.003575
0.970586 0.691946 -0.003656
-0.003267 0.779904 0.665377
0.003337 0.780687 0.664940
0.007836 0.782484 0.663934
0.012018 0.784899 0.662886
0.016132 0.788531 0.661288
0.019746 0.793466 0.658398
0.020460 0.799617 0.652289
0.021307 0.807844 0.634965
0.030735 0.818080 0.596816
0.154852 0.829955 0.490737
0.346398 0.835587 0.239056
0.649865 0.812704 0.108701
0.792483 0.796780 0.012195
0.857816 0.783468 -0.003701
0.911895 0.768381 -0.003768
0.961719 0.751893 -0.003833
-0.003516 0.833222 0.710792
0.003172 0.833879 0.710240
0.007783 0.835040 0.709169
0.011987 0.837307 0.707865
0.016110 0.840083 0.706463
0.020219 0.844019 0.703659
0.021647 0.848814 0.699013
0.022420 0.854940 0.689137
0.023401 0.862774 0.664012
0.055973 0.872253 0.613692
0.202529 0.882536 0.479116
0.426402 0.883042 0.237752
0.707179 0.859570 0.106761
0.841361 0.844292 0.005445
0.899401 0.826867 -0.003939
0.948586 0.809228 -0.004000
-0.003746 0.879485 0.749811
0.002997 0.880079 0.749253
0.007724 0.881029 0.748184
0.011956 0.882619 0.746648
0.016087 0.884922 0.745127
0.020201 0.887889 0.742722
0.022758 0.891538 0.738425
0.023478 0.896173 0.731462
0.024298 0.901931 0.715632
0.026971 0.909226 0.683444
0.106149 0.918080 0.616657
0.247833 0.926121 0.455599
0.492086 0.921748 0.229616
0.755489 0.897313 0.105013
0.880867 0.882123 -0.004101
0.932537 0.862292 -0.004140
-0.003959 0.918237 0.781904
0.002839 0.918591 0.781311
0.007666 0.919339 0.780289
0.011926 0.920549 0.778585
0.016068 0.922342 0.776875
0.020186 0.924518 0.774555
0.023743 0.927255 0.770778
0.024411 0.930856 0.764819
0.025177 0.935086 0.754902
0.026046 0.940429 0.732535
0.034562 0.946988 0.693626
0.155836 0.954823 0.609298
0.294496 0.960937 0.425988
0.559700 0.951061 0.231867
0.795539 0.926972 0.107268
0.912340 0.911374 -0.004275
-0.000029 0.004353 0.009266
0.031921 0.005298 0.037572
0.101056 -0.000318 0.047642
0.156185 -0.000475 0.045510
0.215418 -0.000631 0.043694
0.280407 -0.000789 0.040977
0.352655 -0.000945 0.035743
0.430736 -0.001050 0.028206
0.511943 -0.000681 0.017896
0.591408 0.005729 0.008819
0.666235 0.022348 0.005990
0.736023 0.039624 0.004258
0.798475 0.057268 0.003864
0.855261 0.073468 0.003819
0.907671 0.087806 0.003779
0.957036 0.100599 0.003736
-0.000278 0.048968 0.048961
0.037723 0.051881 0.048093
0.103302 0.049439 0.027139
0.163269 0.045407 0.016211
0.228359 0.039612 0.005370
0.291993 0.041136 0.004939
0.359969 0.047485 0.004075
0.433433 0.056514 0.004014
0.510099 0.066938 0.003992
0.587444 0.078160 0.003966
0.662582 0.089512 0.003935
0.732763 0.100436 0.003898
0.795871 0.110596 0.003859
0.853134 0.120041 0.003816
0.905983 0.128987 0.003774
0.955531 0.137491 0.003727
-0.000543 0.097833 0.088604
0.015071 0.102512 0.079432
0.092067 0.103021 0.040444
0.165328 0.100621 0.009715
0.226720 0.102126 0.005329
0.290875 0.105554 0.004913
0.360929 0.110937 0.004024
0.435679 0.118099 0.004003
0.512982 0.126162 0.003980
0.590459 0.134523 0.003953
0.665410 0.142692 0.003922
0.735238 0.150235 0.003886
0.798113 0.156875 0.003845
0.854966 0.162941 0.003805
0.907524 0.168699 0.003762
0.957047 0.174297 0.003718
-0.000815 0.149982 0.132687
0.005174 0.154651 0.127177
0.037655 0.161415 0.098780
0.148556 0.157706 0.026093
0.224436 0.158881 0.006473
0.292167 0.163879 0.004154
0.362751 0.171372 0.004002
0.438527 0.179574 0.003983
0.517009 0.187454 0.003960
0.594998 0.194948 0.003933
0.670104 0.201458 0.003902
0.739324 0.206810 0.003864
0.801633 0.210832 0.003825
0.858115 0.214114 0.003785
0.910373 0.217023 0.003745
0.959490 0.219951 0.003697
-0.001087 0.206307 0.180581
0.004058 0.210181 0.176708
0.008649 0.216685 0.168920
0.072194 0.225159 0.111094
0.208501 0.216754 0.016718
0.288900 0.222348 0.005084
0.364896 0.231401 0.003971
0.441561 0.241608 0.003952
0.519522 0.251483 0.003928
0.597361 0.259834 0.003900
0.672856 0.265795 0.003868
0.742888 0.269310 0.003831
0.805375 0.270645 0.003796
0.861790 0.271095 0.003759
0.913904 0.271233 0.003715
0.962824 0.271771 0.003666
-0.001357 0.267918 0.233262
0.003976 0.271196 0.230406
0.008176 0.276880 0.227389
0.016811 0.286136 0.210396
0.114194 0.295844 0.105365
0.274596 0.281428 0.012850
0.360563 0.292181 0.004015
0.444047 0.304167 0.003909
0.524220 0.315229 0.003885
0.602048 0.324473 0.003855
0.676305 0.331326 0.003825
0.744838 0.335105 0.003794
0.807043 0.335496 0.003759
0.863793 0.333822 0.003721
0.916373 0.331346 0.003675
0.965649 0.329016 0.003625
-0.001632 0.336106 0.291657
0.003924 0.339022 0.289531
0.008073 0.343976 0.287905
0.010392 0.352497 0.281722
0.034955 0.364653 0.249905
0.182303 0.372130 0.108871
0.348127 0.353058 0.012097
0.438438 0.367628 0.003852
0.525643 0.380334 0.003827
0.606634 0.390112 0.003805
0.681664 0.396738 0.003776
0.749743 0.399824 0.003745
0.810714 0.399795 0.003712
0.865891 0.397909 0.003669
0.917814 0.394405 0.003625
0.967201 0.390280 0.003573
-0.001904 0.410550 0.355517
0.003853 0.413059 0.353760
0.008047 0.417551 0.352727
0.011634 0.424858 0.349229
0.013082 0.435647 0.339271
0.069750 0.450427 0.282635
0.261286 0.452381 0.114373
0.428282 0.430502 0.009288
0.519402 0.446242 0.003771
0.606459 0.457366 0.003745
0.685271 0.463547 0.003718
0.754397 0.465602 0.003684
0.815296 0.464030 0.003647
0.870400 0.460510 0.003606
0.921297 0.456251 0.003560
0.969295 0.452079 0.003506
-0.002184 0.488648 0.422528
0.003782 0.490864 0.420911
0.008018 0.494661 0.420018
0.012124 0.500931 0.417700
0.013713 0.509946 0.413323
0.017812 0.522717 0.393520
0.110600 0.539062 0.302807
0.345859 0.533860 0.118319
0.509710 0.511454 0.009298
0.599869 0.525283 0.003672
0.683624 0.532427 0.003644
0.757099 0.532858 0.003612
0.819217 0.529558 0.003573
0.874587 0.524254 0.003526
0.925597 0.518198 0.003478
0.973860 0.512332 0.003420
-0.002459 0.567568 0.490191
0.003700 0.569477 0.488695
0.007980 0.572729 0.487912
0.012102 0.578088 0.486061
0.015052 0.585658 0.483245
0.015845 0.595999 0.474720
0.036972 0.610091 0.439834
0.154607 0.626186 0.307595
0.431125 0.613837 0.120884
0.589475 0.592989 0.016552
0.677462 0.601762 0.003553
0.754226 0.602675 0.003519
0.820678 0.596872 0.003478
0.877574 0.589178 0.003428
0.928584 0.580674 0.003375
0.975068 0.572053 0.003321
-0.002733 0.644632 0.556315
0.003599 0.646111 0.554843
0.007936 0.648880 0.553988
0.012078 0.653326 0.552171
0.016176 0.659627 0.549965
0.017139 0.667998 0.545349
0.018067 0.679308 0.528441
0.071941 0.693722 0.474461
0.204975 0.707441 0.292993
0.512181 0.689951 0.120452
0.666489 0.671214 0.018745
0.748428 0.672257 0.003406
0.816187 0.665775 0.003360
0.875635 0.654428 0.003313
0.927452 0.642579 0.003265
0.974781 0.631714 0.003206
-0.003007 0.716670 0.618305
0.003478 0.718091 0.616818
0.007888 0.720299 0.615824
0.012047 0.723912 0.614066
0.016155 0.728872 0.611811
0.018465 0.735444 0.608271
0.019259 0.744016 0.599507
0.022308 0.755229 0.571908
0.118556 0.768386 0.492268
0.262021 0.778295 0.258239
0.586173 0.756826 0.119403
0.734518 0.739397 0.020250
0.807495 0.731938 0.003232
0.867761 0.720034 0.003181
0.922264 0.705689 0.003127
0.971615 0.691301 0.003055
-0.003267 0.779896 0.672315
0.003337 0.780893 0.670740
0.007836 0.782463 0.669558
0.012018 0.785296 0.667675
0.016133 0.788960 0.665047
0.019760 0.793842 0.661793
0.020478 0.800078 0.655686
0.021315 0.808038 0.639533
0.035896 0.818284 0.600651
0.164081 0.829921 0.493157
0.349909 0.835194 0.250570
0.651296 0.812661 0.117411
0.792595 0.796873 0.018678
0.857906 0.783688 0.003027
0.912461 0.768150 0.002983
0.962468 0.751519 0.002937
-0.003516 0.833375 0.717416
0.003172 0.834205 0.716041
0.007780 0.835426 0.714893
0.011987 0.837475 0.712858
0.016110 0.840462 0.710238
0.020219 0.844328 0.707456
0.021662 0.849330 0.702461
0.022436 0.855247 0.693102
0.023457 0.862975 0.668540
0.063282 0.872578 0.616700
0.210081 0.882328 0.483199
0.428906 0.882687 0.248546
0.708311 0.859568 0.115154
0.841331 0.844333 0.012365
0.899346 0.826958 0.002856
0.949227 0.809062 0.002804
-0.003746 0.879694 0.756374
0.002997 0.880226 0.754860
0.007730 0.881267 0.753771
0.011956 0.882860 0.751822
0.016087 0.885159 0.749214
0.020201 0.888043 0.746376
0.022771 0.891817 0.742208
0.023487 0.896388 0.735112
0.024314 0.902230 0.720274
0.027519 0.909347 0.687984
0.116060 0.918140 0.619288
0.254129 0.925736 0.461762
0.493676 0.921591 0.239838
0.756336 0.897303 0.113071
0.880761 0.882233 0.005058
0.932454 0.862499 0.002674
-0.003959 0.918307 0.788263
0.002839 0.918748 0.786953
0.007672 0.919522 0.785790
0.011926 0.920785 0.783977
0.016066 0.922591 0.781216
0.020186 0.924852 0.778508
0.023760 0.927626 0.774670
0.024425 0.931041 0.768674
0.025187 0.935130 0.759187
0.026056 0.940587 0.736986
0.039673 0.947060 0.697822
0.163749 0.954647 0.612093
0.300035 0.960654 0.433362
0.560919 0.950811 0.241877
0.796334 0.926876 0.113368
0.912377 0.911651 0.002526
-0.000078 0.012369 0.022881
0.002483 0.024711 0.041295
0.071269 0.016358 0.084286
0.155709 -0.000471 0.101421
0.215364 -0.000648 0.102122
0.280614 -0.000802 0.102386
0.352770 -0.000955 0.103503
0.431053 -0.001111 0.104375
0.512410 -0.001270 0.103253
0.593779 -0.001421 0.098691
0.672008 -0.001578 0.090291
0.744250 -0.001740 0.077648
0.808471 -0.001163 0.061602
0.866431 0.002586 0.041049
0.919081 0.009834 0.023881
0.967692 0.031803 0.014102
-0.000313 0.054499 0.062924
0.007079 0.061646 0.070186
0.061963 0.065170 0.083799
0.169509 0.034190 0.093115
0.244649 0.008192 0.087758
0.312875 0.005308 0.077869
0.383218 0.004449 0.070157
0.457338 0.005627 0.064216
0.534533 0.007028 0.055824
0.611936 0.008587 0.043886
0.686285 0.009724 0.029394
0.753390 0.016515 0.011724
0.813051 0.040279 0.011809
0.867739 0.057339 0.010713
0.918655 0.072631 0.008067
0.966763 0.089567 0.007993
-0.000566 0.100860 0.100851
0.006503 0.105467 0.103946
0.083061 0.105627 0.099313
0.154069 0.104262 0.077762
0.225840 0.101269 0.060155
0.298615 0.098162 0.046010
0.378697 0.094500 0.019764
0.460050 0.091744 0.007896
0.535565 0.098976 0.008098
0.610006 0.107844 0.008087
0.681882 0.117013 0.008074
0.748338 0.125747 0.008060
0.808826 0.133842 0.008046
0.863920 0.141468 0.008027
0.915109 0.148752 0.008009
0.963528 0.155874 0.007989
-0.000828 0.152184 0.142175
0.005087 0.156311 0.142959
0.058886 0.160237 0.127687
0.142762 0.159038 0.095634
0.227905 0.157988 0.058252
0.300007 0.162303 0.028972
0.373906 0.168324 0.014542
0.452283 0.174027 0.009838
0.532458 0.178919 0.008717
0.609364 0.184774 0.008078
0.682337 0.190273 0.008066
0.749695 0.194955 0.008052
0.810299 0.198706 0.008037
0.865486 0.201985 0.008020
0.916726 0.205186 0.007999
0.965297 0.208566 0.007980
-0.001099 0.208015 0.189184
0.004070 0.211542 0.188422
0.026247 0.216818 0.177764
0.094797 0.223661 0.135723
0.205969 0.217924 0.080156
0.294982 0.221938 0.035826
0.375606 0.230239 0.010998
0.455000 0.238756 0.009098
0.533387 0.246975 0.008098
0.610878 0.253518 0.008066
0.685028 0.258167 0.008054
0.752625 0.260986 0.008041
0.813371 0.262292 0.008025
0.868393 0.262775 0.008006
0.919367 0.263105 0.007989
0.967888 0.263676 0.007967
-0.001366 0.269371 0.241494
0.003974 0.272556 0.239630
0.009638 0.278151 0.233252
0.045419 0.286378 0.214333
0.133581 0.293767 0.132743
0.273107 0.282859 0.061139
0.365811 0.292585 0.019867
0.453277 0.303772 0.009872
0.534448 0.313598 0.008059
0.612473 0.321414 0.008049
0.686455 0.326786 0.008037
0.754484 0.328791 0.008023
0.815799 0.327967 0.008008
0.871288 0.325983 0.007991
0.922628 0.323675 0.007970
0.971113 0.321793 0.007950
-0.001639 0.337317 0.299671
0.003922 0.340186 0.297760
0.008365 0.345593 0.293560
0.013153 0.353668 0.285620
0.067088 0.364862 0.251890
0.194890 0.370416 0.131987
0.346721 0.354668 0.041741
0.442913 0.368326 0.013081
0.532808 0.380153 0.008043
0.614263 0.388944 0.008027
0.689077 0.394530 0.008016
0.756588 0.396450 0.008001
0.817002 0.395473 0.007986
0.872255 0.392498 0.007968
0.923998 0.388131 0.007950
0.973009 0.383764 0.007928
-0.001910 0.411586 0.363415
0.003852 0.414214 0.361762
0.008047 0.418847 0.357925
0.011678 0.426138 0.354770
0.019020 0.436701 0.341168
0.097580 0.450267 0.282699
0.268269 0.451499 0.134367
0.426507 0.432352 0.023822
0.523083 0.446953 0.010471
0.612091 0.457219 0.008001
0.691067 0.462506 0.007989
0.759760 0.463699 0.007975
0.820408 0.461404 0.007960
0.875091 0.457322 0.007941
0.925774 0.452587 0.007923
0.974041 0.447701 0.007901
-0.002184 0.489583 0.430326
0.003779 0.491745 0.428758
0.008016 0.495863 0.425523
0.012123 0.502100 0.423567
0.013775 0.511348 0.416742
0.033087 0.523649 0.394158
0.132890 0.538799 0.297871
0.349618 0.533363 0.137976
0.508140 0.513190 0.016701
0.602591 0.525854 0.008153
0.687797 0.532086 0.007958
0.761150 0.531805 0.007941
0.823206 0.527883 0.007926
0.878351 0.522116 0.007909
0.929109 0.515664 0.007891
0.977339 0.509452 0.007869
-0.002459 0.568389 0.497953
0.003697 0.570274 0.496552
0.007979 0.573800 0.493675
0.012100 0.579083 0.492030
0.015077 0.586837 0.487253
0.016106 0.597399 0.476258
0.059204 0.610972 0.437945
0.173084 0.625718 0.301949
0.433684 0.613591 0.139636
0.588372 0.594393 0.018295
0.679073 0.602186 0.007921
0.757227 0.602153 0.007904
0.823817 0.595838 0.007891
0.880576 0.587726 0.007871
0.931419 0.578916 0.007852
0.978129 0.570049 0.007833
-0.002733 0.645182 0.563841
0.003599 0.646798 0.562460
0.007936 0.649700 0.559820
0.012076 0.654132 0.558339
0.016176 0.660530 0.554475
0.017163 0.669209 0.546840
0.019876 0.680113 0.530671
0.097129 0.694246 0.470404
0.219703 0.707042 0.291423
0.514674 0.689795 0.137948
0.665817 0.672244 0.020510
0.749225 0.672697 0.007863
0.818359 0.665257 0.007847
0.878030 0.653375 0.007830
0.929855 0.641260 0.007811
0.977030 0.630259 0.007792
-0.003007 0.717276 0.625661
0.003478 0.718583 0.624296
0.007888 0.721008 0.621759
0.012047 0.724539 0.620110
0.016155 0.729677 0.616663
0.018489 0.736459 0.610514
0.019278 0.745009 0.600749
0.027932 0.755719 0.574162
0.138739 0.768452 0.488810
0.275865 0.777506 0.267156
0.588554 0.756676 0.135786
0.733930 0.740222 0.022045
0.807959 0.732359 0.007803
0.869405 0.719746 0.007786
0.924241 0.704710 0.007769
0.973649 0.690356 0.007752
-0.003267 0.780434 0.679356
0.003329 0.781278 0.678011
0.007836 0.783102 0.675483
0.012018 0.785752 0.673597
0.016133 0.789589 0.670130
0.019779 0.794501 0.664533
0.020495 0.800890 0.656844
0.021335 0.808818 0.642562
0.048060 0.818764 0.601772
0.180614 0.829864 0.491294
0.359187 0.834438 0.263873
0.653489 0.812556 0.132782
0.792021 0.797510 0.022708
0.857965 0.784064 0.007735
0.913659 0.767730 0.007724
0.964108 0.750685 0.007706
-0.003516 0.833697 0.724408
0.003172 0.834354 0.723015
0.007780 0.835776 0.720664
0.011987 0.837868 0.718800
0.016111 0.840912 0.715616
0.020219 0.844839 0.710688
0.021674 0.849819 0.704381
0.022450 0.855863 0.694950
0.024042 0.863435 0.672212
0.087353 0.873179 0.616103
0.223991 0.882146 0.483413
0.434741 0.882099 0.262645
0.710042 0.859464 0.129551
0.840806 0.844870 0.022426
0.899339 0.827390 0.007678
0.950207 0.808710 0.007661
-0.003746 0.879787 0.762973
0.002997 0.880505 0.761701
0.007730 0.881432 0.759594
0.011956 0.883053 0.757633
0.016087 0.885496 0.754592
0.020201 0.888524 0.749981
0.022789 0.892357 0.744617
0.023504 0.896865 0.737098
0.024324 0.902582 0.723545
0.029072 0.909798 0.691441
0.133739 0.918340 0.618801
0.265867 0.925486 0.465160
0.497699 0.921191 0.253326
0.757972 0.897153 0.126527
0.880463 0.882597 0.014140
0.932476 0.862798 0.007624
-0.003959 0.918538 0.794791
0.002839 0.918932 0.793573
0.007666 0.919835 0.791397
0.011926 0.921092 0.789456
0.016066 0.922768 0.786551
0.020186 0.925101 0.782461
0.023775 0.928044 0.777400
0.024437 0.931505 0.771031
0.025202 0.935577 0.761418
0.026073 0.940856 0.741005
0.047464 0.947483 0.700918
0.177880 0.954656 0.612478
0.310534 0.960195 0.441204
0.564185 0.950598 0.255756
0.797835 0.926803 0.123473
0.911889 0.911889 0.007863
-0.000157 0.025518 0.042424
0.002093 0.037295 0.056823
0.007225 0.053013 0.083573
0.114262 0.032105 0.135219
0.214138 0.001112 0.158438
0.280293 -0.000824 0.163077
0.352749 -0.000973 0.167451
0.431216 -0.001129 0.170859
0.512695 -0.001280 0.173526
0.594081 -0.001438 0.174799
0.672229 -0.001594 0.173459
0.744345 -0.001747 0.169040
0.808668 -0.001904 0.161249
0.866871 -0.002064 0.150830
0.920604 -0.002215 0.137981
0.971323 -0.002374 0.122861
-0.000364 0.063108 0.077485
0.002823 0.070585 0.085876
0.012204 0.081404 0.101700
0.097794 0.079123 0.132929
0.228188 0.023855 0.159703
0.309534 0.005597 0.164071
0.381623 0.004128 0.161931
0.457194 0.004007 0.160725
0.535361 0.003985 0.159296
0.613366 0.003958 0.156124
0.688346 0.003927 0.150428
0.757143 0.003891 0.141592
0.819047 0.003971 0.129861
0.875452 0.004092 0.115291
0.927761 0.004749 0.098421
0.977406 0.006803 0.079998
-0.000598 0.106299 0.115755
0.003863 0.111427 0.120862
0.037206 0.117203 0.125997
0.105531 0.119653 0.133541
0.212421 0.103523 0.135457
0.316881 0.074295 0.136089
0.410466 0.039125 0.127650
0.495074 0.013138 0.112831
0.572455 0.010069 0.095597
0.644863 0.010566 0.083678
0.713481 0.011566 0.070392
0.776842 0.012586 0.052667
0.834217 0.014382 0.031889
0.886104 0.036460 0.015784
0.934446 0.058593 0.015259
0.981204 0.074001 0.014845
-0.000849 0.155603 0.155628
0.004362 0.159471 0.158885
0.037655 0.163572 0.160024
0.130145 0.162719 0.153398
0.206940 0.161866 0.130619
0.289363 0.161809 0.106821
0.370035 0.163094 0.097174
0.458122 0.162928 0.082593
0.549515 0.160994 0.051481
0.632545 0.159558 0.019601
0.706215 0.159358 0.011658
0.770052 0.162982 0.011311
0.827035 0.167724 0.012047
0.879411 0.172441 0.012126
0.928743 0.177179 0.012116
0.975809 0.182176 0.012104
-0.001117 0.210835 0.200036
0.004014 0.214043 0.202018
0.012011 0.219305 0.201036
0.112427 0.221058 0.182986
0.196233 0.219801 0.152202
0.290770 0.220142 0.119332
0.378099 0.227887 0.082706
0.461632 0.235886 0.062175
0.543349 0.243170 0.040586
0.623338 0.247765 0.020956
0.699750 0.248143 0.013526
0.767199 0.247632 0.011911
0.825747 0.247841 0.012128
0.879048 0.247823 0.012118
0.928894 0.248056 0.012108
0.976689 0.248813 0.012096
-0.001380 0.271746 0.251297
0.003972 0.274641 0.252023
0.008996 0.279928 0.250427
0.075690 0.285585 0.232511
0.148564 0.291943 0.182109
0.266939 0.284086 0.141429
0.370838 0.290625 0.098942
0.463845 0.302265 0.048662
0.547991 0.310963 0.021740
0.627666 0.316670 0.014370
0.700600 0.320209 0.012478
0.766840 0.320657 0.012128
0.826545 0.318754 0.012118
0.880612 0.316150 0.012109
0.930878 0.313640 0.012098
0.978711 0.311639 0.012084
-0.001654 0.339483 0.309242
0.003918 0.342176 0.308921
0.008233 0.347139 0.307202
0.037969 0.354147 0.294449
0.104473 0.363205 0.265473
0.200426 0.369350 0.171173
0.342885 0.356303 0.121695
0.448894 0.367844 0.074612
0.542943 0.379584 0.025935
0.626780 0.386675 0.013483
0.701911 0.390193 0.012124
0.768341 0.390488 0.012116
0.827382 0.388178 0.012106
0.881922 0.383965 0.012096
0.932780 0.379088 0.012084
0.980758 0.374950 0.012072
