entry/src/main/resources/rawfile/filters/VEL_Moody_Blue.cube
TITLE "Moody Blue"
LUT_3D_SIZE 6
0.011765 0.000000 0.000000
0.179449 0.022061 0.003922
0.336239 0.044019 0.008087
0.500414 0.060008 0.014740
0.673264 0.074119 0.023233
0.845151 0.112856 0.060197
0.058650 0.213583 0.040293
0.196756 0.224528 0.041678
0.367286 0.221457 0.039138
0.527910 0.219386 0.045092
0.695753 0.222997 0.050625
0.860493 0.242982 0.086122
0.090819 0.405499 0.096379
0.174181 0.421166 0.100397
0.372433 0.420254 0.096754
0.552879 0.430094 0.086666
0.712477 0.414840 0.097190
0.872965 0.426221 0.117253
0.116353 0.605915 0.144289
0.174348 0.613715 0.143199
0.354927 0.614347 0.145594
0.541533 0.610759 0.142601
0.741499 0.631774 0.124223
0.898164 0.624057 0.147134
0.128493 0.806607 0.181107
0.173754 0.807100 0.176517
0.323383 0.811620 0.187232
0.522019 0.809340 0.188383
0.711059 0.807685 0.184804
0.925618 0.844736 0.174383
0.194476 0.991196 0.272801
0.232026 0.989459 0.262467
0.362832 0.989230 0.273200
0.531105 0.990399 0.279213
0.721782 0.991412 0.277152
0.893324 0.991547 0.292714
0.040446 0.000000 0.183365
0.176751 0.024302 0.204202
0.337901 0.042921 0.205390
0.500716 0.063280 0.212330
0.676225 0.077054 0.219543
0.842765 0.112480 0.238956
0.122319 0.195403 0.197572
0.209775 0.215198 0.217753
0.369581 0.218588 0.219645
0.527936 0.219145 0.222937
0.695666 0.222545 0.224813
0.857181 0.239327 0.240963
0.201030 0.391837 0.229130
0.223168 0.413886 0.231754
0.382450 0.418166 0.230573
0.553410 0.421032 0.230587
0.711412 0.412707 0.233071
0.871737 0.421261 0.245064
0.207880 0.592084 0.245316
0.227121 0.605082 0.249240
0.364683 0.612699 0.253499
0.548395 0.609348 0.252396
0.740757 0.625699 0.243965
0.897762 0.614021 0.260006
0.187836 0.793176 0.254811
0.218894 0.800887 0.261358
0.342360 0.808170 0.273605
0.526415 0.808553 0.276470
0.716201 0.804708 0.274340
0.929380 0.840644 0.278979
0.227872 0.990088 0.309957
0.266424 0.988925 0.327111
0.383298 0.988797 0.339893
0.539385 0.990262 0.352560
0.726402 0.991171 0.352208
0.899275 0.991241 0.366739
0.036908 0.015686 0.319466
0.146163 0.018028 0.341612
0.331921 0.051508 0.368755
0.489992 0.067603 0.372122
0.662412 0.078835 0.378376
0.834501 0.119738 0.401486
0.029704 0.145017 0.343639
0.153046 0.160755 0.370762
0.366986 0.215846 0.404707
0.527655 0.219033 0.410444
0.695034 0.220857 0.412741
0.859334 0.242366 0.431402
0.175670 0.363584 0.363447
0.222022 0.378215 0.382120
0.399362 0.405787 0.408366
0.553881 0.412246 0.412183
0.710641 0.412148 0.413165
0.871421 0.424365 0.425077
0.309685 0.568661 0.411530
0.337309 0.577686 0.424587
0.413257 0.598944 0.418974
0.566762 0.606754 0.420937
0.741349 0.609963 0.418613
0.895646 0.606707 0.429324
0.346065 0.774869 0.440058
0.355415 0.781328 0.443302
0.401596 0.794846 0.418538
0.546403 0.805632 0.434050
0.732264 0.802789 0.434133
0.930181 0.832071 0.438269
0.364791 0.987024 0.471366
0.381220 0.987969 0.481891
0.435629 0.987885 0.465845
0.563975 0.989951 0.489586
0.740151 0.991156 0.492319
0.906993 0.991189 0.500191
0.009735 0.018015 0.453053
0.119360 0.015493 0.476122
0.303577 0.019999 0.512014
0.491567 0.067339 0.551924
0.664723 0.077310 0.561836
0.833091 0.119091 0.584378
0.011796 0.117791 0.476326
0.114866 0.126264 0.501859
0.327170 0.160899 0.545543
0.528141 0.219987 0.593077
0.696285 0.221263 0.597225
0.858408 0.241876 0.611169
0.009877 0.271220 0.461545
0.021525 0.276889 0.485200
0.312345 0.318287 0.536711
0.550303 0.406938 0.591603
0.710444 0.411837 0.593814
0.871938 0.419395 0.601807
0.201798 0.520715 0.522056
0.241194 0.527657 0.529277
0.373454 0.543681 0.548569
0.583708 0.591559 0.593622
0.742742 0.597952 0.598649
0.898598 0.604587 0.605463
0.353585 0.746321 0.568264
0.372563 0.748066 0.568215
0.479605 0.761077 0.585846
0.591425 0.792425 0.598038
0.757387 0.801847 0.606112
0.939839 0.814720 0.615643
0.472749 0.981381 0.656638
0.489284 0.981386 0.657772
0.547169 0.983933 0.647761
0.617734 0.989827 0.634700
0.765444 0.991524 0.648952
0.926601 0.989285 0.656711
0.026639 0.012244 0.623111
0.094199 0.015218 0.645316
0.280245 0.015003 0.669921
0.467647 0.020396 0.712082
0.671922 0.077102 0.755501
0.834330 0.120790 0.776730
0.025329 0.048000 0.644142
0.051056 0.052123 0.670032
0.290840 0.054043 0.700489
0.492788 0.138793 0.749752
0.696497 0.222142 0.788098
0.857115 0.243491 0.805190
0.022532 0.210633 0.624388
0.000000 0.216690 0.651194
0.234493 0.243241 0.685068
0.488305 0.317569 0.739895
0.709863 0.410781 0.782376
0.871597 0.423285 0.797651
0.004578 0.395143 0.611700
0.000075 0.401640 0.627539
0.034342 0.377277 0.642748
0.428670 0.440807 0.715534
0.739986 0.592344 0.784089
0.899102 0.607425 0.796277
0.078737 0.681326 0.678324
0.119455 0.687010 0.686354
0.287128 0.694840 0.694045
0.500601 0.714474 0.720883
0.777815 0.785755 0.786676
0.940870 0.801968 0.801218
0.386294 0.970040 0.756085
0.399169 0.974849 0.761699
0.504424 0.976814 0.770903
0.659640 0.985675 0.791710
0.796454 0.991387 0.801286
0.954095 0.992157 0.814548
0.018921 0.003784 0.872374
0.035557 0.003769 0.899107
0.272905 0.002402 0.896019
0.455833 0.009680 0.906236
0.663579 0.022861 0.940520
0.837324 0.124269 0.953063
0.017371 0.000000 0.899150
0.008181 0.000000 0.926010
0.276104 0.000000 0.935854
0.475701 0.001163 0.948039
0.677774 0.099066 0.967457
0.852638 0.246732 0.974813
0.002615 0.156279 0.895803
0.000000 0.166510 0.928454
0.146526 0.170168 0.936134
0.444814 0.206865 0.949892
0.675952 0.308501 0.967776
0.868272 0.419449 0.977779
0.000000 0.366971 0.897264
0.000000 0.360034 0.925113
0.000000 0.307918 0.934784
0.319220 0.338875 0.952517
0.673268 0.469711 0.968181
0.897670 0.603085 0.979577
0.000000 0.651163 0.934325
0.000000 0.650802 0.948935
0.000000 0.614517 0.947097
0.001001 0.540025 0.951869
0.577862 0.599999 0.973518
0.944539 0.799851 0.983899
0.061234 0.976013 0.972930
0.042863 0.977523 0.978311
0.078648 0.976422 0.977667
0.361041 0.983047 0.981542
0.667143 0.984314 0.984314
0.983917 0.991913 0.988052
