entry/src/main/resources/rawfile/filters/VEL_Sunset_Glow.cube
TITLE "Sunset Glow"
LUT_3D_SIZE 6
0.022349 0.030242 0.023762
0.096139 0.030580 0.026341
0.220632 0.006391 0.033232
0.539485 -0.001314 0.044111
0.838512 -0.001971 0.050243
0.968007 -0.002365 0.092187
0.043850 0.092687 0.064181
0.072750 0.090523 0.055506
0.246313 0.089109 0.020621
0.562056 0.007764 0.042534
0.832261 -0.001669 0.046548
0.959669 -0.002336 0.091115
0.092331 0.208417 0.142983
0.145201 0.202426 0.162472
0.196275 0.209193 0.114462
0.619159 0.297220 0.013617
0.853915 0.297407 0.015168
0.963718 0.324236 0.052757
0.236982 0.418671 0.282066
0.292169 0.413975 0.297491
0.359611 0.415366 0.310345
0.457054 0.427862 0.205280
0.803544 0.546030 0.083460
0.953089 0.539579 0.134769
0.505243 0.647927 0.514574
0.543920 0.651121 0.536753
0.616667 0.659592 0.594075
0.647970 0.670828 0.570935
0.720576 0.674814 0.471314
0.873213 0.699345 0.441408
0.728953 0.804772 0.764163
0.730705 0.798808 0.760565
0.759696 0.801602 0.782147
0.788123 0.808027 0.805609
0.806482 0.819516 0.790826
0.855171 0.832461 0.769032
0.009179 0.050996 0.095886
0.078442 0.053177 0.082384
0.227815 0.019729 0.059728
0.540872 -0.001319 0.059025
0.833433 -0.001959 0.048732
0.964908 -0.002355 0.092484
0.008039 0.113414 0.109494
0.087633 0.116865 0.106418
0.253834 0.106602 0.079175
0.584455 0.031717 0.035566
0.837082 0.004098 0.044524
0.959226 0.019598 0.083384
0.037119 0.235814 0.166937
0.147304 0.234805 0.184344
0.215008 0.229612 0.158769
0.632355 0.297550 0.058280
0.848187 0.313617 0.019078
0.961163 0.335668 0.052661
0.216736 0.452714 0.306966
0.294497 0.446901 0.323030
0.395240 0.441947 0.358015
0.476126 0.447771 0.255714
0.811018 0.549239 0.138196
0.954212 0.543728 0.141537
0.506351 0.663142 0.533051
0.544287 0.663684 0.551411
0.622768 0.671154 0.606949
0.658236 0.680490 0.600454
0.724240 0.682973 0.506034
0.874990 0.703522 0.457821
0.725868 0.808257 0.766425
0.729382 0.803026 0.764184
0.760061 0.805764 0.785507
0.792578 0.811347 0.813104
0.808243 0.821544 0.797181
0.855910 0.833638 0.772263
0.001954 0.076673 0.189494
0.038286 0.081013 0.192566
0.183978 0.082419 0.185920
0.511922 0.002731 0.210595
0.835590 -0.001971 0.166251
0.966969 -0.002355 0.116884
0.001956 0.127487 0.203273
0.051452 0.135435 0.213473
0.214097 0.139425 0.215562
0.568231 0.046299 0.224284
0.839668 0.028750 0.178810
0.968541 0.053911 0.056379
-0.001290 0.248619 0.252760
0.024773 0.262719 0.262040
0.274966 0.298968 0.281952
0.615000 0.302229 0.243382
0.854698 0.319031 0.168638
0.967827 0.350517 0.097808
0.017542 0.484035 0.376622
0.142360 0.499475 0.381441
0.436735 0.513658 0.435697
0.533957 0.510191 0.392224
0.821358 0.564590 0.331327
0.951047 0.551141 0.265384
0.421742 0.680746 0.541174
0.488580 0.685547 0.563901
0.618868 0.696510 0.629380
0.684739 0.704298 0.669092
0.734942 0.704690 0.589551
0.878711 0.722125 0.555106
0.697727 0.815510 0.761357
0.710789 0.811584 0.764802
0.751581 0.813585 0.787794
0.796410 0.819477 0.820588
0.814236 0.828048 0.815234
0.859174 0.839349 0.790048
-0.000761 0.117003 0.338239
-0.000784 0.122749 0.344482
0.167254 0.119356 0.374727
0.461290 0.094339 0.417636
0.782621 0.021255 0.450747
0.956464 -0.002365 0.371448
-0.000934 0.164191 0.363401
0.000617 0.173028 0.369900
0.189364 0.168429 0.400045
0.486732 0.172915 0.437798
0.805576 0.103090 0.461455
0.963007 0.080963 0.358486
-0.001333 0.266400 0.386950
0.001466 0.277075 0.396784
0.227060 0.312291 0.445159
0.544421 0.357255 0.495343
0.804158 0.351533 0.475795
0.950072 0.397751 0.407801
-0.002184 0.483678 0.492713
0.016864 0.495291 0.501901
0.290567 0.532619 0.532373
0.598339 0.594166 0.585319
0.802166 0.605199 0.570299
0.931053 0.592068 0.518971
0.087483 0.702399 0.615967
0.205454 0.708407 0.617831
0.472322 0.714986 0.637668
0.696098 0.735489 0.717235
0.749226 0.735069 0.692843
0.893407 0.750600 0.673218
0.569853 0.823640 0.743355
0.588622 0.819849 0.740909
0.687823 0.824517 0.774244
0.786319 0.832604 0.823583
0.826613 0.838869 0.844191
0.865273 0.849571 0.818708
-0.001134 0.189336 0.587805
-0.001152 0.195034 0.594577
0.126495 0.184827 0.628798
0.512045 0.199389 0.674097
0.767747 0.227576 0.695036
0.898003 0.294469 0.661145
-0.001244 0.226036 0.598879
-0.001285 0.239635 0.603599
0.152279 0.235904 0.636618
0.519484 0.261807 0.678301
0.755962 0.306295 0.691550
0.887467 0.345207 0.658291
-0.001522 0.314075 0.589992
-0.001563 0.324513 0.601883
0.163138 0.360134 0.654396
0.525551 0.406442 0.689904
0.752448 0.480712 0.714361
0.878371 0.509956 0.692288
-0.002205 0.500785 0.647357
-0.002226 0.504291 0.650438
0.116432 0.514896 0.671728
0.528939 0.571886 0.708713
0.755534 0.655265 0.754960
0.884835 0.663242 0.741914
0.058184 0.693451 0.725856
0.134479 0.699352 0.733054
0.352227 0.708215 0.742457
0.587185 0.732217 0.761999
0.774885 0.777977 0.801314
0.892372 0.784258 0.795534
0.301185 0.843175 0.807532
0.320916 0.840626 0.802175
0.466580 0.842209 0.803842
0.667827 0.846025 0.817998
0.830190 0.856687 0.864738
0.876138 0.866720 0.860252
-0.001801 0.350858 0.822592
0.038288 0.355603 0.832737
0.295314 0.340040 0.835104
0.565930 0.408049 0.845387
0.752470 0.533905 0.860291
0.877117 0.578776 0.860390
-0.001885 0.377542 0.823998
0.051846 0.391554 0.835808
0.297847 0.380527 0.833604
0.560804 0.438806 0.841970
0.744672 0.544166 0.854918
0.869319 0.576224 0.852883
-0.002075 0.434264 0.823483
0.001828 0.446051 0.825840
0.290950 0.472959 0.837225
0.568069 0.534093 0.845783
0.746398 0.619991 0.858910
0.867826 0.653351 0.863253
-0.002540 0.562355 0.836247
-0.002513 0.557268 0.835553
0.049722 0.549484 0.842302
0.533067 0.610885 0.848902
0.747600 0.697618 0.865617
0.868303 0.736028 0.875597
0.122209 0.727072 0.876475
0.163752 0.725197 0.878232
0.296523 0.718323 0.877625
0.490047 0.712205 0.868497
0.734482 0.764613 0.876950
0.880638 0.819571 0.896636
0.478360 0.861672 0.898862
0.490742 0.860516 0.897430
0.552069 0.862472 0.897168
0.642722 0.867879 0.899182
0.761412 0.879130 0.905802
0.904517 0.903849 0.925242
