entry/src/main/resources/rawfile/filters/VEL_Film_Fade.cube
TITLE "Film Fade"
LUT_3D_SIZE 16
0.043030 0.054566 0.107698
0.051088 0.054922 0.108081
0.073504 0.055340 0.108979
0.125100 0.053718 0.109569
0.215325 0.040850 0.109346
0.346080 0.005346 0.107149
0.512422 0.000000 0.101665
0.663448 0.000000 0.093111
0.769190 0.000000 0.083620
0.840162 0.000000 0.077217
0.890644 0.000000 0.075725
0.931138 0.000000 0.081066
0.968325 0.000000 0.095668
0.997734 0.085072 0.121240
1.000000 0.185776 0.159642
1.000000 0.273991 0.213336
0.042613 0.061008 0.109788
0.051750 0.062314 0.108748
0.077094 0.064552 0.108304
0.128323 0.066353 0.108480
0.216692 0.063070 0.107582
0.347889 0.037102 0.104254
0.513798 0.001952 0.096870
0.658968 0.000008 0.086021
0.763553 0.000000 0.074887
0.834995 0.000000 0.067203
0.886376 0.000000 0.065517
0.927999 0.001561 0.071849
0.965637 0.038473 0.087992
0.996679 0.128677 0.114717
1.000000 0.203216 0.152871
1.000000 0.282380 0.206499
0.035176 0.081092 0.113154
0.046574 0.082206 0.112514
0.080863 0.092508 0.108778
0.149628 0.103299 0.105051
0.239878 0.105618 0.102356
0.378544 0.105615 0.095467
0.535540 0.091373 0.082931
0.669662 0.066531 0.066965
0.767242 0.053550 0.051325
0.835128 0.058086 0.041840
0.884932 0.076431 0.041667
0.925852 0.106336 0.051903
0.963610 0.145152 0.073280
0.996147 0.191816 0.105636
1.000000 0.247363 0.149188
1.000000 0.314802 0.207061
0.006564 0.130694 0.118166
0.018059 0.132865 0.117718
0.058236 0.141559 0.113713
0.153220 0.174100 0.100671
0.290198 0.203080 0.082978
0.416230 0.202273 0.073072
0.546555 0.198705 0.057641
0.667007 0.201637 0.030478
0.759359 0.205150 0.008853
0.826071 0.206163 0.003111
0.876508 0.207345 0.003671
0.918739 0.214067 0.012318
0.957136 0.229065 0.040551
0.991840 0.253978 0.084160
1.000000 0.289926 0.132693
1.000000 0.341863 0.192542
0.000000 0.244906 0.125722
0.000000 0.254318 0.124969
0.004392 0.250298 0.121531
0.105191 0.278207 0.101522
0.293982 0.328019 0.046596
0.484063 0.362245 0.003575
0.598324 0.344342 0.001047
0.687022 0.324236 0.000110
0.760632 0.311325 0.000000
0.821481 0.308167 0.000000
0.869786 0.305842 0.000000
0.911837 0.304933 0.000000
0.951085 0.309988 0.003358
0.987848 0.324243 0.050927
1.000000 0.349744 0.119039
1.000000 0.392218 0.190557
0.000000 0.368673 0.134051
0.000000 0.386081 0.134137
0.000000 0.377225 0.129836
0.019597 0.380158 0.115757
0.224504 0.421166 0.059672
0.441437 0.467853 0.000309
0.625457 0.494426 0.000000
0.708766 0.464910 0.000000
0.768093 0.433704 0.000000
0.815951 0.406245 0.000000
0.858969 0.388015 0.000000
0.901317 0.382926 0.000000
0.941059 0.382407 0.000000
0.978236 0.387282 0.006251
0.999665 0.400564 0.084351
1.000000 0.430401 0.169222
0.000000 0.499907 0.161273
0.000000 0.513662 0.165592
0.000000 0.504666 0.157957
0.000049 0.492020 0.146267
0.148804 0.508249 0.110869
0.375622 0.541057 0.027939
0.566038 0.571228 0.000000
0.717656 0.587936 0.000000
0.777305 0.552838 0.000000
0.820530 0.517913 0.000000
0.858379 0.487651 0.000000
0.894417 0.463407 0.000000
0.932161 0.451543 0.000000
0.971145 0.451698 0.000000
0.999090 0.460109 0.051189
1.000000 0.483690 0.163501
0.000000 0.584970 0.213800
0.000000 0.594972 0.222298
0.000000 0.588047 0.212853
0.000000 0.578580 0.199713
0.124068 0.574181 0.180864
0.333029 0.595503 0.141226
0.498758 0.617235 0.065906
0.646064 0.635143 0.000723
0.770548 0.646247 0.000000
0.818740 0.612444 0.000000
0.856463 0.579470 0.000000
0.892132 0.552096 0.000000
0.926771 0.529201 0.000000
0.960814 0.511709 0.000000
0.996327 0.508519 0.001512
1.000000 0.524716 0.135178
0.000000 0.644696 0.286406
0.000105 0.649426 0.293614
0.001682 0.644639 0.284326
0.043747 0.637542 0.270850
0.195085 0.628758 0.254193
0.325157 0.634517 0.233397
0.459028 0.651228 0.203147
0.584447 0.666339 0.158098
0.701491 0.679042 0.072675
0.806683 0.688349 0.005133
0.855782 0.663062 0.000025
0.891215 0.634001 0.000638
0.926000 0.609847 0.003720
0.960724 0.590786 0.018968
0.994244 0.574791 0.043166
1.000000 0.574079 0.122709
0.069645 0.685375 0.360168
0.147224 0.687279 0.364351
0.182970 0.683833 0.356074
0.234256 0.679362 0.345462
0.293207 0.673716 0.332090
0.358585 0.669052 0.315675
0.453272 0.679901 0.299608
0.551526 0.692013 0.277574
0.648627 0.703260 0.245562
0.744731 0.714002 0.195493
0.836408 0.722998 0.122601
0.888223 0.706437 0.107297
0.923715 0.682103 0.117097
0.957404 0.660565 0.123644
0.989341 0.640811 0.118683
1.000000 0.630097 0.131261
0.317947 0.718099 0.433041
0.334831 0.718924 0.435097
0.343337 0.716272 0.428127
0.361101 0.712844 0.419145
0.388021 0.708663 0.407987
0.422756 0.703719 0.394786
0.475922 0.705653 0.382791
0.549357 0.716751 0.372865
0.626139 0.727993 0.358237
0.704988 0.738834 0.335220
0.786613 0.749598 0.299401
0.869175 0.760447 0.252357
0.922808 0.751167 0.233018
0.958243 0.731135 0.229486
0.990978 0.712047 0.221150
1.000000 0.701702 0.229252
0.434350 0.746273 0.493150
0.443589 0.746817 0.494495
0.445407 0.744258 0.488226
0.453861 0.741504 0.481221
0.469667 0.738581 0.473637
0.489935 0.734846 0.463673
0.515507 0.730908 0.451629
0.562618 0.737760 0.443782
0.619604 0.747840 0.435011
0.681751 0.758386 0.421785
0.749120 0.769571 0.402527
0.821954 0.781791 0.373943
0.899383 0.795352 0.334407
0.952183 0.789654 0.307862
0.985372 0.770305 0.290466
1.000000 0.757612 0.289008
0.523232 0.777450 0.548104
0.528400 0.777859 0.548759
0.527779 0.774917 0.543106
0.532319 0.772207 0.537582
0.542647 0.769897 0.532408
0.557756 0.767649 0.526903
0.576108 0.765002 0.520103
0.601460 0.765176 0.513698
0.643911 0.775960 0.511188
0.691021 0.787275 0.505486
0.743550 0.799245 0.495680
0.802025 0.812010 0.480674
0.866584 0.825398 0.457629
0.935223 0.838592 0.422880
0.986232 0.836020 0.393244
1.000000 0.825071 0.391663
0.576471 0.809082 0.587346
0.578291 0.808269 0.586301
0.575939 0.804050 0.580211
0.579146 0.801006 0.575541
0.589441 0.800047 0.573334
0.602452 0.798875 0.570391
0.617508 0.797031 0.566024
0.633536 0.794269 0.559733
0.659604 0.798816 0.555208
0.696996 0.810288 0.552018
0.740470 0.822999 0.547351
0.789939 0.836721 0.540260
0.844516 0.850522 0.528361
0.902289 0.862748 0.506907
0.962754 0.873004 0.471835
1.000000 0.876921 0.450875
0.636882 0.860115 0.638819
0.642422 0.862632 0.641557
0.643415 0.860114 0.638575
0.646498 0.857330 0.634980
0.652716 0.854873 0.631517
0.662134 0.852912 0.628166
0.674313 0.851099 0.624648
0.688696 0.849407 0.620857
0.705775 0.848563 0.616998
0.733602 0.857749 0.614848
0.767627 0.869257 0.612050
0.806469 0.881052 0.607539
0.850201 0.892980 0.600669
0.897570 0.904178 0.589526
0.946982 0.913168 0.570343
0.998451 0.922928 0.546867
0.682841 0.908110 0.683879
0.687142 0.909868 0.686041
0.687830 0.907836 0.683327
0.691548 0.906462 0.681175
0.698726 0.906045 0.679914
0.708201 0.905664 0.678395
0.720064 0.905495 0.676738
0.733493 0.905172 0.674521
0.748891 0.905064 0.672214
0.768600 0.908003 0.670652
0.796348 0.917693 0.669489
0.828224 0.927763 0.667627
0.863646 0.937572 0.663871
0.901747 0.946240 0.656597
0.942418 0.953850 0.644917
0.985611 0.960967 0.629526
0.041882 0.055134 0.113349
0.049989 0.055286 0.112692
0.070995 0.055371 0.113789
0.124849 0.051755 0.113820
0.212646 0.042089 0.113449
0.340532 0.010511 0.110650
0.506390 0.000000 0.103264
0.652262 0.000000 0.091421
0.757699 0.000000 0.080118
0.830499 0.000000 0.071633
0.882983 0.000000 0.068960
0.925351 0.000000 0.074209
0.964118 0.008870 0.089723
0.996796 0.105422 0.116429
1.000000 0.192122 0.155751
1.000000 0.274649 0.209392
0.041371 0.061428 0.114835
0.050544 0.062779 0.115532
0.076137 0.063894 0.115488
0.128654 0.064718 0.115266
0.216287 0.061589 0.113911
0.347989 0.040015 0.110137
0.508250 0.003868 0.101637
0.650112 0.000140 0.088644
0.754329 0.000004 0.073521
0.826722 0.000247 0.062650
0.879972 0.001970 0.059134
0.923112 0.011538 0.064933
0.961907 0.071261 0.082088
0.995204 0.141525 0.109714
1.000000 0.206702 0.148305
1.000000 0.281960 0.202081
0.036837 0.083770 0.123345
0.047129 0.086703 0.122142
0.080894 0.092689 0.118541
0.147920 0.098459 0.115802
0.243512 0.100924 0.113468
0.383016 0.099722 0.107005
0.535149 0.086856 0.095414
0.664620 0.072350 0.079441
0.760429 0.075548 0.060921
0.828443 0.092735 0.043208
0.879160 0.108579 0.036740
0.921430 0.129121 0.044715
0.960413 0.159333 0.067340
0.994711 0.199778 0.100998
1.000000 0.251301 0.145939
1.000000 0.315802 0.204140
0.010150 0.138012 0.135994
0.016780 0.142593 0.131585
0.059865 0.145935 0.128092
0.153635 0.173876 0.115633
0.286950 0.195019 0.101918
0.412460 0.191919 0.094989
0.545275 0.189297 0.082547
0.665001 0.192190 0.062821
0.755912 0.197929 0.039777
0.821966 0.204738 0.020107
0.872526 0.212881 0.008965
0.915217 0.222077 0.010437
0.954230 0.235657 0.034193
0.989753 0.257804 0.078922
1.000000 0.289605 0.127548
1.000000 0.339678 0.187666
0.000000 0.258336 0.153047
0.000000 0.267495 0.146927
0.005533 0.260290 0.142182
0.108923 0.278510 0.125897
0.292873 0.324528 0.083162
0.476676 0.351409 0.028367
0.591082 0.332671 0.022957
0.681378 0.313778 0.017864
0.757387 0.304542 0.007223
0.819041 0.303516 0.002771
0.867358 0.302937 0.001731
0.909355 0.305844 0.001368
0.948849 0.312940 0.003084
0.986019 0.326282 0.045970
1.000000 0.350804 0.116029
1.000000 0.392315 0.188567
0.000000 0.380903 0.162874
0.000000 0.396863 0.161195
0.000000 0.387815 0.155588
0.024200 0.383135 0.143918
0.226334 0.419443 0.102906
0.439704 0.464247 0.016557
0.619267 0.486173 0.000018
0.702381 0.456013 0.000061
0.762589 0.425654 0.000113
0.811719 0.400130 0.000191
0.856568 0.385632 0.000295
0.899471 0.382236 0.000520
0.939120 0.382890 0.000800
0.976052 0.387300 0.005406
0.999404 0.397677 0.076813
1.000000 0.427645 0.163995
0.000000 0.507882 0.193091
0.000000 0.520412 0.197406
0.000000 0.511150 0.188791
0.000592 0.497881 0.176280
0.165248 0.507527 0.148790
0.377155 0.539768 0.085763
0.566129 0.569923 0.005501
0.714850 0.584028 0.000000
0.773715 0.548307 0.000000
0.817068 0.513898 0.000000
0.855097 0.484078 0.000016
0.891732 0.461457 0.000501
0.930397 0.452148 0.001474
0.969492 0.452762 0.003613
0.998950 0.459719 0.048772
1.000000 0.483710 0.163112
0.000000 0.589825 0.243884
0.000000 0.599366 0.252781
0.000000 0.592957 0.243276
0.001985 0.583240 0.229348
0.157482 0.575406 0.210834
0.338636 0.594105 0.178218
0.498934 0.615235 0.122473
0.644549 0.632945 0.023648
0.768048 0.643603 0.000000
0.815389 0.609226 0.000000
0.853496 0.577135 0.000350
0.889359 0.550458 0.002073
0.924052 0.527998 0.005685
0.958048 0.511405 0.010778
0.993400 0.506910 0.019493
1.000000 0.523072 0.131486
0.000186 0.647421 0.312199
0.002679 0.652414 0.320247
0.011902 0.647779 0.311053
0.106804 0.640924 0.297566
0.228006 0.632375 0.281154
0.337943 0.634780 0.261331
0.465106 0.651357 0.235502
0.586719 0.666101 0.198208
0.701306 0.678300 0.136879
0.805052 0.687155 0.032322
0.853009 0.661260 0.024552
0.888556 0.632900 0.049441
0.923540 0.609620 0.077502
0.958338 0.590826 0.094950
0.992369 0.575575 0.103390
1.000000 0.575650 0.133121
0.153954 0.687088 0.381561
0.205832 0.689197 0.386050
0.231136 0.686070 0.378587
0.269256 0.681601 0.367756
0.317310 0.675716 0.353809
0.373451 0.669822 0.336916
0.459932 0.679178 0.321171
0.554349 0.691132 0.301176
0.649501 0.702395 0.272518
0.744099 0.713079 0.230053
0.834830 0.722077 0.176098
0.885688 0.705502 0.163372
0.921062 0.681505 0.166102
0.954482 0.659930 0.165658
0.986804 0.640517 0.157660
1.000000 0.631825 0.169274
0.343498 0.718987 0.448391
0.360663 0.720196 0.451260
0.368129 0.717701 0.444864
0.383787 0.714471 0.436398
0.407725 0.710434 0.425746
0.438512 0.705427 0.412491
0.485592 0.705901 0.400152
0.555046 0.716688 0.390658
0.628675 0.727560 0.376464
0.705737 0.738330 0.355489
0.785954 0.749025 0.323029
0.867564 0.759889 0.282906
0.920681 0.750792 0.266167
0.956164 0.731309 0.260758
0.989653 0.713424 0.253089
1.000000 0.704739 0.261757
0.451901 0.747795 0.505538
0.460410 0.748320 0.506723
0.463519 0.746209 0.501657
0.471634 0.743591 0.495246
0.485079 0.740472 0.487310
0.503168 0.736582 0.477265
0.525044 0.731913 0.464115
0.568137 0.737589 0.455658
0.623074 0.747607 0.447178
0.683597 0.758102 0.435067
0.750004 0.769503 0.417802
0.821854 0.781811 0.392095
0.898494 0.795402 0.356049
0.950421 0.789473 0.331367
0.983597 0.770420 0.313505
1.000000 0.758879 0.312676
0.532556 0.778809 0.555985
0.538886 0.779817 0.557540
0.540491 0.777676 0.553546
0.545991 0.775435 0.549059
0.556086 0.773288 0.544317
0.569261 0.770549 0.538141
0.585481 0.767329 0.530445
0.607113 0.765883 0.522455
0.647334 0.776095 0.519218
0.693271 0.787335 0.513654
0.744615 0.799099 0.504167
0.802454 0.811938 0.490271
0.866608 0.825615 0.469391
0.934950 0.839074 0.437944
0.985632 0.837100 0.412305
1.000000 0.827177 0.411870
0.583170 0.811250 0.593720
0.587241 0.811748 0.594418
0.587500 0.808783 0.590310
0.591476 0.806159 0.586411
0.600260 0.804598 0.583411
0.611619 0.802638 0.579468
0.624696 0.799892 0.573906
0.639100 0.796445 0.566713
0.663213 0.799783 0.561422
0.699703 0.811113 0.558217
0.742596 0.823841 0.553846
0.791471 0.837542 0.547135
0.845196 0.851009 0.535418
0.902422 0.863049 0.514579
0.962436 0.873261 0.481442
1.000000 0.877405 0.462807
0.640413 0.862079 0.643216
0.645780 0.864544 0.645835
0.647435 0.862594 0.643443
0.651158 0.860324 0.640427
0.657723 0.858240 0.637315
0.666807 0.856064 0.633747
0.678471 0.853960 0.629914
0.692104 0.851738 0.625521
0.707954 0.849871 0.620754
0.734716 0.858171 0.618094
0.768094 0.869297 0.615022
0.806756 0.881086 0.610671
0.850553 0.893233 0.604305
0.897758 0.904408 0.593488
0.947300 0.913725 0.575452
0.998803 0.923837 0.553761
0.685428 0.909823 0.687579
0.690683 0.912226 0.690573
0.692078 0.910770 0.688502
0.695627 0.909373 0.686280
0.701922 0.908336 0.684217
0.710831 0.907624 0.682221
0.721921 0.906901 0.679891
0.734864 0.906187 0.677200
0.750107 0.906061 0.674795
0.769269 0.908426 0.673012
0.796961 0.918127 0.672065
0.828753 0.928253 0.670325
0.863817 0.937755 0.666261
0.901835 0.946416 0.659020
0.942341 0.953829 0.647319
0.985542 0.961002 0.632269
0.037986 0.055905 0.128508
0.050768 0.055953 0.127885
0.070372 0.055773 0.127322
0.118888 0.052407 0.131603
0.215618 0.029355 0.133811
0.353141 0.000346 0.132016
0.517666 0.000000 0.130329
0.657434 0.000000 0.124556
0.759254 0.000000 0.115884
0.829946 0.000000 0.106553
0.881380 0.000000 0.098187
0.923186 0.000066 0.090965
0.962025 0.052467 0.092528
0.995987 0.133818 0.113265
1.000000 0.204601 0.153335
1.000000 0.281024 0.208186
0.032664 0.064975 0.131962
0.046560 0.064387 0.133946
0.074892 0.065156 0.132937
0.127602 0.064130 0.135190
0.222937 0.051385 0.136082
0.360782 0.015332 0.135409
0.518744 0.000257 0.131548
0.656276 0.000000 0.124061
0.756561 0.000000 0.114177
0.827063 0.000000 0.104628
0.878969 0.002327 0.096181
0.921377 0.038087 0.089275
0.959903 0.109145 0.088132
0.994072 0.161697 0.107298
1.000000 0.216909 0.145481
1.000000 0.287530 0.200745
0.025007 0.087906 0.141101
0.041769 0.090756 0.142938
0.079433 0.093579 0.143275
0.146571 0.097058 0.142419
0.251179 0.097269 0.142175
0.392326 0.087284 0.138840
0.541136 0.058663 0.131462
0.668312 0.036177 0.121445
0.762456 0.040794 0.110525
0.829047 0.068422 0.100564
0.878672 0.106517 0.092611
0.920079 0.141856 0.086315
0.958653 0.177206 0.083005
0.993751 0.213551 0.101007
1.000000 0.259246 0.143630
1.000000 0.320266 0.203158
0.006406 0.141990 0.159068
0.022615 0.151225 0.162341
0.067986 0.156092 0.158522
0.154727 0.172412 0.148663
0.281337 0.183226 0.140494
0.411572 0.180977 0.135527
0.549252 0.179998 0.125958
0.667997 0.181674 0.113619
0.757363 0.187660 0.101473
0.822672 0.197612 0.091747
0.872475 0.210161 0.084824
0.914433 0.226007 0.080050
0.952758 0.245141 0.076343
0.988374 0.266559 0.085280
0.999997 0.294893 0.125239
1.000000 0.343118 0.186946
0.000000 0.266375 0.196056
0.000008 0.280342 0.197748
0.010956 0.276959 0.183003
0.118986 0.278862 0.169018
0.292977 0.319657 0.137888
0.468603 0.336124 0.107827
0.582385 0.316253 0.103420
0.677809 0.302872 0.097011
0.757518 0.300412 0.087313
0.818756 0.301507 0.079352
0.866673 0.303473 0.075465
0.908416 0.308983 0.074105
0.947509 0.319002 0.074613
0.984738 0.333033 0.078276
1.000000 0.354474 0.116352
1.000000 0.394564 0.188306
0.000000 0.391392 0.224485
0.000000 0.410092 0.223372
0.000000 0.403127 0.203199
0.038477 0.391804 0.190301
0.231985 0.417221 0.162389
0.439949 0.460361 0.102315
0.613765 0.475911 0.036667
0.696325 0.445200 0.041142
0.757420 0.416399 0.050926
0.808736 0.395818 0.059703
0.855419 0.387165 0.064558
0.898136 0.385838 0.068969
0.937494 0.388025 0.074104
0.974265 0.392822 0.077434
0.999245 0.400456 0.089286
1.000000 0.429242 0.164593
0.000000 0.515339 0.264927
0.000000 0.527830 0.261029
0.000000 0.520177 0.240757
0.011205 0.507324 0.225982
0.190667 0.505809 0.205256
0.380544 0.537133 0.165372
0.566459 0.567534 0.090012
0.710609 0.578087 0.021884
0.768914 0.542409 0.027618
0.812445 0.509289 0.041554
0.851007 0.481410 0.061794
0.888716 0.462218 0.076139
0.928327 0.457034 0.088023
0.967351 0.458803 0.098917
0.998662 0.464240 0.107060
1.000000 0.484198 0.163777
0.000000 0.593837 0.306368
0.000000 0.603806 0.306785
0.000101 0.598219 0.291922
0.040197 0.588956 0.277414
0.203651 0.578196 0.259622
0.349430 0.591283 0.234418
0.501222 0.612946 0.196530
0.644300 0.631024 0.136118
0.765288 0.640533 0.051601
0.810972 0.606060 0.062999
0.849231 0.575358 0.087364
0.885238 0.549960 0.103788
0.920178 0.528869 0.113432
0.955057 0.514872 0.118457
0.991160 0.511987 0.120123
1.000000 0.524642 0.145223
0.035539 0.649208 0.360813
0.060142 0.654282 0.362523
0.103681 0.649987 0.351271
0.192202 0.643587 0.338473
0.270408 0.635423 0.322341
0.356637 0.633148 0.304084
0.472340 0.649195 0.284082
0.588615 0.664298 0.255855
0.700774 0.676899 0.214932
0.802277 0.685415 0.165396
0.848432 0.659508 0.158667
0.884164 0.632543 0.164008
0.919224 0.610302 0.171046
0.954252 0.592484 0.174988
0.988550 0.577570 0.174118
1.000000 0.579429 0.188006
0.246273 0.687856 0.416801
0.271957 0.690221 0.419064
0.285867 0.687263 0.410946
0.313146 0.682906 0.400422
0.351162 0.677259 0.387080
0.395819 0.670147 0.369918
0.470141 0.676939 0.355441
0.559335 0.689268 0.339420
0.650670 0.700815 0.316956
0.743272 0.711992 0.285072
0.832049 0.721118 0.248822
0.881269 0.704469 0.238100
0.916691 0.681569 0.235157
0.950220 0.660700 0.229113
0.982986 0.641835 0.217527
1.000000 0.633829 0.223076
0.381431 0.719368 0.472762
0.394248 0.720588 0.474551
0.399562 0.718171 0.468293
0.412353 0.715047 0.460276
0.432491 0.711127 0.450155
0.459323 0.706350 0.437727
0.497634 0.704431 0.424635
0.561841 0.714886 0.416680
0.632313 0.726061 0.405500
0.706631 0.737035 0.388329
0.785010 0.748162 0.362528
0.864854 0.759226 0.332079
0.916648 0.750321 0.318081
0.952269 0.731810 0.310043
0.985915 0.714432 0.299377
1.000000 0.705839 0.303129
0.472546 0.748129 0.521669
0.480482 0.748853 0.522918
0.483104 0.746752 0.518104
0.490125 0.744145 0.511948
0.502032 0.741016 0.504298
0.517801 0.737034 0.494375
0.536960 0.732022 0.481441
0.574396 0.735774 0.472523
0.626843 0.745876 0.465385
0.685725 0.756802 0.455659
0.750551 0.768538 0.441743
0.820977 0.781189 0.420595
0.896611 0.795296 0.391346
0.947053 0.789107 0.369630
0.980356 0.770643 0.350834
1.000000 0.759615 0.347674
0.542987 0.779110 0.566092
0.549158 0.780220 0.567678
0.551042 0.778244 0.564065
0.556660 0.776202 0.560035
0.566073 0.774006 0.555353
0.578627 0.771332 0.549449
0.593880 0.768053 0.541960
0.612831 0.765368 0.533466
0.650672 0.774849 0.530384
0.695295 0.786182 0.525664
0.745686 0.798228 0.517609
0.802829 0.811480 0.506049
0.866143 0.825399 0.488165
0.933798 0.839331 0.461509
0.983228 0.836993 0.438747
1.000000 0.827208 0.435767
0.588460 0.811621 0.600353
0.593404 0.812774 0.601791
0.593700 0.809735 0.597746
0.597988 0.807439 0.594258
0.606398 0.805779 0.591173
0.617146 0.803609 0.587061
0.629689 0.800711 0.581442
0.643655 0.797171 0.574354
0.665227 0.798664 0.568432
0.701250 0.810295 0.565923
0.743771 0.823376 0.562418
0.792071 0.837217 0.556526
0.845402 0.850892 0.546076
0.902090 0.862945 0.527117
0.961722 0.873415 0.497464
1.000000 0.877465 0.481540
0.642306 0.862282 0.647435
0.647565 0.864714 0.649963
0.649247 0.862787 0.647575
0.653138 0.860709 0.644772
0.659708 0.858682 0.641717
0.668880 0.856696 0.638349
0.680465 0.854595 0.634496
0.693883 0.852295 0.630053
0.709420 0.850227 0.625224
0.734988 0.857424 0.622537
0.768271 0.868770 0.619822
0.806958 0.880909 0.616119
0.850586 0.893138 0.610225
0.897698 0.904389 0.600113
0.947053 0.913687 0.582985
0.998413 0.923755 0.562490
0.686380 0.910149 0.690886
0.691676 0.912633 0.694000
0.693148 0.911247 0.691965
0.696572 0.909763 0.689627
0.702911 0.908856 0.687673
0.711538 0.907934 0.685425
0.722527 0.907212 0.683043
0.735429 0.906577 0.680355
0.750592 0.906401 0.677902
0.769310 0.908278 0.676107
0.796873 0.917882 0.675456
0.828522 0.928021 0.673866
0.863714 0.937725 0.670192
0.901668 0.946360 0.663105
0.942145 0.953776 0.651700
0.985485 0.961140 0.637372
0.020990 0.056571 0.166787
0.042978 0.055739 0.167250
0.080546 0.053971 0.166869
0.123985 0.051195 0.165193
0.207412 0.037246 0.173597
0.354553 0.002141 0.185055
0.526354 0.000000 0.184367
0.665282 0.000000 0.178800
0.763235 0.000000 0.175988
0.830963 0.000000 0.173717
0.880511 0.000000 0.171262
0.921475 0.016276 0.169177
0.959580 0.105001 0.167524
0.994084 0.170588 0.166273
1.000000 0.223683 0.170453
1.000000 0.286915 0.207489
0.009980 0.067556 0.172487
0.030320 0.065913 0.175852
0.080168 0.065579 0.174915
0.132334 0.065078 0.172766
0.218045 0.058214 0.179271
0.366705 0.011565 0.188448
0.529059 0.000003 0.186408
0.663467 0.000000 0.182066
0.759622 0.000000 0.178818
0.827467 0.000059 0.175070
0.878006 0.007943 0.172117
0.919539 0.075530 0.169655
0.957198 0.143805 0.167597
0.991955 0.192441 0.165390
1.000000 0.233600 0.165081
1.000000 0.293457 0.201248
0.000000 0.099898 0.186799
0.009639 0.100142 0.189929
0.069782 0.098216 0.191365
0.149836 0.101970 0.190249
0.252861 0.103481 0.195529
0.399837 0.078638 0.198000
0.548772 0.033688 0.193971
0.672581 0.024213 0.189070
0.763557 0.033037 0.183051
0.828422 0.070787 0.177948
0.876939 0.121654 0.173738
0.917759 0.164257 0.171310
0.955748 0.203541 0.170468
0.991359 0.239786 0.170004
1.000000 0.275848 0.171812
1.000000 0.325800 0.205922
0.000000 0.151560 0.198417
0.002257 0.160065 0.204534
0.055430 0.165931 0.207069
0.155315 0.173251 0.207067
0.276292 0.180014 0.204911
0.415812 0.179474 0.201955
0.554330 0.176710 0.195752
0.670474 0.177217 0.188220
0.757944 0.186256 0.181024
0.821625 0.202052 0.175659
0.870469 0.221294 0.172771
0.911682 0.242698 0.171439
0.949344 0.265040 0.170446
0.984706 0.287423 0.168954
0.999919 0.309310 0.166192
1.000000 0.348540 0.193437
0.000000 0.271509 0.243466
0.000000 0.286327 0.250521
0.028962 0.289209 0.248055
0.148980 0.289774 0.236008
0.292108 0.310772 0.214693
0.453403 0.315321 0.199739
0.572310 0.302403 0.194269
0.675634 0.299963 0.187163
0.756500 0.303183 0.180526
0.816507 0.307715 0.176572
0.863655 0.313836 0.174851
0.904957 0.323337 0.175049
0.943630 0.336555 0.176810
0.980501 0.351918 0.178497
0.999871 0.370056 0.180527
1.000000 0.400044 0.201249
0.000000 0.399149 0.281608
0.000000 0.418536 0.291779
0.005865 0.417709 0.285701
0.103332 0.411351 0.263803
0.247368 0.413855 0.240885
0.440039 0.453674 0.206090
0.602092 0.459270 0.178894
0.684500 0.430446 0.177776
0.748919 0.408489 0.176511
0.804010 0.398176 0.175818
0.851943 0.396405 0.177187
0.894146 0.397963 0.179541
0.933058 0.401963 0.181597
0.969641 0.407737 0.182146
0.998543 0.414185 0.179118
1.000000 0.435889 0.191675
0.000000 0.521166 0.331893
0.000053 0.534137 0.342116
0.027599 0.529918 0.330098
0.093202 0.521078 0.301516
0.235554 0.509678 0.280539
0.387988 0.532374 0.254563
0.566123 0.563143 0.215623
0.702472 0.568762 0.184023
0.759382 0.534141 0.183898
0.803483 0.504623 0.187966
0.843252 0.481228 0.189103
0.883241 0.469828 0.191804
0.923571 0.469108 0.197382
0.962372 0.471941 0.202330
0.997734 0.477463 0.205224
1.000000 0.493446 0.217999
0.024111 0.598122 0.380478
0.123706 0.607509 0.390023
0.131943 0.603877 0.372931
0.174458 0.597075 0.346611
0.266579 0.585877 0.327344
0.368956 0.587024 0.306583
0.505604 0.609122 0.281686
