entry/src/main/resources/rawfile/filters/VEL_Golden_Cinematic.cube
TITLE "Golden Cinematic"
LUT_3D_SIZE 6
-0.000204 -0.000105 -0.000019
0.128604 0.007499 0.017376
0.367215 -0.000941 0.054171
0.686321 0.002157 0.112080
0.924430 0.017235 0.166384
1.000034 0.298956 0.246520
0.032063 0.087925 0.005171
0.139459 0.094759 0.010547
0.407233 0.108251 0.029381
0.722028 0.045938 0.081182
0.944880 0.079140 0.123850
1.000033 0.334490 0.252987
0.139895 0.192080 0.008939
0.195378 0.203100 0.008032
0.407204 0.225677 0.037194
0.817088 0.375741 0.059489
0.970669 0.349200 0.110942
1.000030 0.453053 0.285533
0.245247 0.303930 0.009068
0.280417 0.310904 0.006083
0.445533 0.366776 0.013467
0.743356 0.428766 0.066337
0.996215 0.570241 0.176475
1.000029 0.627767 0.379293
0.383349 0.470436 0.005970
0.412291 0.478811 0.008626
0.543366 0.528512 0.014405
0.760368 0.597723 0.039942
0.960471 0.590015 0.148719
1.000028 0.774292 0.510855
0.635235 0.830822 0.003817
0.659935 0.834588 0.010789
0.755155 0.845528 0.021685
0.926815 0.868952 0.056880
1.000832 0.805051 0.332873
1.000028 0.829180 0.587078
-0.030295 0.045757 0.086509
0.105996 0.058156 0.085878
0.390185 0.019965 0.040432
0.736225 0.130655 0.060625
0.951973 0.154285 0.099800
1.000032 0.330487 0.249871
0.068548 0.114994 0.080286
0.142659 0.135903 0.083858
0.431486 0.186918 0.046179
0.761697 0.239196 0.059380
0.957696 0.238415 0.104817
1.000033 0.368980 0.260700
0.135518 0.204715 0.039631
0.210508 0.220559 0.037802
0.394822 0.225313 0.041820
0.833243 0.425428 0.059983
0.976540 0.398109 0.115150
1.000029 0.475592 0.294291
0.258616 0.312024 0.008818
0.304774 0.323341 0.008570
0.462667 0.379454 0.014077
0.731359 0.424550 0.066864
0.995824 0.576903 0.174875
1.000028 0.638025 0.387504
0.392686 0.477353 0.006542
0.424633 0.487198 0.009283
0.553940 0.537397 0.014670
0.765913 0.604921 0.039380
0.958305 0.589709 0.147984
1.000028 0.774867 0.511339
0.631826 0.832762 -0.010098
0.654238 0.835805 -0.010383
0.750137 0.847124 0.019072
0.922794 0.869800 0.053542
1.000579 0.807933 0.330946
1.000028 0.829226 0.587193
0.114461 0.148287 0.169566
0.155900 0.161111 0.175495
0.296392 0.192569 0.186045
0.636205 0.234634 0.181977
0.961217 0.281087 0.121798
1.000030 0.385065 0.264350
0.151454 0.186946 0.169008
0.191808 0.200758 0.173855
0.322858 0.237240 0.188350
0.666608 0.277271 0.174415
0.966972 0.338098 0.127947
1.000029 0.408140 0.273073
0.170707 0.231492 0.164255
0.213855 0.245775 0.169595
0.386377 0.321322 0.190247
0.787192 0.450578 0.178103
0.985331 0.464503 0.135604
1.000029 0.492047 0.303749
0.210681 0.314232 0.134563
0.249672 0.335407 0.132840
0.430625 0.403447 0.124725
0.713607 0.453061 0.126726
0.993513 0.582297 0.162775
1.000028 0.652273 0.401482
0.352108 0.497480 0.067887
0.396539 0.509562 0.069123
0.536104 0.547604 0.033719
0.778975 0.630953 0.035903
0.949925 0.588072 0.145281
1.000028 0.779605 0.518890
0.638814 0.844602 0.017712
0.654121 0.846374 0.015915
0.717609 0.852022 -0.018141
0.899330 0.872447 0.030798
1.000792 0.823618 0.322546
1.000028 0.830183 0.588419
0.202722 0.238777 0.260759
0.225377 0.245685 0.265287
0.319483 0.276205 0.287970
0.505693 0.329026 0.318441
0.873812 0.459441 0.402166
1.000138 0.659068 0.517170
0.227197 0.265039 0.259785
0.248577 0.271806 0.263911
0.342435 0.305920 0.289001
0.524163 0.361610 0.321881
0.876938 0.486287 0.402876
1.000052 0.663260 0.514039
0.241062 0.295889 0.257128
0.268049 0.306017 0.260898
0.374381 0.350042 0.285651
0.576449 0.442134 0.342038
0.891443 0.557337 0.405088
1.000001 0.654323 0.476063
0.262258 0.350396 0.249629
0.290310 0.361162 0.254449
0.397349 0.410028 0.281616
0.668803 0.579340 0.375692
0.967510 0.720644 0.478316
1.000029 0.637031 0.397027
0.303747 0.452356 0.242162
0.327918 0.466086 0.244681
0.422332 0.534227 0.250068
0.682312 0.658197 0.207207
0.938780 0.659014 0.302340
1.000027 0.790891 0.539190
0.480304 0.844467 0.216473
0.499263 0.849448 0.200951
0.626196 0.868794 0.175247
0.809602 0.872689 -0.026477
1.001541 0.861169 0.287494
1.000035 0.831045 0.589384
0.343364 0.416270 0.497603
0.358069 0.417958 0.498694
0.423254 0.429880 0.507588
0.545348 0.463806 0.527289
0.745444 0.546860 0.571866
1.000135 0.827440 0.762372
0.353688 0.429684 0.494440
0.367553 0.431324 0.495612
0.430324 0.444031 0.504171
0.552513 0.480288 0.525137
0.755748 0.569063 0.575255
1.000215 0.831202 0.761993
0.360021 0.454005 0.486704
0.372730 0.453739 0.484512
0.438002 0.469287 0.493699
0.579572 0.527828 0.530670
0.781832 0.627261 0.590714
1.000170 0.840111 0.759183
0.365146 0.497491 0.473680
0.380294 0.500911 0.475375
0.439848 0.514803 0.481582
0.579768 0.567697 0.512896
0.822407 0.710104 0.612828
1.000115 0.851090 0.745845
0.374990 0.563897 0.455635
0.389035 0.567748 0.456160
0.448987 0.587685 0.461770
0.591273 0.645371 0.491229
0.894888 0.824053 0.665310
1.000007 0.880653 0.732211
0.543757 0.840943 0.626615
0.558165 0.843827 0.624693
0.616450 0.854424 0.615267
0.715113 0.876443 0.564139
0.917813 0.901173 0.372526
1.000167 0.832783 0.588568
0.729749 0.767521 0.806827
0.744357 0.774939 0.809623
0.798114 0.803612 0.822532
0.877984 0.849649 0.848895
0.927901 0.868273 0.863154
0.984481 0.887759 0.875847
0.726986 0.769182 0.806153
0.743106 0.777657 0.809901
0.792109 0.801678 0.819161
0.874276 0.848636 0.845981
0.926628 0.868551 0.861319
0.984422 0.888497 0.874343
0.706429 0.768889 0.804166
0.716601 0.772359 0.804772
0.776240 0.800185 0.815887
0.867518 0.849430 0.843626
0.929078 0.875067 0.861848
0.987393 0.894622 0.874882
0.741693 0.815332 0.818963
0.747279 0.816332 0.819634
0.766130 0.817914 0.821355
0.839477 0.844765 0.837068
0.928960 0.884048 0.861054
0.992723 0.905442 0.875578
0.777635 0.867926 0.831724
0.783329 0.869148 0.833217
0.796911 0.869429 0.833665
0.829217 0.871997 0.838058
0.904933 0.888200 0.853220
1.000026 0.927836 0.883720
0.820483 0.929291 0.848292
0.821086 0.928835 0.847194
0.835036 0.930893 0.849026
0.864620 0.936540 0.853035
0.926110 0.947560 0.865548
1.000244 0.967668 0.895127
