entry/src/main/resources/rawfile/filters/VEL_Vintage_Chrome.cube
TITLE "Vintage Film"
LUT_3D_SIZE 16
0.023438 0.181949 0.207340
0.023332 0.181949 0.207340
0.022566 0.181949 0.207340
0.027945 0.181927 0.207218
0.061145 0.182545 0.206966
0.130398 0.184878 0.206048
0.234318 0.189050 0.203720
0.367015 0.193911 0.199335
0.504994 0.199603 0.192577
0.630402 0.213687 0.183334
0.732311 0.245376 0.172366
0.812347 0.297911 0.159494
0.873069 0.367400 0.146310
0.915166 0.440033 0.139901
0.947557 0.507522 0.149637
0.977386 0.564233 0.179919
0.023484 0.181927 0.207342
0.022941 0.181811 0.207367
0.022824 0.181881 0.207341
0.032330 0.182341 0.207155
0.069636 0.183890 0.206756
0.140265 0.187635 0.205587
0.246352 0.194006 0.202806
0.375300 0.200947 0.198080
0.509832 0.208823 0.191055
0.633343 0.224150 0.181936
0.733178 0.256598 0.170950
0.812605 0.309243 0.157965
0.872360 0.377172 0.144953
0.913765 0.446901 0.139054
0.945914 0.512060 0.149132
0.975658 0.567153 0.179141
0.022758 0.181976 0.207236
0.022904 0.182097 0.207226
0.025011 0.182635 0.207144
0.042734 0.184697 0.206818
0.089319 0.188522 0.206033
0.167634 0.195411 0.204193
0.274856 0.204931 0.200649
0.401052 0.214667 0.195309
0.530310 0.225661 0.187914
0.646583 0.245083 0.178474
0.740605 0.280048 0.167193
0.815581 0.332066 0.154156
0.872789 0.397191 0.141773
0.913297 0.463536 0.137603
0.945404 0.525442 0.150230
0.975621 0.578284 0.183156
0.016635 0.186096 0.206793
0.018961 0.187033 0.206683
0.027113 0.188782 0.206434
0.054982 0.193042 0.205791
0.116539 0.203530 0.203947
0.201509 0.215369 0.201108
0.308418 0.226069 0.197092
0.427688 0.236990 0.191309
0.548159 0.252098 0.183351
0.656065 0.275506 0.173473
0.744353 0.311638 0.161809
0.816121 0.362412 0.148599
0.870767 0.422568 0.137087
0.909990 0.482693 0.134772
0.941885 0.539468 0.149095
0.972497 0.588840 0.182898
0.000570 0.207692 0.205179
0.002422 0.211309 0.204940
0.018063 0.215635 0.204313
0.069258 0.223182 0.203117
0.142377 0.236307 0.200660
0.247543 0.259595 0.195281
0.355666 0.275770 0.189421
0.468771 0.287920 0.182563
0.577408 0.298846 0.174571
0.672765 0.319406 0.164635
0.752639 0.355222 0.152764
0.818655 0.402799 0.139740
0.869898 0.456995 0.130176
0.907982 0.511373 0.131832
0.939998 0.562438 0.150683
0.971708 0.608067 0.188958
0.000000 0.254139 0.202507
0.000000 0.261460 0.202217
0.001391 0.266911 0.201239
0.059584 0.276824 0.199446
0.154677 0.291534 0.196352
0.261301 0.312344 0.190856
0.398632 0.346253 0.179342
0.507329 0.362834 0.170291
0.604286 0.376511 0.161062
0.687144 0.391542 0.151265
0.757694 0.411207 0.140715
0.818667 0.445575 0.128753
0.866794 0.492084 0.121633
0.903399 0.539000 0.127023
0.935455 0.583905 0.149069
0.968073 0.625009 0.190051
0.000000 0.327745 0.199012
0.000000 0.337006 0.198890
0.000000 0.342078 0.198030
0.033224 0.351522 0.195706
0.161976 0.365927 0.191942
0.276415 0.385148 0.186164
0.400995 0.408732 0.177193
0.543719 0.448200 0.159343
0.632828 0.464824 0.148422
0.704808 0.478337 0.138980
0.766913 0.494188 0.129645
0.820242 0.513901 0.120682
0.864311 0.537936 0.115424
0.900357 0.571762 0.123006
0.932971 0.610555 0.150605
0.966860 0.647309 0.196872
0.000000 0.407115 0.196930
0.000000 0.417019 0.197299
0.000000 0.420401 0.196904
0.026803 0.429552 0.194378
0.174003 0.443219 0.190512
0.294661 0.460219 0.185048
0.414227 0.479836 0.177508
0.531042 0.501102 0.167910
0.651957 0.539309 0.149591
0.718665 0.553598 0.141092
0.773382 0.566924 0.134547
0.820406 0.582734 0.131134
0.859989 0.599792 0.132408
0.894717 0.617952 0.139108
0.928949 0.637317 0.153747
0.963637 0.666949 0.199553
0.000000 0.487505 0.198328
0.000000 0.494775 0.199411
0.000035 0.496993 0.199797
0.058542 0.503724 0.197698
0.208145 0.514183 0.194595
0.324259 0.527833 0.190727
0.435783 0.543439 0.185778
0.541211 0.561087 0.180449
0.635724 0.580550 0.175318
0.727915 0.614219 0.166251
0.782098 0.631706 0.163448
0.822078 0.643250 0.165131
0.857809 0.656393 0.171839
0.891712 0.670620 0.183790
0.926606 0.684340 0.201594
0.961170 0.698953 0.230103
0.000607 0.560754 0.206659
0.003523 0.565271 0.208269
0.037186 0.566143 0.209332
0.164956 0.571326 0.208593
0.272663 0.579701 0.207053
0.372897 0.590022 0.205363
0.470691 0.602402 0.203731
0.561246 0.616115 0.202544
0.642720 0.631345 0.202181
0.714110 0.648398 0.203932
0.780256 0.675382 0.207344
0.823641 0.693202 0.214099
0.856621 0.703630 0.223075
0.889966 0.714205 0.236141
0.924242 0.724537 0.254241
0.956149 0.735473 0.281804
0.139559 0.628051 0.225106
0.174985 0.630609 0.227036
0.213771 0.630810 0.228579
0.275836 0.633631 0.229355
0.352851 0.639459 0.229406
0.434056 0.647508 0.230245
0.514594 0.657120 0.231842
0.590813 0.668113 0.234969
0.659751 0.680283 0.239932
0.719547 0.693263 0.246610
0.770929 0.707474 0.255478
0.819544 0.729315 0.267983
0.858410 0.746244 0.282176
0.891838 0.755339 0.296200
0.923997 0.763612 0.314086
0.951970 0.772819 0.341558
0.303618 0.686286 0.254631
0.319330 0.687233 0.256357
0.340082 0.686750 0.257764
0.377549 0.688107 0.260177
0.433725 0.692205 0.261959
0.495546 0.697642 0.264788
0.559296 0.704510 0.269023
0.620158 0.712315 0.274557
0.676021 0.721393 0.281963
0.725834 0.731730 0.291249
0.769764 0.743422 0.302554
0.809484 0.756442 0.315967
0.852880 0.775667 0.332814
0.892155 0.791707 0.350326
0.920826 0.799432 0.367333
0.943928 0.807448 0.391922
0.431702 0.737713 0.298302
0.440718 0.737988 0.299818
0.453041 0.737248 0.300883
0.475994 0.737554 0.303906
0.514566 0.740101 0.307005
0.560813 0.744329 0.311841
0.609280 0.749785 0.318136
0.656639 0.756570 0.326151
0.700396 0.764554 0.335634
0.739685 0.773506 0.346175
0.775606 0.783629 0.357830
0.810065 0.794707 0.370868
0.846235 0.806458 0.385200
0.885571 0.823686 0.402117
0.915094 0.839953 0.422466
0.932809 0.847800 0.446335
0.534655 0.783260 0.350918
0.539213 0.782914 0.351494
0.545853 0.781681 0.351487
0.560209 0.781553 0.354179
0.586367 0.783745 0.358740
0.618970 0.787338 0.363950
0.653808 0.792164 0.370667
0.688050 0.798053 0.378446
0.720419 0.805057 0.387271
0.751025 0.813480 0.397689
0.780730 0.822970 0.409350
0.811438 0.833365 0.422160
0.843327 0.844265 0.435705
0.873565 0.855209 0.448932
0.900209 0.869759 0.463388
0.918376 0.885103 0.487342
0.628338 0.836097 0.420070
0.633005 0.836983 0.422538
0.637248 0.836258 0.422978
0.645474 0.836154 0.425260
0.658685 0.837318 0.428865
0.677694 0.840529 0.433062
0.698831 0.844943 0.438701
0.720898 0.850661 0.445677
0.743533 0.857727 0.454149
0.766789 0.865241 0.463090
0.791570 0.873383 0.473019
0.817077 0.881530 0.483523
0.842156 0.889476 0.494890
0.865085 0.896913 0.507014
0.884578 0.903586 0.518940
0.902077 0.912830 0.534144
0.689738 0.894926 0.493263
0.692328 0.895557 0.495064
0.694770 0.894897 0.495228
0.699946 0.895015 0.497233
0.708337 0.896282 0.501269
0.720287 0.898650 0.505109
0.735089 0.901869 0.510094
0.752072 0.905594 0.516398
0.770746 0.909584 0.523860
0.790689 0.914082 0.532946
0.810666 0.918883 0.542840
0.829934 0.924409 0.553423
0.847688 0.930965 0.564538
0.863864 0.938452 0.575707
0.880850 0.946640 0.587533
0.901808 0.954787 0.600473
0.023560 0.181949 0.207248
0.023279 0.181945 0.207317
0.022849 0.181894 0.207248
0.030486 0.181765 0.207223
0.069179 0.182412 0.206959
0.142045 0.184930 0.206078
0.251158 0.189245 0.204118
0.381712 0.193564 0.200555
0.515608 0.198748 0.195545
0.637376 0.213634 0.188957
0.735745 0.247806 0.181143
0.813829 0.302753 0.172367
0.873168 0.373258 0.164261
0.914387 0.445570 0.163310
0.946454 0.512692 0.176649
0.975787 0.568154 0.206778
0.023756 0.181784 0.207252
0.022945 0.181813 0.207252
0.023821 0.181841 0.207250
0.036879 0.182269 0.207141
0.078669 0.183878 0.206758
0.154024 0.187799 0.205698
0.262081 0.193789 0.203494
0.390184 0.199866 0.199770
0.521699 0.207378 0.194523
0.640458 0.224318 0.187835
0.737402 0.259639 0.179887
0.814494 0.314470 0.170939
0.872670 0.383033 0.163040
0.913044 0.452229 0.162467
0.944607 0.516311 0.175403
0.974049 0.570757 0.205579
0.021373 0.182373 0.207221
0.022189 0.182543 0.207217
0.026612 0.183217 0.207125
0.050350 0.185188 0.206831
0.101220 0.188937 0.206114
0.183501 0.195726 0.204578
0.291375 0.204516 0.201825
0.414838 0.213647 0.197669
0.540316 0.224990 0.192006
0.652901 0.246280 0.184857
0.743913 0.283209 0.176697
0.817232 0.337050 0.167701
0.873148 0.402767 0.160348
0.912737 0.468706 0.161447
0.944509 0.530145 0.177084
0.974382 0.582052 0.209381
0.013121 0.188452 0.207017
0.015990 0.189344 0.207037
0.027600 0.191293 0.206875
0.062472 0.195857 0.206304
0.128306 0.205814 0.204705
0.215103 0.215994 0.202329
0.321088 0.225606 0.198913
0.438540 0.236882 0.194193
0.556094 0.252582 0.187931
0.661022 0.277161 0.180344
0.747456 0.315118 0.171755
0.817655 0.367010 0.162566
0.870973 0.427172 0.155917
0.909339 0.486807 0.158159
0.940686 0.542575 0.174394
0.971097 0.591537 0.207217
0.000000 0.214002 0.206471
0.000801 0.217431 0.206528
0.016318 0.221023 0.206159
0.074207 0.228531 0.205073
0.151900 0.241189 0.202884
0.257079 0.262362 0.198134
0.365042 0.276621 0.193080
0.476374 0.286685 0.187260
0.582902 0.298034 0.180485
0.676672 0.321232 0.172514
0.754817 0.358353 0.163810
0.819792 0.406660 0.154835
0.870124 0.460988 0.150058
0.907454 0.514897 0.155591
0.939260 0.565718 0.175889
0.970811 0.610914 0.213001
0.000000 0.262414 0.205164
0.000000 0.269396 0.205343
0.001445 0.273696 0.205040
0.064838 0.283085 0.203390
0.162213 0.297198 0.200583
0.270562 0.317239 0.195740
0.404766 0.348166 0.185812
0.511527 0.363191 0.178101
0.606986 0.375735 0.170266
0.688863 0.390162 0.162076
0.759214 0.411511 0.153277
0.819537 0.448271 0.144782
0.866801 0.495011 0.142181
0.902812 0.541512 0.150424
0.934410 0.585592 0.172484
0.966977 0.626711 0.211539
0.000000 0.336127 0.203814
0.000000 0.345192 0.204300
0.000000 0.348405 0.204268
0.042901 0.357775 0.202173
0.171876 0.371836 0.198798
0.285515 0.390213 0.193756
0.409839 0.413338 0.185913
0.548912 0.450562 0.170602
0.635230 0.465485 0.161455
0.706257 0.478440 0.153631
0.767610 0.493614 0.145980
0.820621 0.513394 0.139072
0.864482 0.538182 0.136195
0.899994 0.573744 0.146606
0.932457 0.612604 0.173976
0.966344 0.649356 0.218122
0.000000 0.414597 0.203621
0.000000 0.424321 0.204428
0.000000 0.427024 0.204934
0.041800 0.435216 0.202876
0.187103 0.447988 0.199504
0.304072 0.464316 0.194775
0.421037 0.482791 0.188442
0.535754 0.503147 0.180523
0.654241 0.540434 0.165536
0.719174 0.553590 0.158546
0.773807 0.566984 0.153330
0.820470 0.582506 0.150993
0.859795 0.599300 0.152615
0.894315 0.617270 0.159174
0.928229 0.637083 0.173323
0.962981 0.668219 0.218555
0.000000 0.493583 0.206887
0.000000 0.501289 0.208333
0.000737 0.502850 0.209236
0.090301 0.508812 0.208067
0.224930 0.519094 0.205536
0.336065 0.532071 0.202315
0.445105 0.547309 0.198517
0.547534 0.564178 0.194392
0.639429 0.582669 0.190624
0.729683 0.615769 0.183836
0.782197 0.631813 0.181768
0.822008 0.643336 0.183703
0.857672 0.656560 0.190104
0.891463 0.670479 0.201284
0.926489 0.684369 0.217837
0.961069 0.699163 0.244837
0.007282 0.565525 0.216769
0.022442 0.570162 0.218572
0.087546 0.571173 0.219939
0.189821 0.575305 0.220353
0.287714 0.583052 0.219108
0.383906 0.593022 0.217850
0.477778 0.604641 0.216756
0.565666 0.617838 0.216229
0.645761 0.632812 0.216676
0.715568 0.649389 0.219068
0.780880 0.676163 0.223288
0.823481 0.693412 0.229829
0.856290 0.703654 0.238105
0.889570 0.714180 0.250218
0.923762 0.724328 0.266719
0.955913 0.735623 0.293650
0.175329 0.631012 0.235519
0.206223 0.634076 0.237958
0.239775 0.634217 0.239431
0.292693 0.636561 0.241338
0.365851 0.642362 0.241733
0.443497 0.650068 0.242786
0.521715 0.659564 0.244851
0.595603 0.670120 0.248110
0.662383 0.681566 0.252885
0.721059 0.694319 0.259738
0.771551 0.708221 0.268557
0.819722 0.729926 0.280961
0.858301 0.746517 0.294625
0.891592 0.755513 0.307567
0.923854 0.763961 0.324856
0.951798 0.773408 0.351612
0.320771 0.688338 0.264815
0.336038 0.689500 0.266688
0.356302 0.689266 0.268253
0.389931 0.690306 0.271248
0.442549 0.694044 0.273243
0.502390 0.699347 0.276101
0.563838 0.705711 0.280030
0.623091 0.713297 0.285412
0.677949 0.722203 0.292724
0.726835 0.732365 0.301789
0.770379 0.744116 0.313080
0.809798 0.757115 0.326344
0.853049 0.776178 0.342592
0.891976 0.791966 0.359356
0.920498 0.799535 0.375182
0.943611 0.807784 0.399230
0.440188 0.738519 0.306405
0.450413 0.739340 0.308633
0.462968 0.738840 0.309924
0.485008 0.739239 0.313410
0.521690 0.741808 0.317295
0.566272 0.745872 0.321781
0.613538 0.751248 0.327958
0.659481 0.757747 0.335545
0.701921 0.765319 0.344247
0.740560 0.774116 0.354271
0.776016 0.784047 0.365564
0.810320 0.795097 0.378339
0.846526 0.806984 0.392568
0.885714 0.824235 0.409133
0.914918 0.840510 0.429040
0.932484 0.848499 0.452460
0.540100 0.784096 0.357495
0.545355 0.784024 0.358497
0.552990 0.783276 0.359204
0.567206 0.783266 0.362169
0.590899 0.785020 0.366638
0.622480 0.788490 0.371425
0.656129 0.792987 0.377490
0.689461 0.798649 0.384766
0.721497 0.805729 0.393552
0.751716 0.814021 0.403673
0.781302 0.823509 0.415192
0.811929 0.833924 0.427873
0.843596 0.844662 0.440848
0.873664 0.855635 0.453783
0.900109 0.870151 0.467800
0.918123 0.885324 0.491298
0.630590 0.836470 0.424058
0.636338 0.838028 0.427585
0.640471 0.837377 0.428024
0.648505 0.837284 0.430197
0.661191 0.838429 0.434203
0.679466 0.841413 0.438118
0.700249 0.845838 0.443535
0.721975 0.851411 0.450210
0.744097 0.858045 0.457945
0.767303 0.865564 0.466694
0.791890 0.873479 0.476200
0.817344 0.881594 0.486603
0.842399 0.889707 0.498075
0.865163 0.897087 0.509966
0.884563 0.903892 0.522020
0.902008 0.913264 0.537299
0.690859 0.895408 0.495756
0.693726 0.896169 0.497821
0.696464 0.895810 0.498407
0.701669 0.895984 0.500453
0.709551 0.896844 0.504104
0.721315 0.899162 0.508017
0.735841 0.902144 0.512632
0.752620 0.905677 0.518574
0.771359 0.909753 0.526142
0.791091 0.914106 0.534962
0.811086 0.918971 0.544883
0.830305 0.924569 0.555527
0.847856 0.931000 0.566245
0.864005 0.938569 0.577496
0.880894 0.946643 0.589025
0.901879 0.954754 0.601803
0.023252 0.181905 0.207365
0.022920 0.181828 0.207358
0.023165 0.181765 0.207371
0.032285 0.181489 0.207756
0.077683 0.180565 0.208261
0.161585 0.181940 0.208727
0.277682 0.186905 0.209438
0.407831 0.191987 0.208912
0.538049 0.200115 0.207293
0.653656 0.220523 0.204750
0.746706 0.260524 0.201687
0.820171 0.318778 0.198503
0.875604 0.389350 0.197493
0.914462 0.459924 0.203698
0.945392 0.524303 0.221214
0.974279 0.577715 0.251614
0.022385 0.181903 0.207617
0.022359 0.181792 0.207700
0.025469 0.181925 0.207749
0.042101 0.181949 0.208191
0.092186 0.183002 0.208817
0.176881 0.186944 0.209442
0.288622 0.193006 0.209506
0.415970 0.199587 0.208498
0.542996 0.209670 0.206499
0.656314 0.231795 0.203748
0.747848 0.272214 0.200562
0.820637 0.330040 0.197329
0.874986 0.398445 0.196497
0.912966 0.465552 0.202527
0.943639 0.527442 0.219536
0.972610 0.579876 0.249824
0.019272 0.183244 0.208260
0.020892 0.183668 0.208521
0.030395 0.184417 0.208852
0.060641 0.186157 0.209156
0.119124 0.190164 0.209536
0.205960 0.197016 0.209558
0.315012 0.205370 0.208779
0.437740 0.215080 0.207117
0.559814 0.229100 0.204673
0.666913 0.254640 0.201581
0.753408 0.295699 0.198076
0.822727 0.351746 0.194775
0.875164 0.416902 0.194466
0.912687 0.481227 0.202031
0.943553 0.540369 0.220933
0.972980 0.590555 0.252997
0.013021 0.191445 0.209714
0.017973 0.193509 0.210094
0.032601 0.195666 0.210253
0.075415 0.200385 0.210088
0.146935 0.208687 0.209225
0.235905 0.217024 0.208023
0.342486 0.227245 0.206324
0.458780 0.240377 0.203988
0.573030 0.258098 0.200940
0.673771 0.286176 0.197362
0.755887 0.326879 0.193436
0.822554 0.380165 0.190051
0.872798 0.439634 0.190267
0.909232 0.497468 0.198268
0.939905 0.551666 0.217221
0.969914 0.599126 0.249377
0.000237 0.223084 0.212392
0.002919 0.227339 0.212390
0.021602 0.229930 0.212440
0.084729 0.236783 0.211957
0.168573 0.249177 0.210280
0.274819 0.267233 0.206801
0.382215 0.277993 0.203084
0.492218 0.286929 0.199048
0.596477 0.301939 0.194849
0.686931 0.330307 0.190587
0.761876 0.369290 0.186542
0.823861 0.418088 0.183466
0.871610 0.471538 0.185381
0.907426 0.524278 0.196145
0.938548 0.573358 0.218003
0.969715 0.617412 0.253565
0.000000 0.274462 0.212935
0.000000 0.282205 0.213737
0.004486 0.284965 0.214292
0.080666 0.293046 0.213707
0.177924 0.307012 0.211593
0.288410 0.326167 0.207794
0.419282 0.353620 0.200255
0.523587 0.366294 0.194202
0.616412 0.377484 0.188286
0.696290 0.392050 0.182429
0.764775 0.416757 0.177175
0.822967 0.457593 0.174617
0.868075 0.503650 0.178190
0.902709 0.548874 0.190321
0.933878 0.591885 0.213076
0.966175 0.632129 0.249928
0.000000 0.348748 0.214635
0.000000 0.357595 0.215868
0.000803 0.359873 0.216607
0.072124 0.367100 0.216111
0.190516 0.380888 0.213499
0.302300 0.399012 0.209614
0.425660 0.421219 0.203648
0.558944 0.455661 0.192243
0.642120 0.468851 0.185533
0.710969 0.480681 0.179792
0.771138 0.495491 0.174607
0.822986 0.515065 0.170628
0.865534 0.541878 0.171899
0.899986 0.579909 0.186790
0.931998 0.617595 0.213236
0.965393 0.653446 0.253983
0.000000 0.425792 0.217081
0.000000 0.435442 0.218798
0.001781 0.437427 0.219696
0.084083 0.443339 0.219836
0.210816 0.455777 0.217362
0.321725 0.471261 0.213825
0.435358 0.489095 0.209265
0.546950 0.508914 0.203817
0.660054 0.544130 0.193673
0.722641 0.556249 0.188690
0.776096 0.569096 0.185294
0.821726 0.583975 0.184469
0.860445 0.600346 0.186920
0.894514 0.617818 0.192941
0.928050 0.640070 0.209635
0.962186 0.671566 0.252467
0.000077 0.502696 0.223288
0.001876 0.509722 0.225191
0.032493 0.510871 0.226279
0.143051 0.514988 0.227362
0.250823 0.524710 0.225736
0.354817 0.537511 0.223731
0.458803 0.552192 0.221382
0.557190 0.568453 0.219281
0.646314 0.586807 0.217754
0.733499 0.619056 0.214016
0.783408 0.633479 0.213375
0.822593 0.644736 0.215601
0.857774 0.657436 0.221247
0.891386 0.671112 0.231133
0.926266 0.684570 0.245391
0.960533 0.699003 0.269185
0.051154 0.571903 0.235073
0.106774 0.576455 0.237204
0.161767 0.577213 0.238509
0.226557 0.579775 0.240533
0.311229 0.587039 0.240407
0.400349 0.596522 0.239799
0.489543 0.607962 0.239628
0.574075 0.620951 0.240152
0.651113 0.635536 0.241874
0.719119 0.652137 0.245728
0.782437 0.678337 0.251259
0.823572 0.694429 0.257525
0.856178 0.704504 0.264833
0.889311 0.714633 0.275115
0.923391 0.724596 0.289715
0.955359 0.735879 0.313921
0.223103 0.635002 0.253944
0.247605 0.637773 0.256324
0.275929 0.637927 0.257664
0.319065 0.639607 0.260563
0.382909 0.644695 0.262131
0.456286 0.652475 0.263701
0.530869 0.661750 0.266219
0.601795 0.672049 0.269975
0.666583 0.683456 0.275332
0.723442 0.695906 0.282437
0.772903 0.709843 0.291682
0.820287 0.731455 0.304108
0.858124 0.747242 0.316300
0.891330 0.756128 0.327844
0.923382 0.764327 0.343046
0.951087 0.773547 0.367029
0.344819 0.690278 0.281468
0.359496 0.691614 0.283495
0.377986 0.691373 0.284851
0.407705 0.692118 0.288125
0.453783 0.695252 0.291306
0.510650 0.700374 0.294131
0.569881 0.706715 0.298179
0.627393 0.714311 0.303732
0.680613 0.723056 0.310848
0.728622 0.733421 0.320214
0.771350 0.745161 0.331334
0.810275 0.758126 0.344153
0.853379 0.777200 0.359865
0.891693 0.792402 0.374994
0.919971 0.799848 0.389240
0.942931 0.808083 0.411465
0.453016 0.739260 0.319980
0.462629 0.740003 0.321991
0.474957 0.739632 0.323298
0.496153 0.740167 0.326914
0.528336 0.742220 0.331717
0.571670 0.746419 0.336346
0.617588 0.751789 0.342393
0.662238 0.758234 0.349668
0.703855 0.765899 0.358260
0.741692 0.774662 0.367903
0.776673 0.784652 0.378937
0.810882 0.795849 0.391566
0.846891 0.807709 0.405353
0.885838 0.825171 0.421438
0.914429 0.840914 0.439713
0.931870 0.848660 0.461123
0.546070 0.784109 0.366875
0.551972 0.784370 0.368309
0.559187 0.783549 0.368764
0.573309 0.783712 0.371771
0.594842 0.785210 0.377025
0.625103 0.788520 0.381767
0.658129 0.793084 0.387625
0.691040 0.798877 0.394831
0.722466 0.805891 0.403372
0.752491 0.814344 0.413448
0.781916 0.823959 0.424828
0.812423 0.834315 0.437034
0.843995 0.845206 0.449732
0.873776 0.856095 0.462012
0.899890 0.870738 0.475570
0.917657 0.885539 0.498160
0.632912 0.836274 0.429816
0.638167 0.837656 0.432862
0.642382 0.837056 0.433377
0.650579 0.837152 0.435703
0.662647 0.838170 0.440021
0.680428 0.841169 0.444484
0.701056 0.845651 0.449811
0.722571 0.851247 0.456282
0.744724 0.858020 0.464017
0.767827 0.865566 0.472596
0.792402 0.873500 0.481943
0.817851 0.881822 0.492309
0.842723 0.889888 0.503500
0.865312 0.897272 0.515208
0.884524 0.904065 0.526982
0.901883 0.913485 0.541940
0.691562 0.895189 0.498644
0.694484 0.896033 0.500735
0.697288 0.895729 0.501382
0.702420 0.895834 0.503284
0.710441 0.896847 0.507217
0.721679 0.898824 0.511410
0.736264 0.901886 0.516019
0.753169 0.905528 0.522054
0.771880 0.909588 0.529541
0.791690 0.914028 0.538398
0.811672 0.918965 0.548339
0.830678 0.924499 0.558700
0.848183 0.931090 0.569513
0.864179 0.938646 0.580542
0.881028 0.946684 0.591827
0.902155 0.954992 0.604662
0.019959 0.181766 0.210129
0.022432 0.181629 0.210277
0.029171 0.181678 0.210409
0.042433 0.182561 0.210833
0.078765 0.182211 0.213362
0.167701 0.179516 0.218115
0.293006 0.175793 0.221014
0.431481 0.185141 0.226703
0.562349 0.209074 0.233700
0.672611 0.241206 0.237696
0.758955 0.287681 0.240526
0.826904 0.348185 0.243658
0.877411 0.416330 0.249488
0.913269 0.482196 0.261106
0.943286 0.542223 0.280954
0.971527 0.592383 0.310427
0.016111 0.182699 0.211707
0.019029 0.182207 0.212277
0.031867 0.182695 0.212380
0.051635 0.184630 0.212721
0.094707 0.184603 0.215598
0.187717 0.183391 0.219795
0.309508 0.186964 0.223758
0.442304 0.201483 0.229766
0.568024 0.223846 0.235021
0.674758 0.253560 0.237534
0.760061 0.299401 0.239881
0.827179 0.358438 0.242749
0.876537 0.423850 0.248397
0.911870 0.486905 0.259657
0.941624 0.544673 0.278745
0.970028 0.594058 0.308114
0.008057 0.186864 0.214609
0.013122 0.187173 0.215621
0.034266 0.187449 0.216628
0.071547 0.191119 0.217275
0.129284 0.193124 0.220534
0.225190 0.198693 0.224623
0.341312 0.210520 0.228941
0.465404 0.226958 0.233025
0.583318 0.246092 0.235032
0.684106 0.277132 0.236560
0.764442 0.321457 0.238025
0.828629 0.378129 0.240708
0.876659 0.440781 0.247132
0.911548 0.501112 0.259583
0.941649 0.556467 0.280014
0.970412 0.603848 0.310614
0.003353 0.196960 0.217548
0.010031 0.199426 0.219147
0.038337 0.202542 0.221028
0.094359 0.207775 0.223375
0.167408 0.215002 0.225179
0.260541 0.225508 0.227461
0.369170 0.238690 0.229282
0.484480 0.254012 0.230425
0.594961 0.275140 0.231245
0.689389 0.307000 0.232142
0.766221 0.350327 0.233430
0.827964 0.403638 0.236205
0.874063 0.460300 0.242612
0.908282 0.515132 0.255031
0.938242 0.566007 0.275069
0.967723 0.611137 0.305722
0.000000 0.229946 0.224597
0.012178 0.236208 0.226911
0.059879 0.241856 0.228629
0.113686 0.248850 0.229967
0.195172 0.260352 0.229765
0.299901 0.273419 0.228047
0.406635 0.282378 0.226497
0.514826 0.295350 0.225784
0.615076 0.317676 0.225835
0.700457 0.349645 0.226238
0.770745 0.389926 0.227396
0.828543 0.438160 0.230613
0.872806 0.489570 0.238682
0.906546 0.539444 0.253083
0.937088 0.585796 0.275139
0.967647 0.627819 0.308215
0.002427 0.288299 0.233560
0.027780 0.297826 0.235563
0.060744 0.302470 0.234808
0.121034 0.308308 0.235023
0.205783 0.320669 0.234692
0.316641 0.339373 0.232481
0.440451 0.361157 0.227710
0.540907 0.370696 0.223664
0.630314 0.381135 0.220142
0.706927 0.399675 0.217886
0.772554 0.432075 0.218494
0.827109 0.474406 0.222584
0.869033 0.518261 0.231307
0.902049 0.561460 0.246275
0.932751 0.602254 0.268641
0.964566 0.640985 0.302649
0.015523 0.366302 0.239220
0.024366 0.375555 0.239894
0.049417 0.377848 0.239065
0.132707 0.382182 0.240475
0.223762 0.394190 0.240343
0.329995 0.411660 0.238155
0.450064 0.432955 0.234856
0.573487 0.462880 0.228076
0.651742 0.473638 0.223467
0.718215 0.484524 0.219946
0.776352 0.498802 0.217069
0.826216 0.519727 0.216589
0.866595 0.552129 0.224674
0.899501 0.590177 0.242459
0.931111 0.626040 0.267290
0.963755 0.660582 0.304073
0.009321 0.442469 0.241679
0.020305 0.451777 0.243805
0.075791 0.453554 0.244740
0.161310 0.457320 0.246885
0.249547 0.466826 0.247175
0.350656 0.481690 0.245362
0.458131 0.498641 0.243052
