entry/src/main/resources/rawfile/filters/VEL_Mono_Contrast.cube
TITLE "Mono Contrast"
LUT_3D_SIZE 6
0.000000 0.000000 0.000000
0.000000 0.000000 0.000000
0.112920 0.112920 0.112920
0.310716 0.310716 0.310716
0.554125 0.554125 0.554125
0.769635 0.769635 0.769635
0.005832 0.005832 0.005832
0.152270 0.152270 0.152270
0.226474 0.226474 0.226474
0.371463 0.371463 0.371463
0.592410 0.592410 0.592410
0.783935 0.783935 0.783935
0.181762 0.181762 0.181762
0.207975 0.207975 0.207975
0.574633 0.574633 0.574633
0.687583 0.687583 0.687583
0.671603 0.671603 0.671603
0.803565 0.803565 0.803565
0.403466 0.403466 0.403466
0.390080 0.390080 0.390080
0.595498 0.595498 0.595498
0.785111 0.785111 0.785111
0.855618 0.855618 0.855618
0.854692 0.854692 0.854692
0.648304 0.648304 0.648304
0.631698 0.631698 0.631698
0.644481 0.644481 0.644481
0.797131 0.797131 0.797131
0.893861 0.893861 0.893861
0.946401 0.946401 0.946401
0.841932 0.841932 0.841932
0.823484 0.823484 0.823484
0.823065 0.823065 0.823065
0.868348 0.868348 0.868348
0.942547 0.942547 0.942547
0.968627 0.968627 0.968627
0.000000 0.000000 0.000000
0.000322 0.000322 0.000322
0.095062 0.095062 0.095062
0.309578 0.309578 0.309578
0.561026 0.561026 0.561026
0.775015 0.775015 0.775015
0.028256 0.028256 0.028256
0.064692 0.064692 0.064692
0.193475 0.193475 0.193475
0.375162 0.375162 0.375162
0.594596 0.594596 0.594596
0.785718 0.785718 0.785718
0.238813 0.238813 0.238813
0.229403 0.229403 0.229403
0.496430 0.496430 0.496430
0.598544 0.598544 0.598544
0.653161 0.653161 0.653161
0.801545 0.801545 0.801545
0.446990 0.446990 0.446990
0.436276 0.436276 0.436276
0.544411 0.544411 0.544411
0.766407 0.766407 0.766407
0.838750 0.838750 0.838750
0.844661 0.844661 0.844661
0.643201 0.643201 0.643201
0.649426 0.649426 0.649426
0.645054 0.645054 0.645054
0.786548 0.786548 0.786548
0.890011 0.890011 0.890011
0.944913 0.944913 0.944913
0.824415 0.824415 0.824415
0.829550 0.829550 0.829550
0.832849 0.832849 0.832849
0.867741 0.867741 0.867741
0.943572 0.943572 0.943572
0.968627 0.968627 0.968627
0.000000 0.000000 0.000000
0.020388 0.020388 0.020388
0.119534 0.119534 0.119534
0.205779 0.205779 0.205779
0.454401 0.454401 0.454401
0.755584 0.755584 0.755584
0.065403 0.065403 0.065403
0.105794 0.105794 0.105794
0.195954 0.195954 0.195954
0.288840 0.288840 0.288840
0.538000 0.538000 0.538000
0.780226 0.780226 0.780226
0.252031 0.252031 0.252031
0.270609 0.270609 0.270609
0.338378 0.338378 0.338378
0.467731 0.467731 0.467731
0.646672 0.646672 0.646672
0.803559 0.803559 0.803559
0.523379 0.523379 0.523379
0.528073 0.528073 0.528073
0.515056 0.515056 0.515056
0.712369 0.712369 0.712369
0.772724 0.772724 0.772724
0.837062 0.837062 0.837062
0.688486 0.688486 0.688486
0.698042 0.698042 0.698042
0.684527 0.684527 0.684527
0.748404 0.748404 0.748404
0.879637 0.879637 0.879637
0.935687 0.935687 0.935687
0.847285 0.847285 0.847285
0.848675 0.848675 0.848675
0.851795 0.851795 0.851795
0.866663 0.866663 0.866663
0.940717 0.940717 0.940717
0.968627 0.968627 0.968627
0.050172 0.050172 0.050172
0.090170 0.090170 0.090170
0.205445 0.205445 0.205445
0.313519 0.313519 0.313519
0.412173 0.412173 0.412173
0.697679 0.697679 0.697679
0.150432 0.150432 0.150432
0.181653 0.181653 0.181653
0.284505 0.284505 0.284505
0.390714 0.390714 0.390714
0.473116 0.473116 0.473116
0.729849 0.729849 0.729849
0.236356 0.236356 0.236356
0.269063 0.269063 0.269063
0.385132 0.385132 0.385132
0.487724 0.487724 0.487724
0.578894 0.578894 0.578894
0.783663 0.783663 0.783663
0.515090 0.515090 0.515090
0.520845 0.520845 0.520845
0.554494 0.554494 0.554494
0.614662 0.614662 0.614662
0.717984 0.717984 0.717984
0.839792 0.839792 0.839792
0.734456 0.734456 0.734456
0.739736 0.739736 0.739736
0.739543 0.739543 0.739543
0.738501 0.738501 0.738501
0.862470 0.862470 0.862470
0.917579 0.917579 0.917579
0.868516 0.868516 0.868516
0.876297 0.876297 0.876297
0.879651 0.879651 0.879651
0.892809 0.892809 0.892809
0.933573 0.933573 0.933573
0.968484 0.968484 0.968484
0.173736 0.173736 0.173736
0.211733 0.211733 0.211733
0.322731 0.322731 0.322731
0.486916 0.486916 0.486916
0.603983 0.603983 0.603983
0.699391 0.699391 0.699391
0.270667 0.270667 0.270667
0.305331 0.305331 0.305331
0.408743 0.408743 0.408743
0.558461 0.558461 0.558461
0.646891 0.646891 0.646891
0.714058 0.714058 0.714058
0.370360 0.370360 0.370360
0.402128 0.402128 0.402128
0.494648 0.494648 0.494648
0.609208 0.609208 0.609208
0.677203 0.677203 0.677203
0.734970 0.734970 0.734970
0.474187 0.474187 0.474187
0.478789 0.478789 0.478789
0.538786 0.538786 0.538786
0.663470 0.663470 0.663470
0.726115 0.726115 0.726115
0.795147 0.795147 0.795147
0.721192 0.721192 0.721192
0.723755 0.723755 0.723755
0.737656 0.737656 0.737656
0.763314 0.763314 0.763314
0.809519 0.809519 0.809519
0.893477 0.893477 0.893477
0.896138 0.896138 0.896138
0.903720 0.903720 0.903720
0.908739 0.908739 0.908739
0.920479 0.920479 0.920479
0.929733 0.929733 0.929733
0.965249 0.965249 0.965249
0.530236 0.530236 0.530236
0.571978 0.571978 0.571978
0.662119 0.662119 0.662119
0.743026 0.743026 0.743026
0.819025 0.819025 0.819025
0.852674 0.852674 0.852674
0.600604 0.600604 0.600604
0.628370 0.628370 0.628370
0.689568 0.689568 0.689568
0.760164 0.760164 0.760164
0.827477 0.827477 0.827477
0.861610 0.861610 0.861610
0.633445 0.633445 0.633445
0.650842 0.650842 0.650842
0.702263 0.702263 0.702263
0.762285 0.762285 0.762285
0.822341 0.822341 0.822341
0.856388 0.856388 0.856388
0.599005 0.599005 0.599005
0.624947 0.624947 0.624947
0.709021 0.709021 0.709021
0.773291 0.773291 0.773291
0.836851 0.836851 0.836851
0.877378 0.877378 0.877378
0.698347 0.698347 0.698347
0.690329 0.690329 0.690329
0.698644 0.698644 0.698644
0.750701 0.750701 0.750701
0.855798 0.855798 0.855798
0.913600 0.913600 0.913600
0.899535 0.899535 0.899535
0.897490 0.897490 0.897490
0.908229 0.908229 0.908229
0.926296 0.926296 0.926296
0.945187 0.945187 0.945187
0.959274 0.959274 0.959274
