entry/src/main/resources/rawfile/filters/VEL_Moody_Blue.cube
TITLE "Moody Blue"
LUT_3D_SIZE 16
0.011765 0.000000 0.000000
0.078360 0.008194 0.000351
0.127159 0.013348 0.003922
0.179449 0.022061 0.003922
0.231424 0.030723 0.003922
0.282964 0.037308 0.005936
0.336239 0.044019 0.008087
0.390576 0.050509 0.009265
0.446316 0.055285 0.010560
0.500414 0.060008 0.014740
0.556558 0.067363 0.017578
0.614139 0.072402 0.021147
0.673264 0.074119 0.023233
0.735926 0.076724 0.026086
0.798535 0.078284 0.029918
0.845151 0.112856 0.060197
0.032129 0.091574 0.008600
0.086553 0.095496 0.009324
0.139398 0.095529 0.012441
0.192337 0.095752 0.011127
0.245913 0.095347 0.008983
0.299630 0.095244 0.009365
0.353350 0.095905 0.010365
0.409567 0.098602 0.009161
0.463783 0.100908 0.010124
0.519077 0.102115 0.014672
0.573633 0.105355 0.017319
0.629937 0.106990 0.019462
0.688259 0.107354 0.020417
0.747765 0.107726 0.020880
0.807139 0.111011 0.024888
0.855814 0.138421 0.065393
0.042426 0.152428 0.019701
0.082415 0.157392 0.022956
0.139448 0.158080 0.023066
0.199364 0.160006 0.020822
0.253077 0.157165 0.021377
0.306376 0.154207 0.022157
0.361179 0.154197 0.023537
0.415248 0.155362 0.025508
0.468074 0.156080 0.026918
0.523412 0.156838 0.028826
0.579143 0.158506 0.030612
0.634276 0.159607 0.033678
0.692347 0.160078 0.035990
0.751605 0.159298 0.036390
0.810813 0.161587 0.037112
0.858824 0.185405 0.076695
0.058650 0.213583 0.040293
0.081095 0.221676 0.040829
0.131364 0.222809 0.045254
0.196756 0.224528 0.041678
0.259482 0.226919 0.035199
0.314635 0.223644 0.034780
0.367286 0.221457 0.039138
0.420733 0.220897 0.042108
0.473718 0.220238 0.043433
0.527910 0.219386 0.045092
0.581213 0.221333 0.047303
0.637505 0.222790 0.047717
0.695753 0.222997 0.050625
0.754893 0.221212 0.050081
0.814075 0.222988 0.049860
0.860493 0.242982 0.086122
0.070119 0.276246 0.059456
0.086854 0.284486 0.060107
0.124377 0.288081 0.065267
0.188825 0.287881 0.063329
0.256088 0.289863 0.061436
0.321146 0.293105 0.056129
0.377893 0.292678 0.054402
0.429825 0.289852 0.057758
0.481964 0.285836 0.060128
0.534356 0.283881 0.062498
0.587035 0.284179 0.065403
0.643058 0.284767 0.065228
0.699550 0.284995 0.066483
0.758199 0.284941 0.065251
0.817214 0.285787 0.063212
0.864734 0.302341 0.095218
0.079230 0.341003 0.079169
0.093078 0.349438 0.079879
0.122386 0.353109 0.083166
0.180027 0.354688 0.083129
0.248063 0.353603 0.082993
0.314044 0.354487 0.081044
0.380526 0.358841 0.074810
0.438889 0.362403 0.071849
0.491027 0.358761 0.073835
0.542463 0.354744 0.076525
0.594800 0.351007 0.080590
0.649036 0.348933 0.082415
0.705262 0.350266 0.082453
0.763431 0.350060 0.080119
0.820368 0.348462 0.079066
0.868879 0.362580 0.106274
0.090819 0.405499 0.096379
0.101543 0.415558 0.094924
0.125221 0.417786 0.098812
0.174181 0.421166 0.100397
0.240842 0.420841 0.100189
0.306209 0.418459 0.100144
0.372433 0.420254 0.096754
0.438605 0.425325 0.091377
0.498979 0.430733 0.086286
0.552879 0.430094 0.086666
0.605127 0.423905 0.091398
0.657623 0.418821 0.094825
0.712477 0.414840 0.097190
0.768144 0.413571 0.093943
0.825130 0.411536 0.092972
0.872965 0.426221 0.117253
0.101707 0.471830 0.113049
0.108483 0.480771 0.108987
0.131509 0.483356 0.114389
0.171935 0.487320 0.116043
0.232443 0.487475 0.117403
0.299897 0.484872 0.115692
0.366369 0.484717 0.113623
0.430326 0.483684 0.112211
0.493982 0.488054 0.107521
0.560090 0.498681 0.101464
0.615050 0.498997 0.100254
0.666711 0.492683 0.103539
0.720044 0.484254 0.107313
0.776242 0.479402 0.106513
0.832304 0.475674 0.105725
0.878756 0.487539 0.128565
0.110798 0.538442 0.129206
0.116244 0.545546 0.124385
0.137668 0.546942 0.126551
0.172881 0.550345 0.129597
0.226949 0.552782 0.132782
0.294680 0.551399 0.131603
0.360986 0.549594 0.129663
0.424355 0.548657 0.129520
0.485938 0.547177 0.128498
0.550911 0.553143 0.123748
0.619662 0.565877 0.114604
0.677185 0.566289 0.112100
0.730475 0.558599 0.115077
0.785492 0.552150 0.115410
0.842229 0.544440 0.117220
0.888820 0.552074 0.140239
0.116353 0.605915 0.144289
0.119811 0.610450 0.138235
0.141456 0.610437 0.140315
0.174348 0.613715 0.143199
0.223519 0.616846 0.146928
0.286695 0.617309 0.146541
0.354927 0.614347 0.145594
0.418707 0.612928 0.145350
0.480515 0.611751 0.145134
0.541533 0.610759 0.142601
0.606007 0.617172 0.137794
0.679589 0.630476 0.128576
0.741499 0.631774 0.124223
0.796146 0.624826 0.123324
0.851840 0.615756 0.126421
0.898164 0.624057 0.147134
0.121757 0.671621 0.156695
0.120438 0.674618 0.150530
0.143293 0.674773 0.152975
0.176097 0.677794 0.154403
0.220967 0.680447 0.159332
0.279147 0.681502 0.161624
0.346955 0.679774 0.161102
0.412610 0.678848 0.160862
0.474221 0.676708 0.158986
0.535531 0.675371 0.157429
0.596090 0.675524 0.156910
0.662479 0.679009 0.153352
0.740093 0.692462 0.142343
0.806833 0.697718 0.134679
0.862497 0.689884 0.134581
0.908908 0.697226 0.153821
0.125117 0.738370 0.170553
0.119274 0.738778 0.161874
0.141086 0.738840 0.164326
0.176946 0.741380 0.165398
0.221078 0.744228 0.170725
0.271545 0.746563 0.174258
0.335072 0.745324 0.174017
0.401625 0.743736 0.173752
0.464673 0.742915 0.172991
0.531309 0.742765 0.172690
0.592044 0.740719 0.172639
0.653783 0.738919 0.172571
0.720150 0.743399 0.166805
0.801391 0.757925 0.153449
0.873467 0.765461 0.143442
0.915857 0.770384 0.164660
0.128493 0.806607 0.181107
0.120208 0.805998 0.172390
0.138010 0.805585 0.173370
0.173754 0.807100 0.176517
0.219802 0.808043 0.180532
0.266640 0.811437 0.184382
0.323383 0.811620 0.187232
0.389544 0.811041 0.188329
0.456454 0.811033 0.188333
0.522019 0.809340 0.188383
0.585294 0.808023 0.186485
0.647300 0.807853 0.185586
0.711059 0.807685 0.184804
0.780091 0.808922 0.181285
0.866164 0.824956 0.167038
0.925618 0.844736 0.174383
0.132048 0.878060 0.196262
0.119714 0.874512 0.180756
0.134539 0.873203 0.184019
0.166601 0.873301 0.187749
0.217856 0.874781 0.191712
0.264312 0.876028 0.195718
0.315555 0.879291 0.199810
0.378742 0.880426 0.203359
0.446691 0.880693 0.204679
0.512029 0.878958 0.202849
0.576069 0.878054 0.201310
0.640431 0.878529 0.201179
0.706642 0.878631 0.201203
0.773314 0.875163 0.201147
0.844920 0.874660 0.195671
0.902764 0.891330 0.202027
0.136621 0.952058 0.210438
0.115852 0.943537 0.191594
0.136683 0.942356 0.195650
0.165069 0.942205 0.199717
0.214018 0.944019 0.203813
0.264387 0.945074 0.207929
0.312951 0.947304 0.212085
0.368167 0.949462 0.218082
0.433713 0.949645 0.219361
0.501043 0.948749 0.217843
0.568903 0.949343 0.217841
0.635212 0.949915 0.215576
0.701611 0.947436 0.211880
0.769184 0.946403 0.210990
0.837137 0.945778 0.204287
0.882970 0.947489 0.218090
0.194476 0.991196 0.272801
0.182875 0.990601 0.256726
0.200933 0.989870 0.259867
0.232026 0.989459 0.262467
0.272000 0.989232 0.263390
0.316325 0.989080 0.267170
0.362832 0.989230 0.273200
0.409008 0.989559 0.279512
0.465979 0.989930 0.279812
0.531105 0.990399 0.279213
0.595967 0.990830 0.279977
0.658972 0.991186 0.277953
0.721782 0.991412 0.277152
0.785036 0.991394 0.277134
0.849051 0.991394 0.276994
0.893324 0.991547 0.292714
0.031735 0.000000 0.071725
0.078176 0.008600 0.087052
0.126435 0.016828 0.086877
0.177091 0.023439 0.086989
0.231510 0.034163 0.087093
0.284977 0.042516 0.088846
0.337977 0.049204 0.091246
0.390533 0.054170 0.092196
0.444249 0.059305 0.093247
0.499827 0.064225 0.094539
0.556550 0.068860 0.095933
0.614287 0.072772 0.097177
0.673223 0.076539 0.099892
0.735752 0.077168 0.098367
0.798964 0.080446 0.100972
0.848096 0.115816 0.128824
0.072242 0.083044 0.080496
0.094180 0.095148 0.094617
0.139941 0.095645 0.093421
0.192349 0.094252 0.095629
0.246048 0.093449 0.095838
0.300038 0.095517 0.095934
0.353740 0.095742 0.096308
0.409951 0.098938 0.095178
0.463958 0.101079 0.095491
0.519115 0.102179 0.098613
0.573379 0.105316 0.098723
0.629793 0.106913 0.098542
0.688217 0.107332 0.099508
0.747799 0.107705 0.099345
0.807116 0.110168 0.099660
0.855827 0.137753 0.126666
0.096086 0.145379 0.086857
0.100027 0.156232 0.097132
0.144136 0.156988 0.099836
0.200328 0.156112 0.099869
0.253773 0.155121 0.100027
0.306891 0.154209 0.100227
0.361644 0.154342 0.100684
0.415239 0.155036 0.101366
0.468816 0.155753 0.102482
0.523701 0.156596 0.103737
0.577699 0.158168 0.104705
0.633867 0.159391 0.105584
0.692277 0.160071 0.106125
0.751383 0.159398 0.106216
0.810787 0.161168 0.106259
0.858824 0.182981 0.129874
0.102508 0.209419 0.088923
0.104998 0.218820 0.104449
0.140044 0.222007 0.104365
0.201069 0.221414 0.104828
0.261820 0.224514 0.104212
0.316131 0.222839 0.104481
0.368326 0.219839 0.105464
0.420794 0.219450 0.105944
0.475268 0.218188 0.107245
0.528435 0.218790 0.108880
0.581466 0.221239 0.109897
0.637561 0.222275 0.109617
0.694771 0.223071 0.109776
0.753461 0.221374 0.111009
0.813893 0.222707 0.111000
0.860483 0.242842 0.132581
0.107410 0.271948 0.096922
0.108838 0.284122 0.110514
0.135776 0.287757 0.111917
0.192930 0.287274 0.113112
0.258505 0.288387 0.111680
0.322063 0.291824 0.110833
0.378042 0.290206 0.110612
0.429753 0.286422 0.111084
0.481938 0.284165 0.113156
0.534346 0.283774 0.114809
0.587138 0.285227 0.116711
0.643017 0.285112 0.116628
0.698335 0.284961 0.116575
0.756740 0.284869 0.117695
0.817081 0.285586 0.115789
0.864718 0.302112 0.137303
0.113475 0.335105 0.105759
0.112899 0.349041 0.119127
0.137702 0.352909 0.122204
0.185116 0.354534 0.122297
0.250277 0.353584 0.122213
0.317287 0.354361 0.121269
0.382529 0.358628 0.118279
0.439600 0.359932 0.117229
0.492166 0.357153 0.119284
0.542955 0.352810 0.120646
0.594799 0.351585 0.123606
0.648883 0.350716 0.125171
0.704989 0.350349 0.124946
0.761455 0.349949 0.122997
0.819900 0.349505 0.121740
0.868866 0.362381 0.143484
0.121582 0.400349 0.114997
0.117368 0.413548 0.127684
0.139273 0.417419 0.131438
0.180786 0.421098 0.133234
0.243099 0.420660 0.133115
0.308994 0.418296 0.132867
0.374195 0.420135 0.132163
0.439166 0.424261 0.129380
0.499884 0.429805 0.126425
0.553255 0.428433 0.127362
0.604539 0.423179 0.129509
0.655511 0.417878 0.131775
0.711615 0.414286 0.132030
0.766585 0.413149 0.130334
0.824767 0.412242 0.129600
0.873061 0.425970 0.149647
0.129901 0.465491 0.126440
0.124857 0.478653 0.139769
0.144840 0.480825 0.142821
0.180883 0.484465 0.144668
0.236328 0.486098 0.146039
0.303325 0.484998 0.145748
0.367563 0.484236 0.145510
0.430702 0.483680 0.144635
0.494375 0.488221 0.141055
0.559822 0.497882 0.135219
0.614701 0.496663 0.133739
0.665422 0.490678 0.136265
0.719350 0.483354 0.138810
0.775915 0.476756 0.140738
0.831848 0.472979 0.138255
0.878485 0.487139 0.156284
0.135579 0.531735 0.139439
0.131243 0.544571 0.152540
0.150203 0.545098 0.153645
0.182492 0.548570 0.156767
0.232958 0.551409 0.158567
0.297136 0.550791 0.158061
0.363341 0.549240 0.157670
0.425261 0.548125 0.157492
0.486134 0.547013 0.155136
0.550828 0.552857 0.151337
0.619161 0.562869 0.144847
0.676729 0.564758 0.143385
0.730041 0.557910 0.144343
0.784989 0.548324 0.146840
0.841904 0.542355 0.147913
0.888413 0.551430 0.166041
0.139884 0.597485 0.151990
0.135698 0.609408 0.162393
0.153428 0.608978 0.165243
0.185335 0.611628 0.167831
0.230205 0.614782 0.169459
0.290265 0.614587 0.170279
0.356706 0.614866 0.169680
0.420555 0.613193 0.169284
0.481387 0.611768 0.168608
0.541562 0.610456 0.167990
0.607581 0.614317 0.163526
0.679932 0.628988 0.155939
0.741050 0.631192 0.153204
0.795757 0.623204 0.153729
0.851336 0.614833 0.154498
0.897798 0.620967 0.172841
0.140877 0.664156 0.161620
0.137178 0.673767 0.173488
0.155335 0.673266 0.175687
0.185754 0.676059 0.177372
0.228029 0.678100 0.180336
0.281980 0.678878 0.181593
0.347610 0.679849 0.181062
0.413473 0.679039 0.180806
0.476115 0.676467 0.180694
0.536530 0.675038 0.180649
0.598451 0.674601 0.179768
0.665025 0.680004 0.176639
0.740628 0.694144 0.167091
0.806381 0.697423 0.160036
0.862083 0.689439 0.160787
0.908645 0.695703 0.179685
0.139726 0.731987 0.171320
0.134013 0.738691 0.181982
0.153548 0.739538 0.184566
0.184874 0.740518 0.186625
0.226654 0.742766 0.188618
0.275778 0.744072 0.193049
0.336406 0.743954 0.195120
0.403561 0.743336 0.194645
0.467912 0.742623 0.194514
0.530348 0.742353 0.192939
0.591952 0.740333 0.192140
0.654621 0.739391 0.192085
0.722352 0.744078 0.188441
0.803977 0.757891 0.176139
0.873383 0.765000 0.169426
0.918400 0.770057 0.187812
0.138454 0.799678 0.178800
0.130503 0.805139 0.191111
0.148555 0.804661 0.192217
0.181529 0.804705 0.195121
0.224857 0.807498 0.198308
0.272599 0.810205 0.203731
0.327875 0.811023 0.207222
0.392842 0.810641 0.207057
0.458215 0.810642 0.206931
0.521638 0.810890 0.206601
0.586592 0.808550 0.206440
0.649890 0.807616 0.204675
0.712566 0.805407 0.203608
0.781026 0.808316 0.200408
0.863665 0.824912 0.189570
0.923746 0.844523 0.199169
0.135652 0.867752 0.187540
0.128753 0.873528 0.198805
0.143751 0.872665 0.201941
0.174576 0.872498 0.205252
0.222468 0.874105 0.207684
0.270479 0.875774 0.211591
0.321221 0.878854 0.217089
0.380680 0.880316 0.220288
0.447198 0.880761 0.219914
0.512074 0.879231 0.218985
0.576502 0.878110 0.219270
0.643507 0.878381 0.218905
0.707724 0.875429 0.218596
0.773378 0.874557 0.216440
0.844192 0.877546 0.213639
0.905097 0.894380 0.221005
0.134567 0.939606 0.194172
0.127605 0.943220 0.205709
0.142363 0.942651 0.210062
0.173120 0.944167 0.215511
0.220523 0.943882 0.216899
0.268776 0.944928 0.220786
0.317274 0.947021 0.226867
0.370064 0.949628 0.232714
0.435530 0.951433 0.234457
0.502469 0.949925 0.232589
0.568809 0.949188 0.231573
0.635297 0.949669 0.231768
0.701728 0.949642 0.229367
0.769332 0.946958 0.225545
0.837267 0.946239 0.221637
0.883348 0.947872 0.239054
0.191377 0.990842 0.247244
0.194939 0.990412 0.266004
0.212127 0.989878 0.271944
0.239121 0.989452 0.272596
0.276036 0.988926 0.275433
0.320582 0.989060 0.279599
0.366676 0.989148 0.283870
0.412488 0.989420 0.290243
0.467923 0.990160 0.292857
0.533168 0.990368 0.294150
0.597133 0.990719 0.294103
0.658978 0.991195 0.293883
0.721792 0.991329 0.291308
0.785485 0.991350 0.290463
0.849394 0.991397 0.290433
0.893132 0.991394 0.305882
0.036088 0.000000 0.131081
0.074695 0.008026 0.142914
0.126366 0.019133 0.143797
0.178904 0.025010 0.145402
0.231398 0.029886 0.146329
0.285026 0.035790 0.144661
0.337978 0.045343 0.146888
0.390686 0.052406 0.149570
0.446454 0.059707 0.150476
0.500701 0.066781 0.152085
0.556640 0.071881 0.155510
0.614257 0.074229 0.156993
0.674012 0.076788 0.158575
0.736092 0.077960 0.159051
0.798857 0.077871 0.161574
0.848088 0.115796 0.185709
0.066721 0.075453 0.139125
0.091354 0.090288 0.149076
0.139560 0.093967 0.154631
0.192417 0.095319 0.154062
0.246095 0.095485 0.154897
0.301415 0.095463 0.153475
0.356679 0.095907 0.153959
0.410937 0.098344 0.154247
0.463833 0.100684 0.155598
0.519217 0.102762 0.156677
0.573551 0.105598 0.158197
0.629807 0.106940 0.157945
0.688367 0.107510 0.159766
0.747645 0.107338 0.158661
0.807167 0.107584 0.160023
0.855496 0.137622 0.184299
0.103451 0.141864 0.140710
0.110958 0.150239 0.153475
0.149716 0.154297 0.156488
0.201048 0.154740 0.156832
0.254736 0.155749 0.157319
0.308072 0.153884 0.157685
0.361573 0.153943 0.158062
0.415208 0.154865 0.158424
0.468585 0.155614 0.159871
0.523606 0.156588 0.161213
0.578715 0.157846 0.162284
0.634151 0.158553 0.163167
0.692183 0.159844 0.163613
0.750856 0.159291 0.163818
0.810628 0.159108 0.163749
0.857951 0.182966 0.185582
0.132829 0.204345 0.148688
0.133680 0.214664 0.161544
0.156462 0.218463 0.159312
0.206324 0.220269 0.159594
0.263036 0.221320 0.160629
0.316275 0.220782 0.160714
0.368475 0.218029 0.161021
0.420833 0.217974 0.162010
0.474854 0.218589 0.163000
0.528333 0.218883 0.164261
0.581970 0.220107 0.165300
0.637697 0.220693 0.166038
0.695780 0.222611 0.166429
0.753606 0.221106 0.166385
0.813832 0.222539 0.165627
0.860478 0.242768 0.186117
0.146208 0.267645 0.157093
0.143390 0.279832 0.165561
0.159735 0.284025 0.163647
0.202527 0.286624 0.165483
0.262898 0.286645 0.164604
0.323760 0.289387 0.163993
0.378798 0.287518 0.163370
0.429783 0.283657 0.164408
0.481891 0.282350 0.165822
0.534137 0.282962 0.167681
0.587815 0.284815 0.168986
0.643166 0.284916 0.169609
0.699394 0.284787 0.169774
0.758050 0.284596 0.169739
0.816928 0.285342 0.169297
0.864701 0.301884 0.188291
0.150755 0.332334 0.161829
0.145748 0.344578 0.170573
0.161819 0.348552 0.169916
0.198406 0.352409 0.170277
0.256219 0.352463 0.170881
0.319874 0.352943 0.169863
0.383716 0.357104 0.168881
0.439593 0.357115 0.168598
0.491038 0.353486 0.170576
0.542379 0.350231 0.172028
0.594579 0.350390 0.172644
0.648642 0.350374 0.174208
0.704798 0.350059 0.173338
0.761621 0.349074 0.172635
0.819671 0.347250 0.172620
0.868845 0.362056 0.190286
0.154078 0.398846 0.165787
0.148405 0.410841 0.174035
0.164712 0.414839 0.176034
0.196471 0.419152 0.177043
0.249816 0.420176 0.178050
0.312489 0.418209 0.177811
0.377133 0.418621 0.178227
0.441714 0.423321 0.176701
0.501447 0.427010 0.175220
0.553250 0.424259 0.175008
0.603180 0.421141 0.177106
0.655246 0.416969 0.178718
0.711300 0.413682 0.177776
0.766593 0.412440 0.177099
0.824380 0.410553 0.176299
0.874257 0.424592 0.192319
0.158350 0.463779 0.174271
0.152533 0.476463 0.183402
0.166630 0.479143 0.183288
0.196475 0.483403 0.185527
0.245860 0.485336 0.187432
0.307915 0.484465 0.187341
0.371651 0.481968 0.187565
0.434717 0.482271 0.186891
0.498061 0.488581 0.184061
0.560791 0.495505 0.180115
0.613653 0.494386 0.181348
0.664946 0.488969 0.182399
0.719067 0.482401 0.183557
0.775373 0.475693 0.183680
0.831452 0.474527 0.182450
0.879185 0.486286 0.197370
0.162416 0.529831 0.183121
0.156206 0.540378 0.192045
0.170324 0.541895 0.191886
0.199214 0.545693 0.194604
0.243441 0.548671 0.196819
0.302092 0.549548 0.196784
0.366881 0.548133 0.196202
0.427437 0.547042 0.195922
0.489352 0.547457 0.195083
0.552283 0.551878 0.191528
0.619340 0.561706 0.187618
0.676466 0.561788 0.187804
0.729492 0.555869 0.188942
0.784613 0.547152 0.188441
0.841387 0.540486 0.189511
0.887909 0.548388 0.204295
0.165589 0.596050 0.191166
0.159060 0.604920 0.198451
0.174434 0.605931 0.200251
0.202201 0.608731 0.203357
0.242058 0.612366 0.206415
0.296086 0.614868 0.207132
0.360510 0.614805 0.206545
0.422218 0.612754 0.206179
0.483732 0.611057 0.205991
0.544616 0.611360 0.205214
0.608850 0.614746 0.201707
0.680044 0.627443 0.195736
0.740801 0.628389 0.193136
0.795242 0.621639 0.194220
0.850877 0.612995 0.195058
0.897522 0.618784 0.209746
0.164533 0.661330 0.198637
0.159573 0.669965 0.206620
0.174448 0.670056 0.207828
0.201354 0.672747 0.210582
0.241355 0.675858 0.213929
0.289786 0.679025 0.215614
0.351750 0.679541 0.215192
0.416323 0.677764 0.214777
0.477793 0.675894 0.214702
0.539083 0.674873 0.214679
0.599819 0.674412 0.214035
0.665175 0.677999 0.211146
0.741922 0.690776 0.203237
0.806369 0.694257 0.200054
0.861719 0.688724 0.199280
0.908305 0.694497 0.215982
0.161449 0.729625 0.204883
0.156398 0.736216 0.214104
0.172913 0.736408 0.214536
0.199479 0.737717 0.217539
0.240067 0.739497 0.220961
0.285852 0.742373 0.223915
0.341883 0.743199 0.226387
0.407373 0.742766 0.225375
0.469492 0.741983 0.224237
0.531375 0.741790 0.224374
0.593911 0.740436 0.224466
0.655430 0.738352 0.224346
0.723021 0.742974 0.221477
0.804199 0.756370 0.213018
0.872990 0.764059 0.206142
0.918189 0.769565 0.222150
0.155275 0.797960 0.211026
0.149607 0.802069 0.220331
0.169633 0.802988 0.221760
0.197613 0.803792 0.223482
0.237996 0.804636 0.226927
0.282110 0.806537 0.230465
0.331643 0.809224 0.235875
0.394253 0.810326 0.236426
0.460328 0.810417 0.235262
0.522827 0.809005 0.235530
0.585708 0.807585 0.235729
0.650006 0.807388 0.235448
0.714465 0.804963 0.233427
0.783850 0.808111 0.232835
0.866736 0.824511 0.220728
0.926190 0.843525 0.231386
0.152695 0.866013 0.215927
0.144135 0.870076 0.226662
0.161274 0.871644 0.228688
0.193020 0.871031 0.229808
0.235710 0.871491 0.233377
0.279692 0.874364 0.237083
0.325836 0.877649 0.243068
0.384276 0.879669 0.246155
0.450520 0.879973 0.246149
0.515427 0.878183 0.246572
0.579584 0.877666 0.246965
0.645897 0.877949 0.245313
0.710918 0.875189 0.244163
0.774884 0.874093 0.246670
0.845008 0.877252 0.242290
0.906382 0.894191 0.249462
0.149459 0.935929 0.221763
0.141425 0.942348 0.232543
0.155713 0.941602 0.236048
0.185245 0.941224 0.238683
0.233283 0.942777 0.240276
0.279342 0.944340 0.244210
0.325421 0.946484 0.250294
0.375798 0.948813 0.255977
0.437654 0.949085 0.259545
0.505329 0.948429 0.259560
0.570904 0.949087 0.258971
0.636275 0.949598 0.259150
0.703002 0.947595 0.256641
0.772230 0.946317 0.256043
0.838041 0.946212 0.252597
0.883949 0.947790 0.266620
0.205415 0.990372 0.274354
0.208930 0.990821 0.291254
0.225306 0.989690 0.292236
0.251370 0.989077 0.296988
0.288778 0.988938 0.298104
0.330998 0.988815 0.301760
0.373131 0.988966 0.306266
0.417507 0.989430 0.311473
0.471818 0.989778 0.316074
0.535199 0.990249 0.316838
0.597833 0.990738 0.316856
0.659548 0.991176 0.317869
0.724571 0.991301 0.315497
0.788933 0.991355 0.314686
0.852655 0.991276 0.313718
0.893960 0.991394 0.329384
0.040446 0.000000 0.183365
0.074400 0.004522 0.195612
0.122231 0.012658 0.200097
0.176751 0.024302 0.204202
0.231510 0.033535 0.204244
0.284977 0.038549 0.205041
0.337901 0.042921 0.205390
0.390568 0.047772 0.208217
0.446422 0.054389 0.209100
0.500716 0.063280 0.212330
0.556651 0.068983 0.214785
0.615465 0.074168 0.216954
0.676225 0.077054 0.219543
0.736208 0.080087 0.220303
0.798397 0.080493 0.222180
0.842765 0.112480 0.238956
0.067316 0.069073 0.191701
0.085618 0.080774 0.204042
0.134026 0.086248 0.209762
0.190706 0.093509 0.213689
0.245931 0.095429 0.214919
0.300422 0.095405 0.214534
0.355297 0.095896 0.214986
0.410445 0.096634 0.214091
0.463950 0.099927 0.216337
0.519140 0.103541 0.217874
0.573452 0.104891 0.219493
0.629835 0.106601 0.220602
0.688216 0.107373 0.221116
0.747689 0.107517 0.221436
0.806509 0.108882 0.222051
0.849933 0.135710 0.237948
0.081024 0.127557 0.193249
0.094940 0.136430 0.205614
0.139732 0.143417 0.212311
0.199623 0.151522 0.216770
0.253908 0.155485 0.217802
0.307098 0.153868 0.218010
0.361716 0.154371 0.218448
0.415369 0.154988 0.217972
0.468304 0.155810 0.220072
0.523451 0.156697 0.221670
0.578130 0.158346 0.222448
0.633894 0.158792 0.223664
0.692185 0.159927 0.223969
0.751383 0.159091 0.224450
0.810123 0.159716 0.225541
0.852731 0.180611 0.239290
0.122319 0.195403 0.197572
0.125593 0.205906 0.209423
0.157553 0.210353 0.214492
0.209775 0.215198 0.217753
0.265136 0.218933 0.218747
0.316865 0.219174 0.218985
0.369581 0.218588 0.219645
0.421321 0.217747 0.220206
0.474180 0.218713 0.222422
0.527936 0.219145 0.222937
0.581061 0.221182 0.223510
0.637312 0.220981 0.225009
0.695666 0.222545 0.224813
0.754842 0.221644 0.225575
0.813546 0.222143 0.225874
0.857181 0.239327 0.240963
0.161779 0.263107 0.207279
0.164960 0.274919 0.220766
0.184266 0.279410 0.222911
0.217970 0.282316 0.222116
0.269278 0.284508 0.222541
0.325081 0.285476 0.222550
0.379748 0.284152 0.223435
0.430819 0.281953 0.224387
0.481911 0.281801 0.224766
0.534038 0.282886 0.225988
0.586686 0.283776 0.227111
0.642600 0.284172 0.227630
0.699316 0.284581 0.227301
0.757820 0.285117 0.227685
0.816594 0.284996 0.228368
0.861616 0.299331 0.242670
0.188097 0.327555 0.218820
0.188329 0.339636 0.232333
0.199246 0.343639 0.230764
0.222259 0.348046 0.227331
0.265718 0.350605 0.226385
0.325570 0.351650 0.226856
0.386550 0.354232 0.226175
0.440660 0.353182 0.226254
0.492281 0.350343 0.228036
0.542658 0.349177 0.229195
0.594304 0.349388 0.229761
0.648513 0.349759 0.230736
0.704466 0.348996 0.229651
0.762813 0.348059 0.230330
0.819444 0.347689 0.230269
0.866803 0.360247 0.242900
0.201030 0.391837 0.229130
0.197984 0.405402 0.239803
0.204991 0.408296 0.237290
0.223168 0.413886 0.231754
0.262143 0.417033 0.230924
0.319680 0.417910 0.231476
0.382450 0.418166 0.230573
0.445525 0.422949 0.230310
0.503111 0.424547 0.230463
0.553410 0.421032 0.230587
0.604183 0.418095 0.231857
0.656711 0.414545 0.233438
0.711412 0.412707 0.233071
0.767189 0.411611 0.232083
0.824089 0.410556 0.231237
0.871737 0.421261 0.245064
0.206790 0.458629 0.237396
0.200714 0.471054 0.244761
0.206716 0.473114 0.241514
0.224940 0.478430 0.236703
0.261000 0.481984 0.236766
0.315088 0.483413 0.238059
0.376998 0.481294 0.237908
