entry/src/main/resources/rawfile/filters/VEL_Classic_Teal_Orange.cube
TITLE "Classic Teal & Orange"
LUT_3D_SIZE 6
-0.000047 -0.000047 0.024650
0.075064 -0.000234 0.009583
0.277130 -0.000780 -0.000780
0.461721 -0.001163 -0.001163
0.617412 -0.001464 -0.001464
0.738078 -0.001676 -0.001726
-0.000505 0.091779 0.068459
0.092676 0.077347 0.024934
0.270014 0.101647 -0.000889
0.433486 0.126987 -0.001218
0.581463 0.143394 -0.001489
0.708713 0.157350 -0.001747
0.035099 0.241487 0.141543
0.124551 0.242828 0.133515
0.358179 0.244498 0.009469
0.567671 0.296887 0.002969
0.724574 0.332200 -0.001259
0.812877 0.349337 -0.002306
0.053532 0.385798 0.176376
0.097417 0.419906 0.149446
0.368214 0.391681 0.085197
0.579644 0.423200 0.015850
0.759372 0.463346 0.011252
0.846488 0.478957 0.005217
0.048536 0.565556 0.189344
0.069204 0.608225 0.147898
0.389064 0.573182 0.086188
0.573419 0.574894 0.035539
0.760121 0.601449 0.020747
0.862640 0.605841 0.019801
0.030188 0.744684 0.178195
0.044505 0.775438 0.124214
0.399318 0.759143 0.047910
0.586108 0.734840 0.032021
0.757484 0.747086 0.022951
0.866548 0.743831 0.025507
-0.000116 0.012366 0.051914
0.046368 0.023950 0.104905
0.330563 0.004583 0.089594
0.574437 -0.001385 0.074611
0.721376 -0.001683 0.063713
0.827708 -0.001947 0.054917
-0.000524 0.092027 0.111584
0.034377 0.109219 0.137858
0.302136 0.116495 0.110790
0.550581 0.111958 0.060503
0.711842 0.113662 0.040192
0.816769 0.116069 0.031481
0.008925 0.251295 0.191444
0.048707 0.269352 0.198080
0.353541 0.278567 0.146151
0.598072 0.322515 0.059779
0.759620 0.347852 0.033060
0.844761 0.358701 0.027360
0.029537 0.414178 0.243352
0.053042 0.446299 0.244984
0.359740 0.436164 0.175873
0.601158 0.471306 0.110514
0.778332 0.501661 0.057886
0.863932 0.512245 0.045160
0.033109 0.599474 0.274640
0.046054 0.636831 0.267259
0.366395 0.654413 0.156394
0.587570 0.629725 0.113946
0.777783 0.648057 0.091240
0.877674 0.648568 0.073056
0.022879 0.771062 0.280186
0.030281 0.797433 0.268292
0.344971 0.829091 0.128464
0.591034 0.789833 0.112913
0.771774 0.790750 0.093750
0.882606 0.782815 0.097996
-0.000301 0.047557 0.093035
-0.000514 0.085773 0.147960
0.231154 0.069575 0.245815
0.476677 0.038824 0.282382
0.677377 0.028508 0.287871
0.818754 0.019055 0.275450
-0.000648 0.113944 0.154916
-0.000747 0.139254 0.191185
0.229854 0.162953 0.277946
0.520650 0.144676 0.304248
0.764549 0.106379 0.293251
0.876852 0.083849 0.269237
-0.001280 0.246676 0.259799
-0.001403 0.275814 0.286646
0.248441 0.351336 0.397353
0.584751 0.361055 0.352921
0.782843 0.378075 0.330033
0.880079 0.377804 0.305178
-0.001922 0.418131 0.332600
-0.001959 0.451633 0.350778
0.304335 0.547799 0.414201
0.601170 0.544935 0.396021
0.794815 0.571529 0.351191
0.887141 0.576653 0.316319
-0.002583 0.615288 0.384621
0.013830 0.651711 0.399121
0.263299 0.732828 0.413358
0.601108 0.712297 0.396003
0.797381 0.714698 0.393414
0.896464 0.714880 0.358377
-0.003228 0.787251 0.398619
0.004305 0.811407 0.407605
0.223626 0.863266 0.395329
0.584180 0.861933 0.372902
0.783243 0.839826 0.368319
0.900413 0.830495 0.384403
-0.000452 0.075634 0.124991
-0.000651 0.112897 0.175902
0.198033 0.138240 0.301928
0.398965 0.095641 0.374602
0.588295 0.069100 0.414123
0.762243 0.047801 0.425786
-0.000747 0.133023 0.180680
-0.000896 0.163683 0.224971
0.170761 0.208115 0.454659
0.407861 0.188263 0.415424
0.651273 0.161034 0.466861
0.822619 0.124995 0.467950
-0.001362 0.269086 0.316621
-0.001438 0.288553 0.341953
0.188932 0.398449 0.502191
0.526091 0.389988 0.559863
0.793268 0.379918 0.537317
0.907289 0.364456 0.493442
-0.001885 0.400596 0.410475
-0.002052 0.445013 0.448992
0.197014 0.559587 0.580647
0.545725 0.606556 0.644080
0.805559 0.617413 0.590297
0.897854 0.619488 0.572101
-0.002513 0.586393 0.478360
-0.002701 0.643496 0.505308
0.174948 0.735396 0.580913
0.608876 0.769971 0.627857
0.807936 0.758667 0.633822
0.899587 0.762334 0.609379
-0.003214 0.777392 0.506312
-0.003357 0.811924 0.519010
0.161406 0.866760 0.575096
0.601026 0.884926 0.629314
0.800846 0.868721 0.638138
0.906970 0.862758 0.651912
-0.000619 0.107543 0.161564
-0.000806 0.144587 0.213321
0.110155 0.215704 0.488852
0.394494 0.152196 0.452877
0.547046 0.114594 0.521849
0.704165 0.090473 0.554582
-0.000869 0.157883 0.214134
-0.001030 0.192769 0.265586
0.075964 0.282322 0.507856
0.400070 0.221588 0.519836
0.591684 0.193312 0.577248
0.752705 0.165497 0.607999
-0.001455 0.295869 0.374300
-0.001586 0.330279 0.431197
0.149491 0.444032 0.598851
0.483571 0.421043 0.748814
0.718933 0.422279 0.694878
0.853745 0.406718 0.683066
-0.001995 0.438421 0.510450
-0.002086 0.465281 0.540585
0.156269 0.593186 0.707090
0.529203 0.630663 0.746921
0.792290 0.632498 0.748055
0.914778 0.619211 0.716261
-0.002531 0.581943 0.578875
-0.002733 0.639091 0.625256
0.148015 0.733844 0.717183
0.565684 0.769087 0.756492
0.819086 0.788944 0.773716
0.910594 0.793722 0.756609
-0.003147 0.755307 0.613382
-0.003331 0.797360 0.630738
0.131534 0.861770 0.689863
0.574836 0.886930 0.745470
0.820062 0.893623 0.780113
0.915056 0.883538 0.787102
-0.000798 0.143062 0.204594
-0.000977 0.180714 0.260841
0.036280 0.274452 0.497067
0.360214 0.218463 0.606737
0.540006 0.172652 0.599711
0.701678 0.119717 0.668470
-0.001043 0.195600 0.269129
-0.001196 0.231265 0.322850
0.034999 0.327296 0.534013
0.346044 0.267141 0.753053
0.571797 0.240092 0.658453
0.740400 0.190274 0.722711
-0.001586 0.332467 0.451879
-0.001827 0.397694 0.556750
0.124851 0.490798 0.694409
0.397208 0.467679 0.861796
0.700190 0.450333 0.789710
0.822667 0.438822 0.806440
-0.002119 0.477072 0.615779
-0.002267 0.514580 0.671553
0.137273 0.630051 0.796459
0.484440 0.653601 0.841452
0.774400 0.655208 0.853514
0.871086 0.656807 0.848791
-0.002651 0.617821 0.702479
-0.002813 0.656873 0.743441
0.136774 0.743458 0.845825
0.504772 0.775840 0.859369
0.809793 0.806485 0.889390
0.903450 0.807950 0.873656
-0.003228 0.762641 0.741054
-0.003394 0.801283 0.771852
0.129171 0.860389 0.830313
0.517098 0.882014 0.855134
0.813049 0.899423 0.879341
0.924383 0.904435 0.889055
