entry/src/main/resources/rawfile/filters/VEL_Warm_Film.cube
TITLE "Warm Film"
LUT_3D_SIZE 16
0.056825 0.143282 0.168154
0.062132 0.143885 0.168531
0.073859 0.144835 0.169252
0.093254 0.146066 0.170083
0.124573 0.147468 0.170729
0.169162 0.149035 0.171389
0.229224 0.150341 0.171918
0.305810 0.150562 0.172208
0.397378 0.148066 0.172031
0.500920 0.141778 0.171359
0.610951 0.133725 0.170291
0.719553 0.131842 0.169165
0.824469 0.147704 0.170117
0.921174 0.188966 0.177300
0.996346 0.252796 0.199614
1.000000 0.330236 0.246479
0.057093 0.146547 0.169595
0.062991 0.147121 0.169194
0.077469 0.147976 0.168977
0.099000 0.149327 0.169441
0.131311 0.151170 0.170056
0.176898 0.153590 0.170468
0.238458 0.156118 0.170788
0.316023 0.157738 0.170641
0.408065 0.157066 0.170066
0.511211 0.153462 0.168904
0.619364 0.149155 0.167247
0.726389 0.151438 0.165669
0.828645 0.169166 0.166199
0.923487 0.208266 0.173267
0.996568 0.267932 0.195871
1.000000 0.341111 0.243540
0.057230 0.152834 0.171698
0.062248 0.153145 0.171517
0.076648 0.155380 0.170424
0.104933 0.157924 0.169503
0.141543 0.160205 0.169143
0.189550 0.163795 0.168938
0.252851 0.168091 0.168628
0.331900 0.172101 0.167779
0.423832 0.174560 0.166254
0.525199 0.175350 0.164079
0.630858 0.176708 0.161351
0.733803 0.184045 0.158690
0.833072 0.203503 0.158340
0.925270 0.239160 0.165002
0.996629 0.291785 0.187738
1.000000 0.359414 0.237376
0.054359 0.165722 0.175094
0.061206 0.165838 0.175087
0.073748 0.167665 0.174273
0.104135 0.173331 0.171909
0.151993 0.179546 0.169844
0.206781 0.183950 0.168553
0.275080 0.189394 0.166941
0.355534 0.195636 0.165090
0.446902 0.201666 0.162436
0.545705 0.207498 0.158497
0.646415 0.215341 0.153211
0.744382 0.228542 0.147525
0.838777 0.249225 0.145064
0.927302 0.280962 0.151098
0.996706 0.325982 0.174300
1.000000 0.383929 0.225458
0.047269 0.189835 0.181253
0.057130 0.189830 0.181173
0.073636 0.190290 0.180875
0.101229 0.196362 0.178324
0.153340 0.207296 0.173806
0.227544 0.220051 0.168964
0.303317 0.227874 0.165733
0.386845 0.234973 0.161754
0.476922 0.241919 0.156944
0.571343 0.250668 0.151600
0.666299 0.262621 0.145056
0.757475 0.278901 0.137183
0.845894 0.301747 0.128603
0.929885 0.330822 0.129596
0.996395 0.367449 0.154480
1.000000 0.415499 0.208475
0.027481 0.229872 0.190992
0.044485 0.229653 0.190795
0.070442 0.229007 0.190340
0.102911 0.231977 0.188568
0.152940 0.245355 0.182981
0.231447 0.263455 0.174557
0.336315 0.285427 0.163971
0.425084 0.295350 0.157602
0.513943 0.303497 0.150527
0.602171 0.311130 0.141871
0.687789 0.320693 0.132045
0.771443 0.336125 0.122713
0.853576 0.356914 0.113431
0.932319 0.383136 0.106377
0.996650 0.414041 0.125868
1.000000 0.452094 0.185860
0.000830 0.288966 0.204331
0.009496 0.288074 0.203878
0.056359 0.286682 0.203193
0.105315 0.285306 0.201874
0.158933 0.296817 0.196289
0.235874 0.317050 0.186369
0.337587 0.340957 0.172010
0.462510 0.371026 0.152364
0.553515 0.381446 0.141363
0.635312 0.388687 0.130623
0.712252 0.395440 0.118555
0.786412 0.402768 0.104303
0.861304 0.415666 0.090820
0.935467 0.437017 0.085839
0.996910 0.462954 0.095324
1.000000 0.493397 0.157699
0.000000 0.363676 0.222291
0.000038 0.362134 0.221624
0.029959 0.359089 0.220243
0.108368 0.355648 0.218524
0.170896 0.358220 0.214356
0.246564 0.378191 0.203220
0.343094 0.402605 0.187808
0.454611 0.429231 0.166696
0.581571 0.463104 0.135165
0.666480 0.473898 0.118064
0.735846 0.476820 0.105518
0.803942 0.480709 0.090517
0.871938 0.485062 0.071873
0.939869 0.493545 0.056801
0.997226 0.513667 0.077059
1.000000 0.538051 0.124367
0.000000 0.446747 0.247773
0.000000 0.443518 0.246125
0.021777 0.439242 0.243837
0.121058 0.433911 0.241057
0.190955 0.428681 0.237657
0.263546 0.442421 0.227654
0.353091 0.465746 0.211994
0.455382 0.491542 0.191760
0.564754 0.518942 0.163807
0.678591 0.551143 0.123700
0.756602 0.560292 0.101787
0.819300 0.560042 0.088831
0.882352 0.560393 0.073399
0.945433 0.561571 0.057946
0.997577 0.566851 0.058299
1.000000 0.585489 0.117900
0.000000 0.532598 0.282624
0.003361 0.528470 0.280276
0.069460 0.522783 0.276748
0.155635 0.516414 0.272782
0.224724 0.509571 0.268299
0.290776 0.510125 0.261313
0.372030 0.531125 0.247290
0.463314 0.554636 0.229697
0.559295 0.579118 0.207500
0.657932 0.604549 0.177280
0.759233 0.632797 0.135747
0.831363 0.639564 0.116224
0.890238 0.636061 0.107737
0.949101 0.632769 0.102029
0.997785 0.631923 0.104483
1.000000 0.636005 0.126830
0.079983 0.617334 0.331980
0.115796 0.612627 0.328180
0.164283 0.607094 0.323771
0.219248 0.600524 0.318298
0.276889 0.593617 0.312578
0.334620 0.587296 0.306749
0.401184 0.597701 0.296563
0.478683 0.618090 0.283396
0.561135 0.639576 0.267410
0.646869 0.661614 0.247024
0.735896 0.684142 0.218986
0.827553 0.707611 0.184351
0.894729 0.710219 0.172574
0.950100 0.703557 0.173020
0.997634 0.698689 0.180848
1.000000 0.698182 0.200580
0.247591 0.694965 0.398540
0.256338 0.690916 0.393989
0.276508 0.685663 0.388231
0.308515 0.679900 0.381917
0.349182 0.673922 0.375447
0.394405 0.667942 0.368935
0.443286 0.665843 0.362532
0.504155 0.681028 0.354036
0.571889 0.699377 0.344209
0.644278 0.718366 0.332150
0.720828 0.737365 0.315884
0.802050 0.756423 0.292678
0.886340 0.773659 0.267167
0.947976 0.771587 0.264801
0.996124 0.764317 0.275357
1.000000 0.761222 0.297394
0.386417 0.765417 0.482280
0.387752 0.761828 0.477129
0.396097 0.757834 0.471537
0.412853 0.753384 0.465324
0.437694 0.748789 0.458927
0.469230 0.744628 0.453172
0.504287 0.740833 0.447777
0.544858 0.743210 0.443498
0.596724 0.758158 0.439515
0.653651 0.773691 0.434315
0.716004 0.789450 0.427405
0.783478 0.804782 0.416351
0.858007 0.819634 0.398104
0.935484 0.831339 0.379909
0.989002 0.827089 0.388366
1.000000 0.823099 0.412223
0.513475 0.827218 0.576479
0.512722 0.824916 0.572542
0.515324 0.822074 0.567600
0.523510 0.819028 0.562603
0.537993 0.816218 0.558012
0.557726 0.813612 0.553708
0.582000 0.811739 0.550435
0.609462 0.810898 0.548799
0.641746 0.814897 0.548223
0.683590 0.827461 0.549177
0.729720 0.839774 0.548869
0.781272 0.852057 0.546664
0.839549 0.863955 0.540160
0.905549 0.875140 0.526528
0.972627 0.883104 0.514911
1.000000 0.881291 0.534607
0.629616 0.879366 0.674291
0.627958 0.877886 0.671302
0.628540 0.876274 0.668037
0.632542 0.874623 0.664805
0.640657 0.873171 0.661965
0.653273 0.872307 0.660303
0.669540 0.872046 0.659760
0.688779 0.872668 0.660911
0.710837 0.874238 0.663940
0.736224 0.878707 0.667421
0.768327 0.888627 0.671961
0.804009 0.898352 0.674803
0.845196 0.907695 0.674317
0.893568 0.916687 0.669753
0.947332 0.924635 0.659912
0.997515 0.930176 0.652391
0.731594 0.923476 0.766522
0.730916 0.922904 0.765326
0.731169 0.922078 0.763600
0.734008 0.921581 0.762518
0.739788 0.921487 0.762292
0.748597 0.921925 0.763134
0.760421 0.923091 0.765512
0.774814 0.925145 0.769663
0.791028 0.927762 0.774956
0.809024 0.930901 0.781241
0.829455 0.936212 0.787055
0.853716 0.944034 0.791255
0.881928 0.951483 0.793204
0.914731 0.957933 0.791317
0.952138 0.963523 0.786703
0.990005 0.968124 0.781476
0.057050 0.143732 0.170607
0.062365 0.144160 0.170403
0.073349 0.145100 0.171073
0.092882 0.146672 0.171996
0.124558 0.148642 0.172867
0.169827 0.150846 0.173394
0.230667 0.153067 0.173822
0.307535 0.154216 0.173841
0.399459 0.152843 0.173380
0.503012 0.148490 0.172078
0.612204 0.143220 0.169846
0.720628 0.143887 0.167783
0.824858 0.160367 0.167896
0.921202 0.199111 0.174959
0.996370 0.259622 0.197640
1.000000 0.333995 0.245275
0.057433 0.146836 0.171554
0.063191 0.147504 0.171925
0.075956 0.148484 0.172147
0.097843 0.149971 0.172600
0.130902 0.152163 0.173131
0.177363 0.155021 0.173563
0.239496 0.158064 0.173839
0.317815 0.160163 0.173737
0.410118 0.160193 0.173050
0.512893 0.157964 0.171366
0.620952 0.155936 0.168630
0.726954 0.161234 0.164938
0.828927 0.179648 0.164286
0.923673 0.217070 0.171008
0.996554 0.273740 0.193936
1.000000 0.344556 0.242423
0.059759 0.153517 0.174553
0.063972 0.154329 0.174479
0.077382 0.155836 0.173637
0.104861 0.157947 0.173039
0.140994 0.160434 0.173110
0.189502 0.164168 0.173345
0.253749 0.168555 0.173407
0.333144 0.172550 0.172986
0.425360 0.175127 0.171817
0.526923 0.176410 0.169765
0.631934 0.179101 0.166363
0.734600 0.189089 0.161717
0.833281 0.210886 0.157715
0.925142 0.245970 0.162957
0.996609 0.296725 0.185899
1.000000 0.362011 0.236168
0.060077 0.167413 0.179578
0.064300 0.167830 0.178827
0.076420 0.168824 0.178281
0.105515 0.173980 0.175972
0.152263 0.179312 0.174122
0.207288 0.183525 0.173069
0.275533 0.188908 0.172086
0.356525 0.195188 0.170973
0.448190 0.200919 0.169150
0.546746 0.206456 0.166289
0.647643 0.214343 0.162139
0.745116 0.228279 0.156711
0.838964 0.251782 0.150503
0.927188 0.285696 0.150188
0.996660 0.329320 0.172599
1.000000 0.385835 0.224375
0.053314 0.192424 0.186418
0.061120 0.192567 0.185784
0.077319 0.192515 0.185401
0.103646 0.197545 0.183223
0.155080 0.207993 0.178748
0.227907 0.219602 0.174309
0.303805 0.226909 0.171390
0.387202 0.233474 0.167794
0.477225 0.240396 0.163922
0.572119 0.249410 0.159864
0.666715 0.261090 0.154695
0.757937 0.277550 0.148444
0.846108 0.300679 0.141673
0.929511 0.331965 0.136408
0.996240 0.369671 0.153189
1.000000 0.416380 0.207387
0.033351 0.233084 0.196681
0.049120 0.232816 0.196215
0.074810 0.232248 0.195721
0.106759 0.233762 0.194214
0.155256 0.246333 0.188821
0.233755 0.264182 0.180587
0.336521 0.284512 0.170950
0.424832 0.293801 0.165167
0.513414 0.301301 0.158705
0.601547 0.308547 0.150898
0.687645 0.318500 0.142582
0.771275 0.334304 0.135322
0.853278 0.355311 0.128330
0.931967 0.382108 0.123620
0.996549 0.414408 0.129755
1.000000 0.452345 0.184801
0.001847 0.292631 0.210950
0.015001 0.291862 0.210349
0.062260 0.290177 0.209484
0.110409 0.288319 0.208184
0.162260 0.297803 0.203154
0.237455 0.317586 0.193483
0.339400 0.341322 0.179768
0.462545 0.369740 0.161673
0.552183 0.379051 0.152086
0.634298 0.386275 0.142260
0.711045 0.392390 0.131322
0.785509 0.399828 0.118785
0.860751 0.413802 0.108766
0.934808 0.435521 0.106203
0.996837 0.462095 0.114777
1.000000 0.493010 0.156927
0.000000 0.367623 0.230372
0.000150 0.365687 0.229435
0.040410 0.362840 0.227901
0.114983 0.359069 0.225869
0.175409 0.359284 0.222094
0.248832 0.378523 0.211611
0.343898 0.402429 0.196801
0.455254 0.428765 0.176751
0.581382 0.461918 0.148435
0.664646 0.471189 0.133764
0.734593 0.474250 0.122472
0.802670 0.477878 0.109520
0.870795 0.482209 0.093659
0.939231 0.491997 0.083444
0.997122 0.512528 0.100426
1.000000 0.537629 0.137887
0.000000 0.450056 0.257167
0.000003 0.446922 0.255483
0.039083 0.442151 0.252752
0.129788 0.436770 0.249657
0.197081 0.430933 0.246049
0.266510 0.442056 0.236957
0.354425 0.465397 0.222127
0.455758 0.490958 0.203033
0.564552 0.517993 0.177089
0.678304 0.549955 0.141604
0.755011 0.557886 0.123758
0.817954 0.557780 0.112452
0.881302 0.558211 0.099664
0.944449 0.559450 0.085962
0.997464 0.565897 0.086991
1.000000 0.584967 0.136938
0.000994 0.535288 0.293201
0.009833 0.530913 0.290321
0.088241 0.525266 0.286613
0.165154 0.518637 0.282221
0.231201 0.511535 0.277373
0.294918 0.510192 0.270986
0.373525 0.530231 0.257721
0.463640 0.553746 0.241249
0.559206 0.578294 0.220601
0.657376 0.603571 0.192786
0.758465 0.631499 0.156843
0.830068 0.637746 0.140329
0.889045 0.634241 0.132297
0.948208 0.631363 0.126130
0.997672 0.630489 0.125655
1.000000 0.635385 0.145668
0.107600 0.618687 0.342438
0.134328 0.614305 0.338560
0.176521 0.608365 0.333575
0.228052 0.601897 0.327999
0.283517 0.595079 0.322060
0.339072 0.588159 0.315889
0.403444 0.596709 0.306630
0.479612 0.617147 0.294166
0.560954 0.638510 0.279180
0.646591 0.660825 0.260341
0.735366 0.683332 0.234428
0.826967 0.706830 0.203673
0.893727 0.709107 0.193358
0.949113 0.702495 0.191852
0.997515 0.697937 0.197201
1.000000 0.697657 0.214066
0.259018 0.695746 0.408095
0.266523 0.691538 0.403213
0.285075 0.686284 0.397287
0.315605 0.680569 0.390861
0.354552 0.674514 0.384149
0.398889 0.668765 0.377630
0.446078 0.665506 0.371147
0.505356 0.679917 0.363248
0.572368 0.698543 0.354213
0.644081 0.717469 0.342892
0.720540 0.736754 0.327894
0.801649 0.755986 0.306250
0.885713 0.773150 0.282755
0.947131 0.771224 0.280285
0.995640 0.764005 0.288585
1.000000 0.761168 0.308786
0.392525 0.765311 0.489279
0.394043 0.761964 0.484443
0.401690 0.757928 0.478550
0.417557 0.753458 0.472028
0.441825 0.749010 0.465691
0.472256 0.744670 0.459468
0.507119 0.741054 0.454192
0.546531 0.742572 0.450096
0.597406 0.757248 0.446446
0.654207 0.773173 0.442236
0.716130 0.789005 0.435858
0.783349 0.804494 0.425641
0.857817 0.819626 0.408651
0.934872 0.831251 0.391434
0.988375 0.827292 0.399559
1.000000 0.823526 0.422135
0.516277 0.827046 0.580573
0.515065 0.824642 0.576208
0.517694 0.821908 0.571365
0.525674 0.818925 0.566300
0.539634 0.816037 0.561424
0.559440 0.813607 0.557322
0.583528 0.811726 0.554029
0.610684 0.810904 0.552473
0.642814 0.814593 0.552424
0.684255 0.827138 0.553700
0.730304 0.839647 0.553919
0.781772 0.852125 0.552421
0.839691 0.864039 0.546316
0.905668 0.875562 0.533880
0.972326 0.883459 0.522580
1.000000 0.881798 0.542065
0.630080 0.879009 0.675526
0.628681 0.877726 0.672861
0.629120 0.876037 0.669435
0.633171 0.874433 0.666220
0.641443 0.873126 0.663609
0.653924 0.872261 0.661879
0.670479 0.872155 0.661713
0.690044 0.872988 0.663422
0.711798 0.874431 0.666233
0.737359 0.878915 0.670440
0.769242 0.888836 0.675087
0.804743 0.898562 0.678076
0.846079 0.908211 0.678540
0.894016 0.917120 0.673944
0.947602 0.925216 0.664764
0.997728 0.930805 0.657823
0.731829 0.923395 0.767087
0.730768 0.922697 0.765580
0.731387 0.922035 0.764144
0.734534 0.921670 0.763364
0.740195 0.921531 0.763047
0.749363 0.922122 0.764249
0.761321 0.923398 0.766864
0.775747 0.925448 0.771092
0.792303 0.928292 0.776873
0.810134 0.931393 0.783107
0.830606 0.936695 0.789220
0.854956 0.944611 0.793701
0.882910 0.951961 0.795537
0.915741 0.958518 0.793982
0.952905 0.964104 0.789483
0.990477 0.968632 0.784358
0.057889 0.144443 0.174678
0.063965 0.144944 0.174467
0.072783 0.145363 0.174477
0.094028 0.146403 0.176055
0.125914 0.148155 0.177691
0.170191 0.151327 0.180234
0.231412 0.154183 0.182643
0.309657 0.155081 0.184462
0.402465 0.153122 0.185669
0.505983 0.147957 0.186174
0.615383 0.142235 0.185673
0.723056 0.144473 0.184331
0.826327 0.165230 0.182200
0.921963 0.208688 0.181140
0.996396 0.267989 0.196335
1.000000 0.338965 0.243842
0.056677 0.147878 0.176301
0.064054 0.148361 0.176568
0.075096 0.149175 0.176571
0.096987 0.150754 0.178091
0.129657 0.153444 0.180003
0.176899 0.156636 0.181890
0.240325 0.159405 0.183500
0.319660 0.160969 0.184788
0.412653 0.160205 0.185634
0.516032 0.157076 0.185846
0.623646 0.154536 0.185102
0.729267 0.160120 0.183520
0.830515 0.182257 0.181408
0.924073 0.224452 0.179919
0.996573 0.281440 0.193410
1.000000 0.349173 0.241174
0.058634 0.154209 0.178596
0.065188 0.155187 0.179230
0.078398 0.156654 0.179783
0.103064 0.158726 0.180291
0.139171 0.161582 0.181301
0.188986 0.165286 0.182406
0.254285 0.169302 0.183423
0.334925 0.172711 0.184283
0.427755 0.174584 0.184688
0.529337 0.175156 0.184393
0.634463 0.177370 0.183182
0.736660 0.187309 0.181116
0.834468 0.210712 0.178463
0.925633 0.250604 0.176942
0.996622 0.302886 0.186936
1.000000 0.365613 0.234844
0.061973 0.168357 0.185010
0.069582 0.169660 0.185621
0.080720 0.170996 0.185281
0.107186 0.174762 0.183465
0.152824 0.178933 0.182237
0.207587 0.182960 0.182055
0.276344 0.188549 0.182401
0.357881 0.194459 0.182681
0.449806 0.199657 0.182383
0.548878 0.204784 0.181382
0.649300 0.212168 0.179408
0.746637 0.226179 0.176627
0.840072 0.250475 0.173468
0.927392 0.286865 0.171771
0.996637 0.333764 0.177685
1.000000 0.388715 0.223064
0.063672 0.194702 0.195663
0.071706 0.195963 0.195500
0.083288 0.196533 0.193812
0.107775 0.199124 0.192146
0.157572 0.208991 0.187878
0.228941 0.218760 0.184241
0.304547 0.224762 0.181923
0.388080 0.230923 0.179653
0.478634 0.238229 0.177806
0.573287 0.247080 0.175781
0.668009 0.258715 0.172912
0.758875 0.275225 0.169377
0.846578 0.298869 0.165815
0.929661 0.331408 0.164036
0.996077 0.371692 0.168820
1.000000 0.418108 0.206439
0.058894 0.237340 0.210404
0.064411 0.238075 0.208218
0.081798 0.237656 0.205666
0.113234 0.237403 0.204390
0.159018 0.247985 0.199688
0.236952 0.265258 0.191815
0.337304 0.282937 0.183725
0.424818 0.290922 0.179006
0.513026 0.297215 0.173592
0.601521 0.304363 0.167536
0.687887 0.315277 0.162316
0.771571 0.331666 0.158219
0.853393 0.353213 0.154523
0.931603 0.380754 0.153335
0.996463 0.414627 0.159968
1.000000 0.453229 0.187394
0.028288 0.298734 0.228021
0.034539 0.298231 0.224145
0.071553 0.296731 0.221480
0.118587 0.294491 0.219827
0.168189 0.299354 0.215885
0.240823 0.318793 0.206802
0.342456 0.341943 0.193946
0.463514 0.368041 0.178662
0.551140 0.375600 0.170919
0.632801 0.381692 0.162748
0.709999 0.387634 0.153458
0.784813 0.395450 0.143718
0.860355 0.411364 0.138879
0.934348 0.434089 0.139724
0.996730 0.461571 0.149879
1.000000 0.493466 0.175329
0.006454 0.374194 0.249806
0.007811 0.372709 0.245529
0.059737 0.369499 0.242594
0.126786 0.365487 0.240039
0.184436 0.362856 0.236620
0.253344 0.379103 0.227194
0.346331 0.402882 0.213513
0.457401 0.428840 0.195348
0.581957 0.460118 0.171548
0.662960 0.467556 0.160359
0.732986 0.470201 0.150878
0.801322 0.473591 0.140112
0.869904 0.478200 0.127377
0.938393 0.490078 0.123693
0.996998 0.511933 0.140277
1.000000 0.537939 0.173274
0.003652 0.456654 0.277873
0.004038 0.453270 0.273595
0.070108 0.448479 0.270049
0.146065 0.442903 0.266391
0.209023 0.436480 0.262065
0.273515 0.442375 0.254452
0.357685 0.465251 0.240816
0.457183 0.490588 0.223695
0.565654 0.517551 0.200858
0.678408 0.548339 0.171930
0.753095 0.554575 0.158879
0.816384 0.554565 0.149415
0.879885 0.554962 0.138490
0.943382 0.556433 0.127077
0.997349 0.564907 0.132090
1.000000 0.585108 0.174241
0.023055 0.540614 0.314374
0.047068 0.536386 0.310024
0.118532 0.530480 0.305545
0.183104 0.523687 0.300466
0.244571 0.516581 0.295060
0.303980 0.511704 0.288890
0.378231 0.529774 0.277233
0.465748 0.553286 0.262536
0.559850 0.577625 0.244207
0.657793 0.602923 0.220417
0.758015 0.630084 0.191498
0.828194 0.635252 0.178994
0.887577 0.632039 0.171434
0.946870 0.629251 0.164509
0.997514 0.628723 0.162442
1.000000 0.635250 0.182166
0.148707 0.622590 0.363170
0.165896 0.617908 0.358404
0.200013 0.612083 0.352944
0.245534 0.605519 0.346778
0.296450 0.598414 0.340046
0.349615 0.591498 0.333591
0.408826 0.595896 0.325314
0.482166 0.616119 0.314172
0.562172 0.637855 0.301134
0.646573 0.660036 0.284591
0.735231 0.682688 0.262071
0.826213 0.705876 0.237079
0.891999 0.707479 0.228209
0.947679 0.701359 0.225503
0.997338 0.697053 0.228171
1.000000 0.697057 0.241701
0.280635 0.697754 0.426440
0.286632 0.693642 0.421376
0.302730 0.688487 0.415083
0.329985 0.682678 0.408212
0.366349 0.676670 0.401121
0.408095 0.670786 0.394130
0.452816 0.666308 0.387628
0.508894 0.678839 0.380685
0.574059 0.697432 0.372811
0.644820 0.716753 0.363259
0.720484 0.736187 0.350171
0.801169 0.755502 0.330951
0.884812 0.772815 0.311213
0.945482 0.770538 0.308602
0.994601 0.763749 0.314850
1.000000 0.761318 0.332459
0.405960 0.766422 0.503772
0.406753 0.762958 0.498581
0.413448 0.758920 0.492501
0.428347 0.754572 0.485994
0.450843 0.750065 0.479323
0.480011 0.745782 0.473089
0.513550 0.742214 0.467745
0.550757 0.742125 0.463673
0.600029 0.756345 0.460838
0.655627 0.772396 0.457575
0.716654 0.788450 0.452284
0.783415 0.804325 0.443807
0.857267 0.819545 0.428447
0.933771 0.831223 0.413798
0.986965 0.827548 0.421314
1.000000 0.824043 0.441434
0.522790 0.827216 0.589447
0.521790 0.824954 0.585368
0.523992 0.822180 0.580383
0.531596 0.819252 0.575293
0.545213 0.816473 0.570524
0.564272 0.814033 0.566296
0.587917 0.812298 0.563212
0.614628 0.811547 0.561762
0.645279 0.814051 0.561638
0.685988 0.826633 0.563561
0.731609 0.839442 0.564689
0.782389 0.852036 0.563851
0.840001 0.864292 0.559070
0.905390 0.875874 0.547639
0.971414 0.883784 0.537798
1.000000 0.882561 0.556879
0.633251 0.879049 0.680671
0.631562 0.877640 0.677729
0.631906 0.875973 0.674296
0.636193 0.874559 0.671396
0.644352 0.873288 0.668842
0.656864 0.872542 0.667320
0.673170 0.872474 0.667196
0.692484 0.873332 0.668887
0.714346 0.875009 0.672208
0.739037 0.878784 0.676262
0.770631 0.888805 0.681363
0.806079 0.898861 0.685232
0.846847 0.908482 0.685754
0.894468 0.917566 0.681927
0.947645 0.925712 0.673354
0.997602 0.931296 0.667103
0.732855 0.923287 0.769365
0.731936 0.922641 0.767968
0.732886 0.922126 0.766862
0.735823 0.921708 0.765927
0.742050 0.921851 0.766192
0.751154 0.922471 0.767441
0.763016 0.923746 0.770021
0.777694 0.926007 0.774585
0.793924 0.928783 0.780195
0.811955 0.932100 0.786822
0.832139 0.937066 0.792951
0.856212 0.944995 0.797472
0.884097 0.952478 0.799602
0.916687 0.959066 0.798233
0.953489 0.964562 0.793779
0.990905 0.969235 0.789317
0.058784 0.145345 0.181927
0.065285 0.145690 0.181978
0.077118 0.146292 0.182048
0.092943 0.147175 0.182759
0.128780 0.148366 0.186588
0.177459 0.149874 0.190254
0.238614 0.151208 0.193959
0.314159 0.152864 0.199211
0.405275 0.152464 0.204618
0.509714 0.146910 0.208476
0.618914 0.141649 0.211730
0.726103 0.145130 0.214419
0.828591 0.167832 0.216817
0.922790 0.214030 0.220586
0.996411 0.277199 0.229700
1.000000 0.345837 0.252277
0.057290 0.149004 0.184877
0.065652 0.149428 0.185105
0.079673 0.150448 0.185239
0.097492 0.151597 0.185846
0.133481 0.153477 0.189275
0.182414 0.155791 0.192769
0.244227 0.158915 0.197091
0.322221 0.161108 0.201812
0.415568 0.160882 0.206259
0.519299 0.157206 0.209427
0.627091 0.154525 0.212227
0.732215 0.160814 0.214457
0.832372 0.184584 0.216375
0.924962 0.229437 0.220077
0.996589 0.289761 0.229288
1.000000 0.355832 0.251503
0.055189 0.156537 0.187924
0.063090 0.157252 0.188866
0.080368 0.158437 0.189747
0.103034 0.160440 0.190396
0.139495 0.163402 0.193399
0.189070 0.167475 0.196841
0.254766 0.171679 0.200490
0.336391 0.174741 0.203924
0.430331 0.175603 0.206694
0.532659 0.175409 0.209186
0.637399 0.177208 0.210968
0.739087 0.187396 0.212356
0.836226 0.212310 0.213968
0.926156 0.254311 0.217367
0.996591 0.309908 0.226451
1.000000 0.371749 0.248299
0.058242 0.169753 0.193179
0.066855 0.171027 0.194067
0.082883 0.173104 0.195435
0.109230 0.176155 0.196377
0.151272 0.179963 0.197271
0.206211 0.184636 0.199194
0.276457 0.189914 0.201321
0.359365 0.195065 0.203405
0.452421 0.199515 0.205360
0.551431 0.203826 0.206898
0.651800 0.211038 0.207895
0.748677 0.225498 0.208662
0.841258 0.250972 0.209729
0.927748 0.289556 0.212945
0.996539 0.338953 0.221853
1.000000 0.393986 0.242310
0.062943 0.196387 0.205897
0.073780 0.198014 0.206727
0.092494 0.200473 0.207619
0.115634 0.202824 0.206703
0.161115 0.210168 0.203325
0.230310 0.217106 0.201016
0.305882 0.222283 0.200314
0.389832 0.228899 0.200783
0.480567 0.236460 0.201790
0.575583 0.245078 0.202481
0.669884 0.256692 0.202734
0.760241 0.273649 0.202751
0.847442 0.298590 0.203489
0.929511 0.332673 0.206413
0.995779 0.375170 0.215573
1.000000 0.422823 0.236545
0.063813 0.240597 0.224898
0.078309 0.242064 0.225180
0.099956 0.244243 0.224590
0.124197 0.244867 0.221124
0.165146 0.250120 0.217484
0.241865 0.266653 0.210478
0.338847 0.280475 0.204545
0.425312 0.286215 0.201077
0.513681 0.291791 0.197654
0.602146 0.299576 0.195099
0.688981 0.312432 0.194296
0.772428 0.329570 0.193967
0.853549 0.351942 0.194411
0.931222 0.381117 0.197664
0.996189 0.416804 0.207834
1.000000 0.457095 0.230130
0.061131 0.304016 0.249827
0.081843 0.305013 0.249466
0.102650 0.305672 0.245567
0.132186 0.304271 0.239611
0.179046 0.303889 0.236390
0.246317 0.320625 0.228582
0.347658 0.343042 0.217163
0.463892 0.364884 0.205865
0.549894 0.370319 0.200038
0.631619 0.375457 0.193547
0.708959 0.380954 0.186613
0.784513 0.391160 0.181920
0.860334 0.409833 0.182781
0.933582 0.433642 0.187604
0.996577 0.462849 0.200087
1.000000 0.496542 0.225597
0.075998 0.381693 0.282008
0.093824 0.381235 0.279362
0.107103 0.379502 0.271020
0.145988 0.375855 0.263656
0.200213 0.370824 0.259685
0.262030 0.380392 0.252344
0.350980 0.403897 0.240345
