entry/src/main/resources/rawfile/filters/VEL_Vintage_Chrome.cube
TITLE "Vintage Film"
LUT_3D_SIZE 6
0.023438 0.181949 0.207340
0.027945 0.181927 0.207218
0.234318 0.189050 0.203720
0.630402 0.213687 0.183334
0.873069 0.367400 0.146310
0.977386 0.564233 0.179919
0.016635 0.186096 0.206793
0.054982 0.193042 0.205791
0.308418 0.226069 0.197092
0.656065 0.275506 0.173473
0.870767 0.422568 0.137087
0.972497 0.588840 0.182898
0.000000 0.327745 0.199012
0.033224 0.351522 0.195706
0.400995 0.408732 0.177193
0.704808 0.478337 0.138980
0.864311 0.537936 0.115424
0.966860 0.647309 0.196872
0.000607 0.560754 0.206659
0.164956 0.571326 0.208593
0.470691 0.602402 0.203731
0.714110 0.648398 0.203932
0.856621 0.703630 0.223075
0.956149 0.735473 0.281804
0.431702 0.737713 0.298302
0.475994 0.737554 0.303906
0.609280 0.749785 0.318136
0.739685 0.773506 0.346175
0.846235 0.806458 0.385200
0.932809 0.847800 0.446335
0.689738 0.894926 0.493263
0.699946 0.895015 0.497233
0.735089 0.901869 0.510094
0.790689 0.914082 0.532946
0.847688 0.930965 0.564538
0.901808 0.954787 0.600473
0.019959 0.181766 0.210129
0.042433 0.182561 0.210833
0.293006 0.175793 0.221014
0.672611 0.241206 0.237696
0.877411 0.416330 0.249488
0.971527 0.592383 0.310427
0.003353 0.196960 0.217548
0.094359 0.207775 0.223375
0.369170 0.238690 0.229282
0.689389 0.307000 0.232142
0.874063 0.460300 0.242612
0.967723 0.611137 0.305722
0.015523 0.366302 0.239220
0.132707 0.382182 0.240475
0.450064 0.432955 0.234856
0.718215 0.484524 0.219946
0.866595 0.552129 0.224674
0.963755 0.660582 0.304073
0.172119 0.581468 0.263288
0.283968 0.588077 0.269576
0.507717 0.613093 0.273572
0.724612 0.656484 0.283872
0.856047 0.705930 0.302437
0.954592 0.736149 0.342932
0.472058 0.740594 0.340068
0.513213 0.741708 0.346810
0.623896 0.752625 0.363651
0.743634 0.775649 0.388292
0.847728 0.809069 0.424592
0.930941 0.849187 0.474564
0.692677 0.895106 0.503367
0.703711 0.895850 0.508063
0.736999 0.901553 0.521579
0.792651 0.913951 0.543892
0.848654 0.931240 0.574682
0.902532 0.955138 0.608939
0.000000 0.187835 0.304014
0.136206 0.198997 0.317143
0.410317 0.287562 0.336447
0.676237 0.271630 0.370911
0.883961 0.452850 0.412246
0.952749 0.673924 0.500761
0.000000 0.251762 0.329125
0.168809 0.260494 0.345202
0.466465 0.354957 0.357665
0.709523 0.364944 0.386334
0.870812 0.546457 0.435541
0.952507 0.678911 0.491256
0.070298 0.411963 0.351091
0.267550 0.435010 0.364203
0.556182 0.487944 0.393746
0.747482 0.543438 0.408092
0.862542 0.623465 0.433081
0.953140 0.703340 0.476216
0.414880 0.603659 0.389187
0.499838 0.618220 0.402762
0.596024 0.638134 0.410187
0.750075 0.678914 0.428213
0.857136 0.713229 0.435777
0.951456 0.741403 0.456086
0.563071 0.747054 0.429831
0.583782 0.750006 0.429802
0.658134 0.757275 0.447811
0.754170 0.780946 0.470803
0.853378 0.816563 0.500336
0.927508 0.851867 0.530447
0.693767 0.895107 0.524779
0.706214 0.896059 0.529620
0.740277 0.900985 0.545320
0.796674 0.913616 0.570551
0.850716 0.932304 0.599784
0.905275 0.956927 0.630753
0.008698 0.254618 0.483903
0.279312 0.280574 0.490435
0.598714 0.385166 0.502739
0.757913 0.568399 0.517658
0.847843 0.570046 0.537373
0.945415 0.678794 0.575680
0.166811 0.348547 0.486505
0.313261 0.352892 0.496934
0.616234 0.447749 0.508358
0.764476 0.604908 0.524838
0.846593 0.603333 0.541151
0.943909 0.699993 0.578464
0.167807 0.493144 0.483804
0.333134 0.507252 0.492829
0.622812 0.550835 0.517306
0.774227 0.662569 0.537720
0.852278 0.671688 0.553357
0.939645 0.757396 0.595947
0.439539 0.633291 0.492510
0.507977 0.640227 0.497928
0.647955 0.662505 0.514627
0.780566 0.710717 0.548405
0.866067 0.745248 0.563063
0.938239 0.787141 0.586054
0.581621 0.739277 0.501810
0.623832 0.744827 0.509228
0.711788 0.763624 0.532763
0.771664 0.789592 0.551527
0.864334 0.830032 0.579025
0.923965 0.855435 0.593677
0.717748 0.892305 0.575451
0.720776 0.893907 0.572584
0.743304 0.901876 0.575753
0.802508 0.913423 0.606355
0.853066 0.934474 0.635744
0.911845 0.961013 0.662360
0.432551 0.436100 0.619803
0.545012 0.465376 0.620751
0.718760 0.554452 0.623812
0.820132 0.678804 0.632322
0.875967 0.770757 0.647695
0.916170 0.765554 0.655930
0.481544 0.506843 0.616012
0.555973 0.515476 0.620495
0.720868 0.589545 0.624120
0.819746 0.694713 0.633467
0.876000 0.778729 0.649031
0.916684 0.774884 0.658063
0.472529 0.600547 0.606307
0.561344 0.609916 0.610912
0.706441 0.641585 0.622682
0.817101 0.723622 0.636744
0.878075 0.799734 0.655133
0.917606 0.797411 0.663790
0.493247 0.688838 0.599140
0.539172 0.689444 0.600564
0.646431 0.697505 0.608084
0.795100 0.744429 0.636213
0.879637 0.825797 0.663528
0.915262 0.833573 0.673022
0.605245 0.766082 0.597345
0.632020 0.767188 0.598769
0.696756 0.776185 0.607378
0.780478 0.800346 0.628083
0.875452 0.854985 0.668059
0.907292 0.889380 0.683677
0.658625 0.890605 0.616468
0.676518 0.892234 0.618247
0.728799 0.899870 0.627376
0.810801 0.912980 0.652462
0.852782 0.936268 0.677751
0.923897 0.966754 0.699461
0.755734 0.720790 0.730785
0.773990 0.731572 0.729891
0.819288 0.760967 0.727852
0.870802 0.805987 0.725609
0.892839 0.863947 0.724651
0.898482 0.903670 0.730404
0.757006 0.732924 0.729711
0.772536 0.739830 0.729688
0.818929 0.767868 0.727985
0.870134 0.811147 0.725976
0.891922 0.867007 0.725371
0.898622 0.906124 0.731835
0.749999 0.757622 0.729916
0.771623 0.766040 0.729618
0.812204 0.781139 0.729939
0.866763 0.822917 0.728755
0.889748 0.876103 0.729408
0.899803 0.913472 0.736929
0.693763 0.781521 0.731814
0.717226 0.782607 0.732141
0.774198 0.791948 0.732317
0.852060 0.829431 0.732859
0.885882 0.885593 0.735349
0.903603 0.926739 0.747246
0.718608 0.845139 0.738195
0.726825 0.843986 0.738041
0.752148 0.843867 0.737482
0.800937 0.852198 0.741090
0.871264 0.896087 0.750581
0.919469 0.950918 0.770337
0.748684 0.949172 0.760845
0.753442 0.947115 0.758444
0.771133 0.949202 0.760189
0.796863 0.958450 0.770480
0.824570 0.968396 0.783972
0.951141 0.974594 0.800290
