entry/src/main/resources/rawfile/filters/VEL_Warm_Pastel.cube
TITLE "Warm Pastel"
LUT_3D_SIZE 16
0.000000 0.000000 0.000000
0.066750 0.000000 0.000000
0.140529 0.000000 0.000000
0.218521 0.000000 0.000000
0.300934 0.000000 0.000000
0.384690 0.000000 0.000000
0.465580 0.000000 0.000000
0.541673 0.000000 0.000000
0.610524 0.000000 0.000000
0.672883 0.000000 0.000000
0.730144 0.000000 0.000000
0.782698 0.000000 0.000000
0.832404 0.000000 0.000000
0.879496 0.000000 0.000000
0.924556 0.000000 0.000000
0.963516 0.000000 0.000000
0.019298 0.048480 0.005869
0.097138 0.049493 0.009820
0.180599 0.042589 0.007532
0.274795 0.033231 0.005854
0.375559 0.021559 0.005800
0.473796 0.010077 0.005657
0.558913 0.003689 0.002547
0.629264 0.001744 0.001728
0.691123 0.000864 0.000892
0.747181 0.000354 0.000367
0.798278 0.000113 0.000118
0.846574 0.000000 0.000000
0.892446 0.000000 0.000000
0.936928 0.000000 0.000000
0.979872 0.000927 0.000961
1.000000 0.021418 0.022205
0.036727 0.102733 0.002548
0.112665 0.108120 0.009142
0.196748 0.107649 0.011215
0.287231 0.100341 0.009013
0.383301 0.091725 0.007212
0.479505 0.081022 0.006712
0.570481 0.067979 0.008092
0.653916 0.052803 0.011910
0.727731 0.036472 0.017063
0.789482 0.025418 0.018092
0.844356 0.017523 0.016504
0.894381 0.012095 0.012537
0.942311 0.007660 0.007935
0.987311 0.005532 0.005734
0.999963 0.040841 0.042350
1.000000 0.086147 0.089383
0.065812 0.154113 0.000000
0.131286 0.165630 0.005235
0.214178 0.170794 0.011817
0.304899 0.168498 0.012539
0.397140 0.161413 0.010251
0.488201 0.153054 0.008197
0.573520 0.143740 0.006806
0.650362 0.133573 0.006280
0.719201 0.122644 0.006914
0.782486 0.109855 0.009072
0.843097 0.093562 0.013728
0.903527 0.072659 0.021896
0.961628 0.051891 0.029440
0.998694 0.056030 0.052403
1.000000 0.105289 0.109284
1.000000 0.146401 0.152077
0.099458 0.203846 0.000000
0.154460 0.225098 0.001090
0.231993 0.233438 0.008501
0.324647 0.237436 0.014210
0.415378 0.233503 0.013814
0.502524 0.226275 0.011550
0.583634 0.217936 0.009400
0.657072 0.209385 0.007701
0.722423 0.200380 0.006516
0.782101 0.190395 0.005988
0.838336 0.179221 0.006223
0.892586 0.165972 0.007497
0.946773 0.150000 0.010315
0.995464 0.136991 0.024282
1.000000 0.168838 0.102490
1.000000 0.201604 0.175016
0.132896 0.257003 0.000000
0.181806 0.284016 0.000059
0.253038 0.299149 0.004592
0.341859 0.305768 0.011550
0.435545 0.308637 0.016310
0.519446 0.303097 0.015098
0.597191 0.295767 0.012874
0.667102 0.287706 0.010752
0.729891 0.279542 0.008931
0.787268 0.270556 0.007411
0.841157 0.260281 0.006277
0.893154 0.248830 0.005626
0.944419 0.235459 0.005600
0.993752 0.221666 0.009080
1.000000 0.240804 0.067774
1.000000 0.271651 0.135434
0.166879 0.312990 0.000000
0.211375 0.343440 0.000000
0.277920 0.366485 0.001093
0.361324 0.375293 0.008049
0.451856 0.380924 0.014496
0.538347 0.382349 0.018133
0.612307 0.375842 0.016388
0.679230 0.368674 0.014241
0.739277 0.360957 0.012150
0.794510 0.352500 0.010217
0.846654 0.343013 0.008448
0.896837 0.332042 0.006925
0.946393 0.319514 0.005732
0.994332 0.306269 0.007142
1.000000 0.316380 0.061122
1.000000 0.339141 0.125075
0.201781 0.371193 0.000000
0.243922 0.404550 0.000000
0.305511 0.430928 0.000061
0.384374 0.445448 0.004441
0.469679 0.452179 0.011347
0.554243 0.457053 0.017453
0.629476 0.456281 0.019655
0.692873 0.449571 0.017675
0.750223 0.442134 0.015559
0.803441 0.434314 0.013494
0.853790 0.425133 0.011413
0.902656 0.414963 0.009451
0.950883 0.403074 0.007609
0.995331 0.390603 0.010792
1.000000 0.392872 0.063588
1.000000 0.406330 0.124729
0.237087 0.430889 0.000000
0.277390 0.465351 0.000000
0.335232 0.493906 0.000000
0.409200 0.513966 0.001293
0.489029 0.521997 0.008111
0.568917 0.527587 0.014548
0.644240 0.531639 0.020391
0.707118 0.528675 0.020899
0.762136 0.521843 0.018924
0.813306 0.514404 0.016821
0.862316 0.506225 0.014681
0.909767 0.496553 0.012508
0.957026 0.485406 0.010356
0.996836 0.473267 0.017699
1.000000 0.467095 0.070727
1.000000 0.473212 0.131091
0.272483 0.489934 0.000000
0.311332 0.525410 0.000000
0.364831 0.554530 0.000000
0.433161 0.577520 0.000078
0.508834 0.589726 0.004604
0.583801 0.595551 0.011390
0.655499 0.600288 0.017482
0.720548 0.603675 0.022713
0.774358 0.599193 0.022064
0.823910 0.592728 0.020102
0.871347 0.585143 0.017961
0.917896 0.576409 0.015741
0.964261 0.566230 0.013454
0.998524 0.552272 0.026351
1.000000 0.538589 0.080703
1.000000 0.538842 0.143108
0.306946 0.547407 0.000000
0.343738 0.582887 0.000000
0.393888 0.612823 0.000000
0.456785 0.636623 0.000000
0.527750 0.653762 0.001357
0.598749 0.661111 0.007894
0.666617 0.666057 0.014275
0.729346 0.670289 0.020062
0.786260 0.672971 0.024493
0.834536 0.667897 0.023219
0.880859 0.661322 0.021217
0.926439 0.653681 0.019046
0.972058 0.644789 0.016727
0.999940 0.627160 0.036767
1.000000 0.606092 0.092122
1.000000 0.603321 0.161221
0.340295 0.602674 0.000000
0.375666 0.638229 0.000000
0.422036 0.668152 0.000000
0.479941 0.692617 0.000000
0.545948 0.712383 0.000039
0.613343 0.723636 0.004045
0.677894 0.729347 0.010752
0.738056 0.734076 0.016793
0.794029 0.738339 0.022390
0.845339 0.739825 0.025917
0.890660 0.734562 0.024341
0.935353 0.728081 0.022292
0.980446 0.720459 0.020096
1.000000 0.696021 0.049637
1.000000 0.669620 0.105280
1.000000 0.665810 0.187362
0.372921 0.655836 0.000000
0.406373 0.690625 0.000000
0.449619 0.721053 0.000000
0.502784 0.746147 0.000000
0.563427 0.766741 0.000000
0.627718 0.783158 0.000759
0.689200 0.790518 0.006845
0.746906 0.795958 0.013184
0.801140 0.800852 0.019026
0.852651 0.805064 0.024512
0.900751 0.805765 0.027268
0.944775 0.800451 0.025502
0.989107 0.793772 0.023639
1.000000 0.760045 0.063612
1.000000 0.728522 0.119236
1.000000 0.725707 0.223737
0.404688 0.706713 0.000000
0.436927 0.741501 0.000000
0.476917 0.772048 0.000000
0.525888 0.797914 0.000000
0.582081 0.819857 0.000000
0.641992 0.838261 0.000000
0.701401 0.850840 0.002873
0.756779 0.857024 0.009489
0.809063 0.862441 0.015569
0.859494 0.867530 0.021267
0.908693 0.871824 0.026712
0.954947 0.871465 0.028634
0.994582 0.861214 0.032097
1.000000 0.818957 0.078486
1.000000 0.783221 0.134509
1.000000 0.782125 0.275246
0.436505 0.756704 0.000000
0.467083 0.791128 0.000000
0.504706 0.822477 0.000000
0.550155 0.849476 0.000000
0.601964 0.872371 0.000000
0.657810 0.892147 0.000000
0.714441 0.908925 0.000134
0.767760 0.917521 0.005561
0.818515 0.923844 0.011951
0.867258 0.929307 0.017859
0.915613 0.934364 0.023536
0.963809 0.938533 0.029046
0.998822 0.923893 0.042814
1.000000 0.873083 0.094588
1.000000 0.836818 0.168161
1.000000 0.834586 0.348151
0.469017 0.807233 0.000000
0.498130 0.841437 0.000000
0.533345 0.873075 0.000000
0.575638 0.900853 0.000000
0.623902 0.924969 0.000000
0.675430 0.945658 0.000000
0.728127 0.961843 0.001685
0.776854 0.966050 0.011991
0.821938 0.966094 0.024507
0.865336 0.966094 0.036179
0.907658 0.966094 0.046840
0.949677 0.966094 0.056938
0.991886 0.965573 0.066761
1.000000 0.922016 0.111866
1.000000 0.886770 0.233548
1.000000 0.882033 0.454520
0.012760 0.000000 0.022150
0.081046 0.000000 0.024574
0.154052 0.000000 0.022830
0.232586 0.000000 0.021492
0.315471 0.000000 0.020435
0.399143 0.000000 0.019058
0.480126 0.000000 0.018019
0.555052 0.000000 0.016538
0.623019 0.000000 0.015211
0.684916 0.000000 0.013406
0.741090 0.000000 0.011384
0.793517 0.000000 0.008828
0.842953 0.000000 0.005883
0.889760 0.000000 0.003613
0.935097 0.000000 0.001725
0.973584 0.000000 0.001168
0.034146 0.047303 0.029452
0.106719 0.047657 0.032070
0.188696 0.041719 0.030689
0.281566 0.033169 0.029256
0.383515 0.022955 0.029420
0.482264 0.013377 0.029250
0.567011 0.007024 0.024623
0.640367 0.003001 0.019954
0.701841 0.001796 0.016811
0.757309 0.000930 0.013738
0.808609 0.000437 0.010871
0.856562 0.000142 0.007552
0.902509 0.000000 0.004895
0.947168 0.000000 0.002582
0.988638 0.002324 0.003904
1.000000 0.033422 0.035498
0.050749 0.102612 0.021041
0.123859 0.108831 0.028239
0.205491 0.107961 0.029935
0.295067 0.101688 0.027642
0.390967 0.093204 0.025470
0.486297 0.083015 0.024106
0.577165 0.070410 0.024516
0.659971 0.055537 0.027332
0.734040 0.040310 0.031615
0.795560 0.030144 0.031100
0.849960 0.022603 0.027687
0.899840 0.017463 0.022222
0.947948 0.012800 0.015647
0.992049 0.011731 0.013624
1.000000 0.052897 0.055618
1.000000 0.098327 0.102411
0.079401 0.159736 0.008685
0.144037 0.168598 0.017451
0.225932 0.174332 0.024179
0.315426 0.171924 0.024226
0.407133 0.165241 0.021499
0.497498 0.157394 0.018793
0.581866 0.148199 0.016665
0.658040 0.138476 0.015401
0.726290 0.127431 0.015579
0.788866 0.114594 0.017376
0.849252 0.098555 0.021541
0.909379 0.077561 0.029364
0.967109 0.057200 0.036355
0.999510 0.067144 0.064750
1.000000 0.117561 0.122208
1.000000 0.155604 0.161704
0.112447 0.214683 0.001031
0.168745 0.231065 0.007339
0.245203 0.239059 0.015455
0.337393 0.243362 0.021133
0.427021 0.239260 0.020599
0.512707 0.232141 0.018320
0.593056 0.224076 0.016134
0.665201 0.215438 0.014283
0.729711 0.206279 0.013050
0.788803 0.196538 0.012436
0.844445 0.185090 0.012586
0.898417 0.171859 0.013778
0.952378 0.155825 0.016538
0.996878 0.146266 0.035519
1.000000 0.180754 0.116342
1.000000 0.210961 0.185865
0.145592 0.269213 0.000023
0.195280 0.295160 0.001609
0.267026 0.305768 0.010265
0.354912 0.312521 0.017365
0.447257 0.315373 0.022056
0.530077 0.310045 0.020842
0.606320 0.302431 0.018690
0.675259 0.294631 0.016651
0.737130 0.286277 0.014856
0.793745 0.277181 0.013375
0.847282 0.267124 0.012273
0.898804 0.255442 0.011650
0.949864 0.241934 0.011679
0.995599 0.230565 0.019509
1.000000 0.251296 0.080459
1.000000 0.281642 0.147246
0.178675 0.326209 0.000000
0.224722 0.357257 0.000128
0.291471 0.374240 0.005943
0.374257 0.382427 0.013771
0.463702 0.388253 0.020324
0.548279 0.389329 0.023839
0.621310 0.383099 0.022152
0.687003 0.375777 0.020057
0.746260 0.367915 0.018020
0.800992 0.359621 0.016141
0.852498 0.349941 0.014397
0.902374 0.339058 0.012912
0.951744 0.326506 0.011733
0.995768 0.314796 0.017580
1.000000 0.326489 0.073775
1.000000 0.349481 0.137781
0.213442 0.385231 0.000000
0.256361 0.418690 0.000001
0.319207 0.443143 0.002015
0.396806 0.452765 0.010159
0.480935 0.459431 0.017171
0.564293 0.464600 0.023341
0.637823 0.463526 0.025398
0.700260 0.456766 0.023492
0.757034 0.449598 0.021432
0.809532 0.441457 0.019365
0.859560 0.432453 0.017342
0.907998 0.422178 0.015408
0.955985 0.410218 0.013592
0.996721 0.398993 0.021375
1.000000 0.401791 0.075883
1.000000 0.416399 0.137790
0.248503 0.445121 0.000000
0.289924 0.480056 0.000000
0.348263 0.508130 0.000310
0.421053 0.521957 0.006420
0.499910 0.529361 0.013917
0.578389 0.534763 0.020405
0.652652 0.539036 0.026312
0.714377 0.535822 0.026681
0.768546 0.529078 0.024764
0.819383 0.521910 0.022704
0.867822 0.513364 0.020577
0.915053 0.503748 0.018421
0.962182 0.492837 0.016327
0.998115 0.480555 0.028168
1.000000 0.475415 0.083111
1.000000 0.482760 0.144965
0.283832 0.504576 0.000000
0.322945 0.539814 0.000000
0.377404 0.569215 0.000005
0.445488 0.588761 0.002645
0.519003 0.596711 0.010383
0.593066 0.602768 0.017250
0.663479 0.607395 0.023362
0.727523 0.610785 0.028607
0.780746 0.606367 0.027922
0.829665 0.599755 0.025975
0.876871 0.592209 0.023867
0.923118 0.583622 0.021670
0.969279 0.573568 0.019409
0.999700 0.558940 0.037111
1.000000 0.545595 0.092977
1.000000 0.548107 0.158425
0.317970 0.561781 0.000000
0.355431 0.597357 0.000000
0.405586 0.626989 0.000000
0.468843 0.650304 0.000440
0.538045 0.661602 0.006488
0.607552 0.667837 0.013736
0.674534 0.673007 0.020170
0.736361 0.677381 0.025987
0.792420 0.679701 0.030381
0.840405 0.674850 0.029095
0.886302 0.668273 0.027115
0.931598 0.660705 0.024964
0.977190 0.651921 0.022686
1.000000 0.632248 0.048762
1.000000 0.612160 0.104688
1.000000 0.612333 0.178829
0.351193 0.617029 0.000000
0.386600 0.652127 0.000000
0.433320 0.682095 0.000000
0.491409 0.706481 0.000007
0.556405 0.723082 0.002496
0.622074 0.730447 0.009860
0.685565 0.735937 0.016638
0.744845 0.740749 0.022713
0.800256 0.745183 0.028355
0.850976 0.746449 0.031812
0.896114 0.741420 0.030260
0.940664 0.734953 0.028241
0.985401 0.727192 0.026212
1.000000 0.700124 0.062023
1.000000 0.674440 0.117946
1.000000 0.674395 0.207656
0.383198 0.669623 0.000000
0.417067 0.704431 0.000000
0.460279 0.734628 0.000000
0.513541 0.759579 0.000000
0.574207 0.780065 0.000260
0.636346 0.790885 0.005546
0.696650 0.797141 0.012722
0.753628 0.802574 0.019094
0.807219 0.807437 0.024967
0.858517 0.811812 0.030508
0.906192 0.812372 0.033218
0.950021 0.807073 0.031436
0.992668 0.798964 0.031635
1.000000 0.762888 0.076039
1.000000 0.732471 0.132329
1.000000 0.733587 0.247654
0.414951 0.720588 0.000000
0.447078 0.754887 0.000000
0.487159 0.785523 0.000000
0.536072 0.811347 0.000000
0.592028 0.832953 0.000001
0.651291 0.849596 0.001522
0.708590 0.857232 0.008495
0.763086 0.863281 0.015202
0.815204 0.869015 0.021367
0.865138 0.874025 0.027128
0.914155 0.878352 0.032650
0.960261 0.878122 0.034560
0.996648 0.864606 0.041758
1.000000 0.821021 0.091213
1.000000 0.787605 0.153408
1.000000 0.789328 0.303286
0.446120 0.770042 0.000000
0.476892 0.804598 0.000000
0.514243 0.835511 0.000000
0.559512 0.862247 0.000000
0.611333 0.885139 0.000000
0.666662 0.904564 0.000044
0.721856 0.916897 0.004105
0.774160 0.923805 0.011187
0.824273 0.930016 0.017617
0.872999 0.935763 0.023635
0.920955 0.940805 0.029401
0.969056 0.944987 0.034927
0.999819 0.925183 0.053998
1.000000 0.874281 0.107183
1.000000 0.841804 0.198170
1.000000 0.841110 0.382149
0.478659 0.820600 0.000000
0.507245 0.854178 0.000000
0.542340 0.885767 0.000000
0.584572 0.913467 0.000000
0.632392 0.937247 0.000000
0.683832 0.957775 0.000320
0.734235 0.965741 0.009166
0.780973 0.966094 0.022886
0.825406 0.966094 0.035769
0.867915 0.966094 0.047517
0.909547 0.966094 0.058494
0.950880 0.966094 0.068859
0.992148 0.965241 0.078993
1.000000 0.922289 0.124869
1.000000 0.890913 0.273337
1.000000 0.887536 0.493972
0.029550 0.000000 0.050917
0.093917 0.000000 0.062631
0.165525 0.000000 0.062893
0.243247 0.000000 0.061359
0.325817 0.000000 0.059986
0.408976 0.000000 0.058682
0.488669 0.000000 0.057446
0.563010 0.000000 0.056427
0.630189 0.000000 0.055615
0.690743 0.000000 0.054566
0.746570 0.000000 0.053186
0.798235 0.000000 0.051355
0.847090 0.000000 0.048830
0.894101 0.000000 0.045738
0.939274 0.000000 0.041991
0.978294 0.000000 0.038389
0.051143 0.039269 0.068304
0.120989 0.042544 0.074237
0.200190 0.038559 0.075094
0.292458 0.031716 0.075527
0.393644 0.022523 0.077173
0.489422 0.014156 0.076686
0.573009 0.008462 0.072572
0.645914 0.003884 0.067604
0.707075 0.002329 0.064255
0.762452 0.001150 0.061344
0.813018 0.000602 0.058532
0.860703 0.000256 0.055543
0.906627 0.000012 0.052042
0.951109 0.000000 0.048063
0.991650 0.004048 0.047334
1.000000 0.039052 0.076635
0.069287 0.095737 0.061457
0.132917 0.101846 0.068737
0.208983 0.100976 0.070586
0.296427 0.095471 0.069227
0.390954 0.087532 0.067786
0.486201 0.077772 0.067551
0.577580 0.066000 0.069583
0.662027 0.052894 0.074781
0.736557 0.039735 0.080811
0.798274 0.030603 0.081674
0.852892 0.023987 0.079091
0.902548 0.019218 0.072817
0.950438 0.014661 0.064737
0.993817 0.014980 0.060682
1.000000 0.058711 0.097435
1.000000 0.104862 0.138445
0.090932 0.151922 0.049507
0.151154 0.161811 0.059480
0.229426 0.167746 0.066607
0.315449 0.165243 0.066809
0.405978 0.159183 0.064539
0.495416 0.151525 0.062112
0.579726 0.142704 0.060110
0.655827 0.133085 0.058921
0.724096 0.122288 0.058774
0.787247 0.109793 0.060117
0.848281 0.094087 0.063996
0.910018 0.075043 0.071952
0.969188 0.057351 0.077959
0.999722 0.072410 0.105415
1.000000 0.125214 0.157233
1.000000 0.161794 0.189580
0.119640 0.212954 0.035455
0.175054 0.224929 0.046465
0.249587 0.233571 0.054880
0.339236 0.238056 0.060219
0.427088 0.234195 0.059034
0.512581 0.227636 0.056313
0.592567 0.219933 0.053365
0.664779 0.211831 0.050752
0.729547 0.203223 0.048629
0.788712 0.193756 0.046766
0.844746 0.182971 0.045449
0.899093 0.170301 0.044571
0.953594 0.154935 0.044657
0.997309 0.148661 0.062584
1.000000 0.188854 0.142915
1.000000 0.218911 0.206485
0.152806 0.278863 0.018131
0.204572 0.293143 0.029981
0.274661 0.303681 0.039025
0.361274 0.310951 0.045894
0.452044 0.314024 0.049693
0.533653 0.308837 0.047473
0.609691 0.302047 0.044269
0.678409 0.294695 0.041154
0.740031 0.286832 0.038031
0.796845 0.278450 0.035144
0.850380 0.268848 0.032259
0.902125 0.257781 0.029761
0.953495 0.244979 0.027726
0.996619 0.236299 0.036910
1.000000 0.260594 0.098304
1.000000 0.290858 0.162951
0.190434 0.340863 0.004942
0.237974 0.364377 0.011262
0.304365 0.377201 0.020715
0.385898 0.385777 0.028290
0.473871 0.391945 0.034444
0.556852 0.393172 0.037205
0.628673 0.387074 0.034905
0.693590 0.380192 0.032280
0.752310 0.372775 0.029708
0.806401 0.364431 0.027240
0.857774 0.355080 0.024804
0.907457 0.344455 0.022543
0.956672 0.332061 0.020435
0.997122 0.322808 0.030102
1.000000 0.336161 0.087494
1.000000 0.359272 0.150952
0.227277 0.399593 0.000426
0.271999 0.431180 0.002219
0.334320 0.449022 0.009350
0.410650 0.458590 0.017833
0.493350 0.465656 0.024770
0.575027 0.470800 0.030768
0.646810 0.469615 0.032239
0.708182 0.463101 0.030185
0.764010 0.455902 0.028065
0.816017 0.448103 0.025922
0.865529 0.439114 0.023748
0.913634 0.428877 0.021630
0.961585 0.417121 0.019694
0.998108 0.406693 0.032239
1.000000 0.410852 0.088828
1.000000 0.426335 0.151423
0.263517 0.458253 0.000000
0.305423 0.493252 0.000003
0.363868 0.518198 0.002865
0.435349 0.528651 0.011919
0.512355 0.536029 0.019535
0.589343 0.541723 0.026150
0.661897 0.545999 0.032103
0.722144 0.542348 0.032323
0.775666 0.535941 0.030466
0.825738 0.528633 0.028474
0.873811 0.520296 0.026396
0.920749 0.510833 0.024289
0.967515 0.499709 0.022227
0.999524 0.487816 0.038961
1.000000 0.483319 0.095871
1.000000 0.492380 0.159770
0.297947 0.517676 0.000000
0.337805 0.553188 0.000000
0.392268 0.581922 0.000567
0.458876 0.595469 0.007922
0.531061 0.603502 0.016024
0.603423 0.609390 0.022955
0.672541 0.614211 0.029186
0.735381 0.617623 0.034431
0.787543 0.612944 0.033609
0.836066 0.606544 0.031752
0.882786 0.599062 0.029696
0.928674 0.590398 0.027532
0.974773 0.580506 0.025315
1.000000 0.564878 0.049161
1.000000 0.552513 0.105886
1.000000 0.557812 0.175149
0.331533 0.575200 0.000000
0.369226 0.610460 0.000000
0.419685 0.640272 0.000022
0.482067 0.659573 0.003689
0.549359 0.667890 0.012119
0.617627 0.674415 0.019472
0.683212 0.679591 0.025972
0.743980 0.683943 0.031871
0.799279 0.686331 0.036168
0.846500 0.681273 0.034863
0.892141 0.674861 0.032935
0.937222 0.667439 0.030822
0.982484 0.658566 0.028638
1.000000 0.637034 0.061409
1.000000 0.618079 0.117774
1.000000 0.621404 0.197452
0.364007 0.630127 0.000000
0.399805 0.665208 0.000000
0.446581 0.695141 0.000000
0.504249 0.718570 0.000772
0.567523 0.729796 0.007830
0.631702 0.736686 0.015607
0.693996 0.742325 0.022448
0.752500 0.747269 0.028596
0.807001 0.751551 0.034290
0.857175 0.752919 0.037631
0.901902 0.747802 0.036094
0.946158 0.741414 0.034108
0.990438 0.733564 0.032672
1.000000 0.703716 0.074732
1.000000 0.679241 0.131181
1.000000 0.682892 0.229204
0.395697 0.682844 0.000000
0.429501 0.717310 0.000000
0.472703 0.747469 0.000000
0.525883 0.772585 0.000020
0.585280 0.789314 0.003276
0.645738 0.797161 0.011297
0.704981 0.803414 0.018536
0.760994 0.808875 0.024974
0.814031 0.813928 0.030901
0.864746 0.818266 0.036467
0.911966 0.818760 0.039092
0.955692 0.813594 0.037333
0.994971 0.802661 0.041428
1.000000 0.765545 0.089030
1.000000 0.736619 0.147004
1.000000 0.741396 0.272627
0.426688 0.733410 0.000000
0.458814 0.767810 0.000000
0.498827 0.798246 0.000000
0.547629 0.824038 0.000000
0.603219 0.845428 0.000413
0.660460 0.856511 0.006673
0.716696 0.863546 0.014332
0.770658 0.869803 0.021144
0.821842 0.875365 0.027293
0.871456 0.880551 0.033123
0.920145 0.884941 0.038670
0.965831 0.884384 0.040429
0.998850 0.867496 0.051964
1.000000 0.822676 0.104272
1.000000 0.793339 0.179101
1.000000 0.796643 0.333565
0.457528 0.783022 0.000000
0.488181 0.817245 0.000000
0.525288 0.848192 0.000000
0.570536 0.875099 0.000000
0.621817 0.897919 0.000002
0.676360 0.915003 0.002272
0.729812 0.923261 0.009966
0.781314 0.930106 0.017094
0.830981 0.936511 0.023577
0.879184 0.942245 0.029618
0.926860 0.947267 0.035432
0.974857 0.951645 0.040987
0.999967 0.924940 0.066606
1.000000 0.875043 0.120571
1.000000 0.846710 0.230894
1.000000 0.847485 0.417342
0.489551 0.833616 0.000000
0.517980 0.866995 0.000000
0.553031 0.898632 0.000000
0.594881 0.926223 0.000000
0.642615 0.950320 0.000011
0.692456 0.964638 0.005629
0.740342 0.966094 0.020331
0.786103 0.966094 0.034590
0.829449 0.966094 0.047483
0.871142 0.966094 0.059428
0.912004 0.966094 0.070531
0.952508 0.966094 0.080873
0.992570 0.964579 0.091821
1.000000 0.922312 0.138376
1.000000 0.895073 0.318537
1.000000 0.893196 0.535869
0.048591 0.000000 0.070677
0.107062 0.000000 0.095768
0.178022 0.000000 0.104141
0.254707 0.000000 0.104463
0.336623 0.000000 0.103414
0.418621 0.000000 0.102168
0.497522 0.000000 0.101082
0.570578 0.000000 0.100491
0.636606 0.000000 0.099964
0.696548 0.000000 0.099558
0.751486 0.000000 0.098918
0.802601 0.000000 0.097847
0.851101 0.000000 0.096339
0.897392 0.000000 0.094363
0.942288 0.000000 0.092008
0.980999 0.000000 0.089955
0.079130 0.027026 0.108719
0.142371 0.034580 0.119708
0.219173 0.034912 0.125023
0.309077 0.029244 0.127021
0.407534 0.020761 0.129702
0.498622 0.014294 0.128318
0.579962 0.008989 0.124413
0.651412 0.004598 0.119753
0.712617 0.002696 0.116425
0.767204 0.001310 0.113453
0.817327 0.000735 0.111023
0.864645 0.000325 0.108453
0.909999 0.000036 0.105502
0.954313 0.000000 0.102508
0.993489 0.005100 0.103478
1.000000 0.041915 0.131910
0.092503 0.086154 0.104188
0.148627 0.092961 0.112798
0.220214 0.093962 0.116709
0.305501 0.089884 0.117345
0.399122 0.083349 0.117844
0.493968 0.074613 0.119529
0.585201 0.063789 0.123781
0.669377 0.051121 0.131039
0.741663 0.039408 0.137387
0.802391 0.031088 0.138906
0.856091 0.024731 0.136823
0.905114 0.020117 0.131288
0.952824 0.015563 0.124439
0.994874 0.016844 0.121832
1.000000 0.061639 0.156205
1.000000 0.107389 0.194095
0.109418 0.143692 0.095822
0.162839 0.152482 0.105374
0.235599 0.158314 0.112833
0.317687 0.156120 0.113472
0.405929 0.150652 0.112162
0.494220 0.143450 0.110667
0.577696 0.134998 0.109465
0.653637 0.125606 0.109391
0.722470 0.115314 0.110837
0.786387 0.103677 0.114432
0.848953 0.089262 0.121675
0.911840 0.071770 0.133154
0.971124 0.055898 0.141578
0.999886 0.074898 0.170438
1.000000 0.127383 0.216844
1.000000 0.163348 0.245816
0.130992 0.201894 0.083777
0.183156 0.214567 0.095854
0.254281 0.223727 0.105383
0.339637 0.227843 0.110900
0.425096 0.224136 0.110219
0.509230 0.217983 0.108217
0.588607 0.210579 0.106053
0.660704 0.202586 0.104268
0.725147 0.193969 0.102820
0.784355 0.184501 0.102019
0.840331 0.173537 0.101707
0.894547 0.160677 0.102065
0.949115 0.145251 0.103795
0.996178 0.138074 0.120744
1.000000 0.187016 0.204998
1.000000 0.220164 0.266222
0.158983 0.266388 0.071581
0.208332 0.280767 0.084128
0.275882 0.291771 0.094169
0.360030 0.299481 0.101919
0.447679 0.301922 0.105815
0.528301 0.297024 0.104180
0.603857 0.290374 0.101709
0.672492 0.283118 0.099235
0.734233 0.275336 0.096969
0.790939 0.266872 0.094845
0.844551 0.257174 0.092793
0.896396 0.246259 0.090793
0.947708 0.233432 0.088806
0.995095 0.223026 0.092954
1.000000 0.255184 0.154255
1.000000 0.292125 0.219052
0.190704 0.334933 0.056637
0.238005 0.350973 0.069664
0.302376 0.363411 0.080122
0.381858 0.372377 0.088161
0.468601 0.379076 0.094723
0.550081 0.379753 0.096966
0.621770 0.373948 0.094565
0.687077 0.367429 0.091720
0.746030 0.360117 0.088959
0.800540 0.352390 0.086012
0.852239 0.343436 0.082901
0.902288 0.333270 0.079457
0.952004 0.321685 0.075747
0.995943 0.312501 0.079369
1.000000 0.333204 0.134977
1.000000 0.362483 0.197075
0.226599 0.406700 0.038999
0.272292 0.423642 0.052141
0.333555 0.437232 0.062753
0.408722 0.447394 0.071205
0.490223 0.454882 0.077696
0.571431 0.460653 0.083199
0.642619 0.459277 0.083287
