entry/src/main/resources/rawfile/filters/YT_Moody_Dark.cube
TITLE "Moody Dark"
LUT_3D_SIZE 6
0.150607 0.135592 0.131197
0.174780 0.137914 0.130690
0.390466 0.133037 0.122454
0.540460 0.132488 0.123113
0.606177 0.133620 0.124755
0.644556 0.134966 0.127077
0.154360 0.148003 0.133214
0.165060 0.148654 0.133440
0.215886 0.152503 0.131148
0.446114 0.148098 0.122881
0.592563 0.149345 0.124330
0.670292 0.152138 0.128227
0.166241 0.196357 0.135714
0.179751 0.194681 0.135878
0.282696 0.223573 0.131687
0.611043 0.301362 0.126493
0.777417 0.331338 0.129037
0.858314 0.331335 0.130254
0.222629 0.375878 0.146035
0.275007 0.387438 0.145961
0.437131 0.419115 0.145659
0.775990 0.562502 0.167076
0.903655 0.628508 0.186294
0.931722 0.643985 0.190466
0.508626 0.630237 0.192319
0.578932 0.638035 0.192123
0.699652 0.652774 0.194789
0.838911 0.694960 0.206929
0.936706 0.777616 0.231050
0.960922 0.818317 0.242731
0.812589 0.840482 0.271122
0.832422 0.838880 0.273060
0.869670 0.842573 0.278230
0.915993 0.854560 0.280491
0.962643 0.887947 0.299791
0.981811 0.928832 0.343450
0.149298 0.136810 0.144918
0.168148 0.138407 0.140470
0.294686 0.136102 0.134054
0.503748 0.133005 0.132147
0.600897 0.134560 0.134987
0.651112 0.136312 0.138204
0.152516 0.147989 0.144992
0.164055 0.148585 0.143490
0.206955 0.151537 0.141542
0.422037 0.146569 0.134022
0.587004 0.148398 0.136081
0.675881 0.152463 0.141187
0.160799 0.197042 0.152986
0.176885 0.198395 0.151265
0.260847 0.217239 0.148371
0.574679 0.272662 0.141261
0.757373 0.293517 0.143799
0.844037 0.289531 0.145244
0.212339 0.395867 0.188422
0.270008 0.422445 0.181704
0.456172 0.461288 0.175712
0.766097 0.572473 0.186254
0.903217 0.634384 0.200100
0.931772 0.643342 0.200640
0.476008 0.678319 0.285571
0.580074 0.701949 0.274530
0.723215 0.720751 0.270100
0.845113 0.747008 0.281160
0.940029 0.813612 0.311368
0.966959 0.848532 0.331659
0.797021 0.904109 0.476930
0.828508 0.905450 0.473801
0.875279 0.908880 0.485340
0.918996 0.913884 0.501469
0.964005 0.930228 0.516809
0.986423 0.957174 0.551297
0.145449 0.136901 0.185580
0.160028 0.138695 0.172012
0.213061 0.140506 0.166679
0.442176 0.134615 0.160989
0.590138 0.136596 0.163310
0.666307 0.139855 0.167184
0.146175 0.149841 0.188797
0.160113 0.150548 0.180607
0.195638 0.153614 0.175630
0.389699 0.150256 0.169196
0.588038 0.152561 0.170511
0.693113 0.157912 0.175643
0.149567 0.215759 0.261677
0.165893 0.215127 0.245366
0.229581 0.238204 0.239416
0.539476 0.275343 0.223833
0.749718 0.292102 0.211390
0.849981 0.293536 0.202908
0.234018 0.462846 0.449257
0.247755 0.475405 0.429547
0.405747 0.572929 0.428379
0.728740 0.646021 0.428774
0.898637 0.682309 0.403388
0.936815 0.674871 0.358084
0.372768 0.714542 0.607839
0.454997 0.754833 0.603450
0.669259 0.823626 0.605279
0.835568 0.850330 0.615845
0.933849 0.880009 0.631890
0.976098 0.898189 0.627949
0.691911 0.940725 0.744696
0.751993 0.949903 0.743159
0.846670 0.962337 0.745652
0.914821 0.966604 0.754681
0.959042 0.969166 0.762775
0.986639 0.980533 0.773593
0.139113 0.132366 0.296251
0.152752 0.134307 0.274588
0.188120 0.137522 0.261780
0.366009 0.141310 0.266432
0.565575 0.147124 0.270513
0.672645 0.151766 0.270481
0.136551 0.147950 0.342718
0.150908 0.147990 0.328725
0.182870 0.150379 0.314448
0.345145 0.157436 0.322212
0.568297 0.166700 0.330143
0.694024 0.173613 0.328193
0.144292 0.238623 0.493602
0.161161 0.242396 0.491872
0.198630 0.256295 0.485467
0.447702 0.315620 0.527801
0.706363 0.356889 0.545980
0.836111 0.368545 0.535483
0.258128 0.510261 0.682117
0.271296 0.524392 0.683342
0.318208 0.589763 0.696706
0.632436 0.701611 0.743373
0.854109 0.736185 0.749145
0.945055 0.740725 0.733522
0.369890 0.724749 0.794465
0.397759 0.757945 0.798340
0.540361 0.834431 0.819748
0.781417 0.888339 0.839078
0.908337 0.906906 0.844876
0.973302 0.916993 0.839417
0.589401 0.941903 0.885869
0.664365 0.955808 0.890098
0.779895 0.973065 0.897196
0.885368 0.982585 0.903570
0.950087 0.985096 0.909139
0.982306 0.988125 0.914223
0.138305 0.134023 0.405332
0.150966 0.134564 0.404775
0.179734 0.136308 0.404397
0.309973 0.141158 0.420838
0.525562 0.150601 0.443252
0.648979 0.158197 0.449229
0.135242 0.152738 0.464453
0.149451 0.152291 0.466678
0.177664 0.153456 0.466915
0.308329 0.159938 0.486284
0.535917 0.172009 0.515057
0.677272 0.181884 0.525167
0.146388 0.265238 0.613626
0.161735 0.269239 0.619272
0.192561 0.286267 0.631565
0.382406 0.343981 0.684234
0.666311 0.383242 0.721484
0.822830 0.400696 0.729343
0.266757 0.529347 0.784812
0.282078 0.544568 0.793306
0.315484 0.593386 0.811766
0.536152 0.705108 0.865043
0.802394 0.742750 0.884433
0.932688 0.757177 0.883053
0.368563 0.723497 0.878541
0.390301 0.756259 0.888741
0.487113 0.827053 0.911588
0.722658 0.890184 0.937035
0.878486 0.912048 0.944333
0.963411 0.922833 0.944681
0.540181 0.940945 0.950918
0.623649 0.954690 0.954750
0.751556 0.973132 0.961742
0.867265 0.984362 0.967375
0.941400 0.987882 0.970399
0.977353 0.988461 0.971859
0.138277 0.138399 0.468177
0.151424 0.138802 0.475914
0.177731 0.140279 0.485103
0.284306 0.144149 0.503132
0.497212 0.153405 0.537191
0.637140 0.162081 0.558068
0.135399 0.160794 0.529162
0.149638 0.160478 0.536470
0.175768 0.161356 0.547189
0.293393 0.166901 0.570305
0.515144 0.178603 0.604868
0.673426 0.189075 0.631000
0.157538 0.294420 0.679387
0.170192 0.298805 0.687449
0.195562 0.322678 0.712142
0.354411 0.382575 0.764681
0.641711 0.418756 0.809589
0.814999 0.436106 0.823148
0.273173 0.542736 0.832807
0.288055 0.555997 0.843308
0.320058 0.601560 0.867376
0.489629 0.709229 0.919519
0.768483 0.747913 0.944711
0.914837 0.762915 0.948165
0.367816 0.723128 0.909719
0.388083 0.753058 0.921658
0.469355 0.820960 0.945767
0.690859 0.886925 0.970856
0.860028 0.912846 0.978935
0.955285 0.925863 0.980920
0.523201 0.936538 0.968032
0.610132 0.951821 0.972735
0.742163 0.971273 0.979532
0.860749 0.983923 0.984368
0.935927 0.988101 0.986700
0.976349 0.988632 0.987533
