entry/src/main/resources/rawfile/filters/YT_Moody_Dark.cube
TITLE "Moody Dark"
LUT_3D_SIZE 16
0.150607 0.135592 0.131197
0.154864 0.136147 0.131212
0.160111 0.136767 0.131183
0.174780 0.137914 0.130690
0.195085 0.138948 0.129958
0.285298 0.136385 0.126502
0.390466 0.133037 0.122454
0.453813 0.132265 0.121963
0.503829 0.132263 0.122530
0.540460 0.132488 0.123113
0.567030 0.132926 0.123781
0.590064 0.133329 0.124347
0.606177 0.133620 0.124755
0.621447 0.133971 0.125285
0.633801 0.134460 0.126225
0.644556 0.134966 0.127077
0.151390 0.138085 0.131766
0.154630 0.138443 0.131781
0.158545 0.138855 0.131770
0.169027 0.139841 0.131462
0.183239 0.140816 0.130991
0.238797 0.139901 0.128769
0.303714 0.138548 0.126155
0.369964 0.137211 0.124480
0.436971 0.135817 0.123032
0.487340 0.135454 0.122721
0.528296 0.135751 0.123216
0.564058 0.136150 0.123763
0.589382 0.136761 0.124373
0.612902 0.137390 0.125111
0.630097 0.138162 0.126181
0.644912 0.138809 0.127125
0.152294 0.140991 0.132363
0.154583 0.141139 0.132388
0.157243 0.141341 0.132403
0.163694 0.142177 0.132288
0.171786 0.143124 0.132081
0.195748 0.143764 0.130978
0.223132 0.144330 0.129655
0.292860 0.142508 0.126859
0.374786 0.139972 0.123587
0.440402 0.139024 0.122375
0.494456 0.139227 0.122728
0.542045 0.139626 0.123218
0.576097 0.140504 0.124030
0.607137 0.141344 0.124956
0.628802 0.142357 0.126169
0.647716 0.143234 0.127248
0.154360 0.148003 0.133214
0.156741 0.147945 0.133349
0.159425 0.147910 0.133472
0.165060 0.148654 0.133440
0.172009 0.149560 0.133327
0.192477 0.150993 0.132333
0.215886 0.152503 0.131148
0.288749 0.151172 0.128038
0.375365 0.148905 0.124370
0.446114 0.148098 0.122881
0.504794 0.148233 0.123057
0.556056 0.148628 0.123470
0.592563 0.149345 0.124330
0.626146 0.150150 0.125349
0.649711 0.151192 0.126857
0.670292 0.152138 0.128227
0.156754 0.156391 0.134103
0.159436 0.156068 0.134350
0.162391 0.155818 0.134594
0.167787 0.156451 0.134621
0.174532 0.157311 0.134556
0.196732 0.159623 0.133499
0.222388 0.162364 0.132225
0.298295 0.162479 0.128972
0.389427 0.162063 0.125149
0.462646 0.162090 0.123529
0.524646 0.163415 0.123615
0.578921 0.164664 0.123971
0.617269 0.165563 0.124814
0.652843 0.166505 0.125886
0.677030 0.167126 0.127570
0.699313 0.167991 0.129195
0.161267 0.175260 0.134915
0.164474 0.174700 0.135095
0.167909 0.174249 0.135258
0.173428 0.174383 0.135284
0.180955 0.175145 0.135202
0.213060 0.182339 0.133782
0.250166 0.190873 0.132083
0.341554 0.203066 0.129205
0.449880 0.217669 0.126085
0.532743 0.227645 0.124977
0.596167 0.234399 0.125526
0.652955 0.240546 0.126151
0.694024 0.243919 0.126828
0.729992 0.245178 0.127585
0.754123 0.245519 0.128707
0.775164 0.244597 0.129794
0.166241 0.196357 0.135714
0.170062 0.195801 0.135792
0.174084 0.195258 0.135873
0.179751 0.194681 0.135878
0.188288 0.195195 0.135732
0.231970 0.208053 0.133892
0.282696 0.223573 0.131687
0.392518 0.250373 0.129312
0.519080 0.280498 0.126937
0.611043 0.301362 0.126493
0.676290 0.314816 0.127639
0.734781 0.326005 0.128565
0.777417 0.331338 0.129037
0.816116 0.335086 0.129497
0.837693 0.333160 0.129847
0.858314 0.331335 0.130254
0.176471 0.246607 0.137583
0.181381 0.246803 0.137596
0.186661 0.246313 0.137526
0.196427 0.247381 0.137443
0.210153 0.249800 0.137249
0.262610 0.263621 0.135744
0.323457 0.280638 0.133974
0.445288 0.320153 0.134730
0.582520 0.365682 0.136281
0.677970 0.396701 0.138877
0.738173 0.414863 0.142307
0.792066 0.429779 0.145073
0.830446 0.437496 0.146371
0.864391 0.442708 0.147283
0.880092 0.441472 0.147357
0.894506 0.440209 0.147526
0.188108 0.303780 0.139824
0.194216 0.304633 0.139698
0.201230 0.305637 0.139548
0.216339 0.309048 0.139354
0.236069 0.313849 0.139093
0.297238 0.327539 0.138120
0.365851 0.343894 0.137081
0.498118 0.396171 0.141775
0.645067 0.456994 0.147889
0.740369 0.496468 0.153980
0.795443 0.519436 0.160080
0.843415 0.537941 0.165047
0.875758 0.548436 0.167683
0.902806 0.554918 0.169490
0.909963 0.554893 0.169716
0.915916 0.555282 0.170032
0.222629 0.375878 0.146035
0.235981 0.379553 0.146058
0.249165 0.381336 0.145833
0.275007 0.387438 0.145961
0.304302 0.393510 0.146004
0.368030 0.406004 0.145888
0.437131 0.419115 0.145659
0.557326 0.466821 0.151625
0.687643 0.521839 0.159033
0.775990 0.562502 0.167076
0.830824 0.591708 0.175690
0.877562 0.616459 0.182921
0.903655 0.628508 0.186294
0.925888 0.638953 0.189176
0.929577 0.642075 0.189980
0.931722 0.643985 0.190466
0.270594 0.456728 0.154457
0.293863 0.462631 0.154636
0.319052 0.468793 0.154899
0.358602 0.475980 0.155576
0.401352 0.484191 0.156396
0.464854 0.494621 0.157558
0.530769 0.504949 0.158689
0.620779 0.533608 0.163771
0.715895 0.566842 0.169829
0.790287 0.602040 0.178649
0.849906 0.640314 0.189968
0.897918 0.671808 0.199219
0.918380 0.687030 0.203479
0.935915 0.700149 0.207142
0.939444 0.704416 0.208295
0.941959 0.708426 0.209415
0.358042 0.539583 0.168672
0.386113 0.547200 0.169159
0.412473 0.552648 0.169028
0.454866 0.559845 0.169512
0.502023 0.568597 0.170552
0.559443 0.576476 0.172101
0.619574 0.584845 0.173946
0.683356 0.599128 0.177957
0.748274 0.615550 0.182760
0.808919 0.644659 0.191346
0.866628 0.684494 0.203144
0.913411 0.719308 0.213385
0.930643 0.739478 0.219095
0.945465 0.757028 0.224050
0.949153 0.763636 0.225913
0.951909 0.769207 0.227488
0.508626 0.630237 0.192319
0.527556 0.632307 0.192129
0.548107 0.634698 0.192020
0.578932 0.638035 0.192123
0.611987 0.641886 0.192446
0.655838 0.647918 0.193771
0.699652 0.652774 0.194789
0.747012 0.663520 0.197797
0.794363 0.675422 0.201218
0.838911 0.694960 0.206929
0.880710 0.721127 0.214620
0.916563 0.747961 0.222469
0.936706 0.777616 0.231050
0.954049 0.803529 0.238530
0.958037 0.811609 0.240823
0.960922 0.818317 0.242731
0.640322 0.712202 0.216317
0.656022 0.712542 0.215931
0.672802 0.713227 0.215981
0.693687 0.713574 0.215804
0.715776 0.714269 0.215768
0.745091 0.717267 0.216540
0.776366 0.721048 0.217580
0.808206 0.728098 0.219535
0.839550 0.736094 0.221725
0.868803 0.746951 0.224829
0.895698 0.760320 0.228625
0.921473 0.779401 0.234267
0.943254 0.815429 0.245588
0.962244 0.847338 0.255699
0.966547 0.857217 0.259358
0.969566 0.865232 0.262481
0.728014 0.777028 0.243864
0.738051 0.776245 0.243559
0.749310 0.776150 0.243907
0.764163 0.776414 0.244115
0.779864 0.776770 0.244325
0.801174 0.778941 0.245676
0.823901 0.781889 0.247462
0.846841 0.786749 0.248922
0.870157 0.792928 0.250470
0.892384 0.800389 0.252104
0.914004 0.809666 0.253961
0.934616 0.823183 0.258428
0.952666 0.851443 0.271968
0.968539 0.877097 0.284934
0.972642 0.887896 0.293599
0.975750 0.897478 0.301876
0.812589 0.840482 0.271122
0.818355 0.840055 0.272005
0.824069 0.839273 0.272705
0.832422 0.838880 0.273060
0.842166 0.839140 0.273614
0.855395 0.840640 0.275695
0.869670 0.842573 0.278230
0.884666 0.845654 0.279365
0.899950 0.849559 0.280000
0.915993 0.854560 0.280491
0.932855 0.860136 0.280380
0.948873 0.868695 0.283871
0.962643 0.887947 0.299791
0.974681 0.905735 0.315293
0.978604 0.917578 0.329486
0.981811 0.928832 0.343450
0.150297 0.135934 0.134226
0.154686 0.136417 0.133757
0.159861 0.136950 0.133264
0.173248 0.138053 0.132702
0.191502 0.139055 0.131998
0.269679 0.136751 0.128713
0.361146 0.133705 0.124854
0.428935 0.132726 0.124100
0.488786 0.132349 0.124254
0.529846 0.132550 0.124838
0.559367 0.133062 0.125721
0.585784 0.133497 0.126472
0.604177 0.133838 0.126937
0.621771 0.134171 0.127570
0.634586 0.134734 0.128658
0.645743 0.135241 0.129634
0.151113 0.138254 0.134429
0.154479 0.138558 0.134106
0.158445 0.138935 0.133768
0.168196 0.139868 0.133396
0.181120 0.140814 0.132928
0.231112 0.140011 0.130786
0.287921 0.138861 0.128340
0.355668 0.137430 0.126585
0.425530 0.135941 0.125016
0.479768 0.135465 0.124668
0.523141 0.135761 0.125271
0.560608 0.136196 0.125927
0.587852 0.136830 0.126670
0.612989 0.137531 0.127542
0.631022 0.138325 0.128770
0.646549 0.139056 0.129884
0.152027 0.140980 0.134692
0.154439 0.141116 0.134520
0.157214 0.141308 0.134342
0.163513 0.142098 0.134151
0.171331 0.142982 0.133908
0.193785 0.143654 0.132890
0.219245 0.144307 0.131725
0.288051 0.142465 0.128968
0.368944 0.139930 0.125758
0.434771 0.138936 0.124582
0.490506 0.139076 0.124913
0.539223 0.139465 0.125455
0.574654 0.140413 0.126450
0.606960 0.141361 0.127551
0.629703 0.142412 0.128942
0.649624 0.143389 0.130189
0.153954 0.147720 0.135772
0.156499 0.147696 0.135724
0.159328 0.147691 0.135662
0.164863 0.148390 0.135561
0.171623 0.149175 0.135397
0.191116 0.150526 0.134517
0.213182 0.151965 0.133459
0.284198 0.150496 0.130405
0.368630 0.148170 0.126795
0.438884 0.147235 0.125349
0.499416 0.147387 0.125568
0.552058 0.147772 0.126050
0.589951 0.148705 0.127076
0.624988 0.149712 0.128264
0.649303 0.150857 0.129923
0.671134 0.151984 0.131468
0.156179 0.155809 0.137022
0.159057 0.155590 0.137071
0.162170 0.155455 0.137107
0.167461 0.155973 0.137074
0.173985 0.156694 0.136958
0.194704 0.158789 0.136026
0.218784 0.161237 0.134887
0.292083 0.161149 0.131689
0.379572 0.160052 0.127882
0.454050 0.160676 0.126320
0.517327 0.161464 0.126460
0.573600 0.162911 0.126920
0.613278 0.163962 0.127916
0.649932 0.164852 0.129119
0.675574 0.165832 0.130975
0.698498 0.166591 0.132735
0.160268 0.174412 0.138331
0.163773 0.174416 0.138345
0.167472 0.174265 0.138348
0.173017 0.174360 0.138315
0.180279 0.174818 0.138213
0.210669 0.181508 0.136961
0.245675 0.189244 0.135468
0.334277 0.200139 0.132565
0.438179 0.211879 0.129307
0.521075 0.220991 0.128186
0.587479 0.227957 0.128848
0.645812 0.233377 0.129537
0.687910 0.236501 0.130331
0.726194 0.238492 0.131208
0.750343 0.238016 0.132433
0.772392 0.237265 0.133623
0.164840 0.195485 0.139700
0.168941 0.195400 0.139625
0.173265 0.195339 0.139524
0.179135 0.194879 0.139504
0.187617 0.195395 0.139406
0.228820 0.207028 0.137782
0.277238 0.221341 0.135873
0.383423 0.244961 0.133361
0.504842 0.270739 0.130741
0.598327 0.290592 0.130224
0.665184 0.302472 0.131409
0.726343 0.313304 0.132418
0.770714 0.318508 0.132978
0.810109 0.321682 0.133476
0.832868 0.319915 0.133949
0.853859 0.317633 0.134411
0.174675 0.247305 0.142411
0.179833 0.248095 0.142151
0.185498 0.248533 0.141843
0.196014 0.250188 0.141777
0.210425 0.253231 0.141650
0.261732 0.265989 0.140319
0.320579 0.281495 0.138810
0.439461 0.318203 0.139044
0.572389 0.358926 0.139670
0.666973 0.387813 0.141935
0.730269 0.405781 0.145402
0.786446 0.420462 0.148233
0.825197 0.426615 0.149397
0.860377 0.432351 0.150534
0.876274 0.430024 0.150500
0.890985 0.427531 0.150467
0.185902 0.306226 0.145536
0.192412 0.308852 0.145049
0.199812 0.310873 0.144548
0.216382 0.315578 0.144403
0.237278 0.320437 0.144207
0.298591 0.333935 0.143376
0.367021 0.349010 0.142431
0.495850 0.397338 0.145975
0.637152 0.453007 0.150573
0.733125 0.491568 0.156041
0.790822 0.514714 0.162188
0.840801 0.533445 0.167213
0.872948 0.542229 0.169617
0.900652 0.549041 0.171561
0.908057 0.548481 0.171713
0.914746 0.549521 0.172091
0.219668 0.381429 0.152759
0.233764 0.385821 0.152314
0.249016 0.389992 0.151899
0.276945 0.396705 0.151898
0.307726 0.403212 0.151832
0.372333 0.415594 0.151762
0.440670 0.426832 0.151350
0.557187 0.470996 0.156071
0.685071 0.523210 0.162134
0.772776 0.562517 0.169534
0.829275 0.592081 0.178144
0.877042 0.616662 0.185281
0.903157 0.628251 0.188566
0.925461 0.638080 0.191334
0.929165 0.640069 0.191807
0.931521 0.642368 0.192372
0.265722 0.464206 0.162107
0.292244 0.471854 0.162082
0.320484 0.479598 0.162080
0.364317 0.488777 0.162602
0.409922 0.497664 0.163178
0.472725 0.507033 0.163986
0.538671 0.516643 0.164857
0.625112 0.542223 0.168959
0.716792 0.572791 0.174058
0.790732 0.607510 0.182571
0.849929 0.644592 0.193519
0.898145 0.675196 0.202497
0.918568 0.689720 0.206611
0.936136 0.702479 0.210200
0.939626 0.705732 0.211050
0.942178 0.709483 0.212059
0.356133 0.551904 0.177661
0.384517 0.559065 0.177405
0.415566 0.566753 0.177273
0.462909 0.575709 0.177681
0.512787 0.584857 0.178254
0.570770 0.592555 0.179592
0.628780 0.599113 0.180819
0.690527 0.611847 0.184332
0.752387 0.626293 0.188519
0.811550 0.653896 0.196672
0.868451 0.693089 0.208305
0.914407 0.726853 0.218432
0.931563 0.745870 0.224333
0.946322 0.762445 0.229418
0.950001 0.768545 0.231316
0.952696 0.773514 0.232839
0.508838 0.644943 0.201768
0.530559 0.648390 0.201609
0.554093 0.652154 0.201472
0.587389 0.656329 0.201574
0.621830 0.660183 0.201620
0.663950 0.664580 0.202469
0.707770 0.669329 0.203593
0.752907 0.678238 0.206036
0.798565 0.689263 0.209189
0.841324 0.707050 0.214397
0.881962 0.731851 0.221757
0.917253 0.757246 0.229812
0.937750 0.786107 0.240584
0.955437 0.811410 0.250058
0.959451 0.819111 0.253280
0.962430 0.826012 0.256237
0.646011 0.731681 0.231323
0.662434 0.732427 0.230878
0.679658 0.733165 0.230442
0.701404 0.733657 0.230012
0.723933 0.733867 0.229314
0.752544 0.736017 0.230093
0.782427 0.738405 0.230772
0.812908 0.744610 0.232657
0.843270 0.752491 0.235363
0.871138 0.761993 0.238240
0.896984 0.773720 0.241831
0.922003 0.791083 0.248065
0.944470 0.826223 0.262766
0.964025 0.857342 0.275978
0.968465 0.867216 0.281322
0.971615 0.875340 0.286103
0.730302 0.797468 0.279446
0.741719 0.797338 0.278694
0.754421 0.797880 0.278624
0.769142 0.797294 0.277922
0.785460 0.797553 0.278014
0.806438 0.799031 0.279808
0.828858 0.801231 0.282278
0.850662 0.804809 0.284023
0.872622 0.810034 0.286618
0.894143 0.817015 0.289687
0.914941 0.824633 0.291494
0.935242 0.837053 0.296898
0.953712 0.863584 0.311784
0.969918 0.887539 0.325970
0.974402 0.898249 0.335962
0.977775 0.907501 0.345245
0.812486 0.862165 0.327520
0.818442 0.861491 0.327258
0.825940 0.861659 0.327656
0.834783 0.861013 0.327643
0.844530 0.860795 0.328130
0.858390 0.861943 0.331298
0.872843 0.863070 0.335295
0.887164 0.865335 0.338393
0.901833 0.868644 0.341247
0.917221 0.872924 0.344302
0.933703 0.877579 0.344895
0.949741 0.885238 0.349235
0.963363 0.901129 0.363518
0.975781 0.917034 0.378985
0.980130 0.928022 0.393488
0.983770 0.938557 0.407554
0.149958 0.136294 0.137679
0.154379 0.136688 0.136680
0.159562 0.137152 0.135680
0.171528 0.138198 0.135063
0.187567 0.139174 0.134370
0.254525 0.137127 0.131221
0.331786 0.134429 0.127586
0.403071 0.133260 0.126573
0.471725 0.132571 0.126392
0.519616 0.132583 0.126916
0.552398 0.133180 0.128041
0.581134 0.133704 0.128954
0.602350 0.134063 0.129505
0.621981 0.134475 0.130214
0.635555 0.135020 0.131457
0.647216 0.135570 0.132558
0.150789 0.138466 0.137478
0.154255 0.138740 0.136804
0.158245 0.139035 0.136117
0.167225 0.139932 0.135654
0.179157 0.140811 0.135153
0.222201 0.140180 0.133161
0.271458 0.139253 0.130895
0.340209 0.137748 0.129054
0.414736 0.136048 0.127331
0.471915 0.135500 0.127007
0.517598 0.135807 0.127719
0.557243 0.136249 0.128469
0.586360 0.136967 0.129337
0.613249 0.137699 0.130350
0.632151 0.138580 0.131749
0.648502 0.139320 0.132997
0.151714 0.141035 0.137391
0.154267 0.141157 0.137013
0.157157 0.141339 0.136613
0.163265 0.142053 0.136341
0.170743 0.142859 0.136038
0.191914 0.143580 0.135113
0.215476 0.144294 0.134088
0.282921 0.142482 0.131422
0.362456 0.139924 0.128290
0.428720 0.138894 0.127133
0.486198 0.138979 0.127470
0.536756 0.139363 0.128084
0.573258 0.140373 0.129241
0.606994 0.141406 0.130508
0.630940 0.142560 0.132082
0.651872 0.143601 0.133510
0.153490 0.147480 0.138680
0.156204 0.147526 0.138450
0.159178 0.147577 0.138201
0.164629 0.148147 0.137997
0.171202 0.148840 0.137783
0.189453 0.150060 0.136983
0.210316 0.151443 0.136085
0.278935 0.149872 0.133114
0.360833 0.147463 0.129583
0.431423 0.146515 0.128190
0.493641 0.146625 0.128433
0.548168 0.147087 0.129001
0.587459 0.148121 0.130182
0.623550 0.149232 0.131518
0.649382 0.150619 0.133366
0.672238 0.151885 0.135055
0.155523 0.155312 0.140264
0.158602 0.155234 0.140128
0.161890 0.155136 0.139961
0.167119 0.155598 0.139838
0.173423 0.156146 0.139669
0.192881 0.158086 0.138832
0.214992 0.160120 0.137851
0.285538 0.159609 0.134705
0.370170 0.158393 0.130947
0.444196 0.158659 0.129433
0.509990 0.159620 0.129672
0.567736 0.160778 0.130200
0.609336 0.162171 0.131360
0.647348 0.163211 0.132696
0.674007 0.164388 0.134686
0.698415 0.165703 0.136600
0.159226 0.173916 0.142168
0.162949 0.174110 0.141988
0.166809 0.174017 0.141776
0.172453 0.174230 0.141679
0.179637 0.174790 0.141566
0.207908 0.180579 0.140464
0.240813 0.187650 0.139190
0.326371 0.196863 0.136255
0.426952 0.206745 0.132877
0.509805 0.215103 0.131783
0.578455 0.221550 0.132502
0.638987 0.226551 0.133257
0.682206 0.229120 0.134164
0.722008 0.231314 0.135134
0.746930 0.230793 0.136460
0.769876 0.230031 0.137758
0.163306 0.194883 0.144189
0.167673 0.195292 0.143908
0.172271 0.195526 0.143634
0.178425 0.195330 0.143558
0.186813 0.195769 0.143417
0.225869 0.206434 0.142054
0.271559 0.219475 0.140435
0.373432 0.239396 0.137794
0.492706 0.262620 0.134906
0.584709 0.279237 0.134269
0.655076 0.291081 0.135509
0.718329 0.301010 0.136593
0.763242 0.305194 0.137183
0.804294 0.308152 0.137763
0.826987 0.305670 0.138280
0.849047 0.303660 0.138813
0.172788 0.248345 0.148087
0.178192 0.249939 0.147557
0.184173 0.251304 0.147004
0.195593 0.254058 0.146873
0.210090 0.256632 0.146644
0.260510 0.268800 0.145521
0.317326 0.282183 0.144122
0.431629 0.314627 0.143726
0.560644 0.351451 0.143529
0.655899 0.378407 0.145340
0.721680 0.396017 0.148783
0.780360 0.410525 0.151587
0.820436 0.417398 0.152990
0.855722 0.420471 0.153778
0.872679 0.419617 0.154088
0.887790 0.416469 0.153991
0.183689 0.309705 0.152690
0.190406 0.313481 0.151793
0.198083 0.316679 0.150898
0.216039 0.322691 0.150604
0.237898 0.328194 0.150297
0.299738 0.340873 0.149477
0.368116 0.354583 0.148566
0.492342 0.398369 0.150877
0.630339 0.450430 0.154107
0.725640 0.486694 0.158808
0.785401 0.509399 0.164658
0.838291 0.529041 0.169683
0.870500 0.537405 0.172011
0.898391 0.543101 0.173798
0.906455 0.543110 0.174058
0.912890 0.541908 0.174031
0.215670 0.386142 0.161656
0.231293 0.393046 0.160939
0.247344 0.398474 0.159899
0.277479 0.406551 0.159542
0.311381 0.415093 0.159234
0.376126 0.426049 0.158825
0.445621 0.436856 0.158298
0.558866 0.477393 0.161822
0.681651 0.524927 0.166247
0.768970 0.562722 0.172850
0.827309 0.592664 0.181298
0.876495 0.616914 0.188147
0.902802 0.628437 0.191416
0.925200 0.638079 0.194148
0.928906 0.638962 0.194231
0.931331 0.640843 0.194617
0.261169 0.472600 0.173363
0.289200 0.481611 0.172770
0.319244 0.490555 0.172139
0.367448 0.501868 0.172084
0.417470 0.512589 0.172011
0.480410 0.520899 0.172207
0.546122 0.529424 0.172541
0.629655 0.552556 0.175764
0.718461 0.580486 0.179864
0.790502 0.612605 0.187446
0.849768 0.649396 0.198290
0.898480 0.680016 0.207245
0.918840 0.693562 0.211095
0.936448 0.705343 0.214387
0.940007 0.708206 0.214982
0.942472 0.711007 0.215554
0.350078 0.562500 0.190916
0.381717 0.571965 0.190341
0.416582 0.581899 0.189711
0.468496 0.592315 0.189186
0.523615 0.603373 0.189166
0.580109 0.609074 0.189357
0.638059 0.614789 0.189908
0.697864 0.625961 0.192866
0.756499 0.638006 0.196282
0.814111 0.664277 0.204142
0.869765 0.702062 0.215424
0.915157 0.734670 0.225390
0.932468 0.752965 0.231717
0.947345 0.768701 0.236976
0.950947 0.774090 0.238491
0.953609 0.778566 0.239821
0.506970 0.660983 0.217841
0.531576 0.665704 0.217090
0.557110 0.670252 0.216212
0.592670 0.674842 0.215539
0.630712 0.679898 0.215041
0.672346 0.683282 0.215357
0.715500 0.687084 0.216097
0.758765 0.694613 0.218145
0.802757 0.704554 0.221164
0.843914 0.720900 0.226167
0.883164 0.743584 0.232808
0.917920 0.767903 0.241336
0.938821 0.795523 0.254271
0.956950 0.819963 0.265716
0.961049 0.827543 0.269900
0.964024 0.834104 0.273627
0.646923 0.751633 0.253096
0.665153 0.752687 0.251597
0.684808 0.754253 0.250357
0.707550 0.754606 0.249018
0.731728 0.755451 0.248418
0.759457 0.756301 0.248173
0.788835 0.758117 0.248885
0.818110 0.763819 0.251548
0.846412 0.769747 0.253310
0.873157 0.778122 0.256657
0.898149 0.788407 0.260533
0.922382 0.803620 0.266733
0.945671 0.837863 0.285414
0.965905 0.868008 0.302026
0.970482 0.877750 0.308703
0.973772 0.886010 0.314934
0.730053 0.818146 0.319543
0.743702 0.819173 0.318603
0.757370 0.819754 0.317340
0.773152 0.819437 0.316667
0.790363 0.819804 0.316877
0.811401 0.820710 0.318907
0.833715 0.822393 0.322270
0.854626 0.825029 0.324795
0.875422 0.829478 0.328912
0.895946 0.835223 0.332586
0.915861 0.841092 0.334115
0.935810 0.851889 0.339859
0.954801 0.876737 0.356584
0.971426 0.898914 0.371917
0.976176 0.908961 0.382525
0.979886 0.918154 0.393260
0.810887 0.884123 0.387969
0.818390 0.884243 0.387375
0.825801 0.883961 0.386776
0.835977 0.884082 0.387644
0.846817 0.884377 0.389245
0.860740 0.884623 0.393476
0.876221 0.885958 0.399415
0.890511 0.887902 0.404783
0.903681 0.889382 0.409193
0.918373 0.892325 0.412695
0.934601 0.895981 0.413652
0.950319 0.901950 0.417647
0.964288 0.915595 0.431664
0.976801 0.928635 0.445682
0.981560 0.938616 0.460006
0.985700 0.948498 0.474690
0.149298 0.136810 0.144918
0.153333 0.137123 0.143116
0.157973 0.137492 0.141355
0.168148 0.138407 0.140470
0.181452 0.139281 0.139654
0.233805 0.137941 0.137037
0.294686 0.136102 0.134054
0.370004 0.134610 0.132704
0.448600 0.133261 0.131844
0.503748 0.133005 0.132147
0.542130 0.133574 0.133349
0.576026 0.134100 0.134351
0.600897 0.134560 0.134987
0.623513 0.135052 0.135747
0.638348 0.135722 0.137039
0.651112 0.136312 0.138204
0.150113 0.139036 0.144200
0.153447 0.139244 0.142928
0.157234 0.139509 0.141686
0.165195 0.140288 0.140998
0.175463 0.141080 0.140358
0.210614 0.140824 0.138688
0.250403 0.140352 0.136819
0.320357 0.138705 0.134870
0.397755 0.136741 0.132916
0.458913 0.136040 0.132473
0.509660 0.136248 0.133155
0.553528 0.136686 0.133928
0.585602 0.137459 0.134883
0.615124 0.138285 0.135996
0.635469 0.139261 0.137486
0.653011 0.140097 0.138822
0.150997 0.141624 0.143559
0.153677 0.141758 0.142846
0.156667 0.141907 0.142106
0.162560 0.142540 0.141616
0.169632 0.143263 0.141157
0.188538 0.144033 0.140350
0.209695 0.144823 0.139498
0.274612 0.143055 0.136957
0.351579 0.140544 0.133951
0.418906 0.139461 0.132799
0.480464 0.139408 0.133032
0.534193 0.139771 0.133628
0.573058 0.140857 0.134890
0.608974 0.141963 0.136240
0.634571 0.143239 0.137955
0.656776 0.144371 0.139520
0.152516 0.147989 0.144992
0.155424 0.148035 0.144454
0.158598 0.148095 0.143910
0.164055 0.148585 0.143490
0.170558 0.149206 0.143089
0.187620 0.150323 0.142346
0.206955 0.151537 0.141542
0.272515 0.149909 0.138711
0.351219 0.147587 0.135386
0.422037 0.146569 0.134022
0.488000 0.146701 0.134234
0.545740 0.147245 0.134834
0.587004 0.148398 0.136081
0.625163 0.149680 0.137509
0.652053 0.151126 0.139422
0.675881 0.152463 0.141187
0.154228 0.155698 0.146823
0.157529 0.155651 0.146426
0.161058 0.155648 0.145991
0.166466 0.156057 0.145622
0.172876 0.156538 0.145234
0.190978 0.157988 0.144401
0.211716 0.159735 0.143522
0.279564 0.159167 0.140503
0.360831 0.157840 0.136893
0.435229 0.158057 0.135468
0.503977 0.158918 0.135749
0.564758 0.160028 0.136318
0.608177 0.161496 0.137526
0.648158 0.163056 0.138933
0.675607 0.164282 0.140950
0.700549 0.165453 0.142877
0.157339 0.175009 0.149791
0.161249 0.175361 0.149301
0.165307 0.175353 0.148784
0.171421 0.175984 0.148388
0.178862 0.176580 0.147925
0.204738 0.181199 0.146953
0.234468 0.186560 0.145895
0.317682 0.194870 0.142930
0.417215 0.204516 0.139484
0.500280 0.211682 0.138276
0.571675 0.216990 0.138928
0.634406 0.221352 0.139675
0.679151 0.223773 0.140582
0.719525 0.224970 0.141527
0.744718 0.224015 0.142820
0.768689 0.223406 0.144108
0.160799 0.197042 0.152986
0.165244 0.197492 0.152398
0.169973 0.197850 0.151771
0.176885 0.198395 0.151265
0.185903 0.199591 0.150772
0.220690 0.207610 0.149629
0.260847 0.217239 0.148371
0.362198 0.236102 0.145513
0.481221 0.257509 0.142193
0.574679 0.272662 0.141261
0.647121 0.282506 0.142345
0.712205 0.290746 0.143277
0.757373 0.293517 0.143799
0.798466 0.295022 0.144250
0.822104 0.292514 0.144736
0.844037 0.289531 0.145244
0.170334 0.253349 0.161245
0.175398 0.254823 0.160314
0.181205 0.256759 0.159337
0.192833 0.260859 0.158209
0.207665 0.264988 0.157001
0.257190 0.276074 0.155719
0.313398 0.288706 0.154514
